(G-CODE GENERATED BY FLATCAM v8.994 - www.flatcam.org - Version Date: 2020/11/7)

(Name: Q1060-Shield Arduino_copperBottom.gbl_mt_paint_cnc)
(Type: G-code from Geometry)
(Units: MM)

(Created on Friday, 08 December 2023 at 07:45)

(This preprocessor is used with a motion controller loaded with GRBL firmware.)
(It is configured to be compatible with almost any version of GRBL firmware.)

(TOOL DIAMETER: 0.5 mm)
(Feedrate_XY: 150.0 mm/min)
(Feedrate_Z: 50.0 mm/min)
(Feedrate rapids 1500.0 mm/min)

(Z_Cut: 0.0 mm)
(Z_Move: 2.0 mm)
(Z Start: None mm)
(Z End: 15.0 mm)
(X,Y End: 0.0000, 0.0000 mm)
(Steps per circle: 64)
(Steps per circle: 64)
(Preprocessor Geometry: GRBL_11_no_M6)

(X range:    1.6219 ...   38.6625  mm)
(Y range:    1.5457 ...   51.2863  mm)

(Spindle Speed: 0.0 RPM)
G21
G90
G17
G94


G01 F150.00

M5             
G00 Z15.0000
G00 X0.0000 Y0.0000                
T2
(MSG, Change to Tool Dia = 0.5000)
M0
G00 Z15.0000
        
M03
G01 F150.00
G00 X1.6219 Y2.2860
G01 F50.00
G01 Z0.0000
G01 F150.00
G01 X1.6255 Y2.3586 F150.00
G01 X1.6361 Y2.4304 F150.00
G01 X1.6538 Y2.5009 F150.00
G01 X1.6783 Y2.5693 F150.00
G01 X1.7093 Y2.6350 F150.00
G01 X1.7467 Y2.6973 F150.00
G01 X1.7899 Y2.7556 F150.00
G01 X1.8387 Y2.8095 F150.00
G01 X1.8926 Y2.8583 F150.00
G01 X1.9509 Y2.9015 F150.00
G01 X2.0132 Y2.9389 F150.00
G01 X2.0789 Y2.9699 F150.00
G01 X2.1473 Y2.9944 F150.00
G01 X2.2178 Y3.0121 F150.00
G01 X2.2896 Y3.0227 F150.00
G01 X2.3622 Y3.0263 F150.00
G01 X2.4348 Y3.0227 F150.00
G01 X2.5066 Y3.0121 F150.00
G01 X2.5771 Y2.9944 F150.00
G01 X2.6455 Y2.9699 F150.00
G01 X2.7112 Y2.9389 F150.00
G01 X2.7735 Y2.9015 F150.00
G01 X2.8318 Y2.8583 F150.00
G01 X2.8857 Y2.8095 F150.00
G01 X2.9345 Y2.7556 F150.00
G01 X2.9777 Y2.6973 F150.00
G01 X3.0151 Y2.6350 F150.00
G01 X3.0461 Y2.5693 F150.00
G01 X3.0706 Y2.5009 F150.00
G01 X3.0883 Y2.4304 F150.00
G01 X3.0989 Y2.3586 F150.00
G01 X3.1025 Y2.2860 F150.00
G01 X3.0989 Y2.2134 F150.00
G01 X3.0883 Y2.1416 F150.00
G01 X3.0706 Y2.0711 F150.00
G01 X3.0461 Y2.0027 F150.00
G01 X3.0151 Y1.9370 F150.00
G01 X2.9777 Y1.8747 F150.00
G01 X2.9345 Y1.8164 F150.00
G01 X2.8857 Y1.7625 F150.00
G01 X2.8318 Y1.7137 F150.00
G01 X2.7735 Y1.6705 F150.00
G01 X2.7112 Y1.6331 F150.00
G01 X2.6455 Y1.6021 F150.00
G01 X2.5771 Y1.5776 F150.00
G01 X2.5066 Y1.5599 F150.00
G01 X2.4348 Y1.5493 F150.00
G01 X2.3622 Y1.5457 F150.00
G01 X2.2896 Y1.5493 F150.00
G01 X2.2178 Y1.5599 F150.00
G01 X2.1473 Y1.5776 F150.00
G01 X2.0789 Y1.6021 F150.00
G01 X2.0132 Y1.6331 F150.00
G01 X1.9509 Y1.6705 F150.00
G01 X1.8926 Y1.7137 F150.00
G01 X1.8387 Y1.7625 F150.00
G01 X1.7899 Y1.8164 F150.00
G01 X1.7467 Y1.8747 F150.00
G01 X1.7093 Y1.9370 F150.00
G01 X1.6783 Y2.0027 F150.00
G01 X1.6538 Y2.0711 F150.00
G01 X1.6361 Y2.1416 F150.00
G01 X1.6255 Y2.2134 F150.00
G01 X1.6219 Y2.2860 F150.00
G01 X1.9573 Y2.2860 F150.00
G01 X1.9593 Y2.3257 F150.00
G01 X1.9651 Y2.3650 F150.00
G01 X1.9747 Y2.4035 F150.00
G01 X1.9881 Y2.4409 F150.00
G01 X2.0051 Y2.4769 F150.00
G01 X2.0255 Y2.5109 F150.00
G01 X2.0492 Y2.5429 F150.00
G01 X2.0759 Y2.5723 F150.00
G01 X2.1053 Y2.5990 F150.00
G01 X2.1373 Y2.6227 F150.00
G01 X2.1713 Y2.6431 F150.00
G01 X2.2073 Y2.6601 F150.00
G01 X2.2447 Y2.6735 F150.00
G01 X2.2832 Y2.6831 F150.00
G01 X2.3225 Y2.6889 F150.00
G01 X2.3622 Y2.6909 F150.00
G01 X2.4019 Y2.6889 F150.00
G01 X2.4412 Y2.6831 F150.00
G01 X2.4797 Y2.6735 F150.00
G01 X2.5171 Y2.6601 F150.00
G01 X2.5531 Y2.6431 F150.00
G01 X2.5871 Y2.6227 F150.00
G01 X2.6191 Y2.5990 F150.00
G01 X2.6485 Y2.5723 F150.00
G01 X2.6752 Y2.5429 F150.00
G01 X2.6989 Y2.5109 F150.00
G01 X2.7193 Y2.4769 F150.00
G01 X2.7363 Y2.4409 F150.00
G01 X2.7497 Y2.4035 F150.00
G01 X2.7593 Y2.3650 F150.00
G01 X2.7651 Y2.3257 F150.00
G01 X2.7671 Y2.2860 F150.00
G01 X2.7651 Y2.2463 F150.00
G01 X2.7593 Y2.2070 F150.00
G01 X2.7497 Y2.1685 F150.00
G01 X2.7363 Y2.1311 F150.00
G01 X2.7193 Y2.0951 F150.00
G01 X2.6989 Y2.0611 F150.00
G01 X2.6752 Y2.0291 F150.00
G01 X2.6485 Y1.9997 F150.00
G01 X2.6191 Y1.9730 F150.00
G01 X2.5871 Y1.9493 F150.00
G01 X2.5531 Y1.9289 F150.00
G01 X2.5171 Y1.9119 F150.00
G01 X2.4797 Y1.8985 F150.00
G01 X2.4412 Y1.8889 F150.00
G01 X2.4019 Y1.8831 F150.00
G01 X2.3622 Y1.8811 F150.00
G01 X2.3225 Y1.8831 F150.00
G01 X2.2832 Y1.8889 F150.00
G01 X2.2447 Y1.8985 F150.00
G01 X2.2073 Y1.9119 F150.00
G01 X2.1713 Y1.9289 F150.00
G01 X2.1373 Y1.9493 F150.00
G01 X2.1053 Y1.9730 F150.00
G01 X2.0759 Y1.9997 F150.00
G01 X2.0492 Y2.0291 F150.00
G01 X2.0255 Y2.0611 F150.00
G01 X2.0051 Y2.0951 F150.00
G01 X1.9881 Y2.1311 F150.00
G01 X1.9747 Y2.1685 F150.00
G01 X1.9651 Y2.2070 F150.00
G01 X1.9593 Y2.2463 F150.00
G01 X1.9573 Y2.2860 F150.00
G01 X2.2927 Y2.2860 F150.00
G01 X2.2930 Y2.2928 F150.00
G01 X2.2940 Y2.2996 F150.00
G01 X2.2957 Y2.3062 F150.00
G01 X2.2980 Y2.3126 F150.00
G01 X2.3009 Y2.3188 F150.00
G01 X2.3044 Y2.3246 F150.00
G01 X2.3085 Y2.3301 F150.00
G01 X2.3131 Y2.3351 F150.00
G01 X2.3181 Y2.3397 F150.00
G01 X2.3236 Y2.3438 F150.00
G01 X2.3294 Y2.3473 F150.00
G01 X2.3356 Y2.3502 F150.00
G01 X2.3420 Y2.3525 F150.00
G01 X2.3486 Y2.3542 F150.00
G01 X2.3554 Y2.3552 F150.00
G01 X2.3622 Y2.3555 F150.00
G01 X2.3690 Y2.3552 F150.00
G01 X2.3758 Y2.3542 F150.00
G01 X2.3824 Y2.3525 F150.00
G01 X2.3888 Y2.3502 F150.00
G01 X2.3950 Y2.3473 F150.00
G01 X2.4008 Y2.3438 F150.00
G01 X2.4063 Y2.3397 F150.00
G01 X2.4113 Y2.3351 F150.00
G01 X2.4159 Y2.3301 F150.00
G01 X2.4200 Y2.3246 F150.00
G01 X2.4235 Y2.3188 F150.00
G01 X2.4264 Y2.3126 F150.00
G01 X2.4287 Y2.3062 F150.00
G01 X2.4304 Y2.2996 F150.00
G01 X2.4314 Y2.2928 F150.00
G01 X2.4317 Y2.2860 F150.00
G01 X2.4314 Y2.2792 F150.00
G01 X2.4304 Y2.2724 F150.00
G01 X2.4287 Y2.2658 F150.00
G01 X2.4264 Y2.2594 F150.00
G01 X2.4235 Y2.2532 F150.00
G01 X2.4200 Y2.2474 F150.00
G01 X2.4159 Y2.2419 F150.00
G01 X2.4113 Y2.2369 F150.00
G01 X2.4063 Y2.2323 F150.00
G01 X2.4008 Y2.2282 F150.00
G01 X2.3950 Y2.2247 F150.00
G01 X2.3888 Y2.2218 F150.00
G01 X2.3824 Y2.2195 F150.00
G01 X2.3758 Y2.2178 F150.00
G01 X2.3690 Y2.2168 F150.00
G01 X2.3622 Y2.2165 F150.00
G01 X2.3554 Y2.2168 F150.00
G01 X2.3486 Y2.2178 F150.00
G01 X2.3420 Y2.2195 F150.00
G01 X2.3356 Y2.2218 F150.00
G01 X2.3294 Y2.2247 F150.00
G01 X2.3236 Y2.2282 F150.00
G01 X2.3181 Y2.2323 F150.00
G01 X2.3131 Y2.2369 F150.00
G01 X2.3085 Y2.2419 F150.00
G01 X2.3044 Y2.2474 F150.00
G01 X2.3009 Y2.2532 F150.00
G01 X2.2980 Y2.2594 F150.00
G01 X2.2957 Y2.2658 F150.00
G01 X2.2940 Y2.2724 F150.00
G01 X2.2930 Y2.2792 F150.00
G01 X2.2927 Y2.2860 F150.00
G00 Z2.0000
G00 X4.1619 Y2.2860
G01 F50.00
G01 Z0.0000
G01 F150.00
G01 X4.1655 Y2.3586 F150.00
G01 X4.1761 Y2.4304 F150.00
G01 X4.1938 Y2.5009 F150.00
G01 X4.2183 Y2.5693 F150.00
G01 X4.2493 Y2.6350 F150.00
G01 X4.2867 Y2.6973 F150.00
G01 X4.3299 Y2.7556 F150.00
G01 X4.3787 Y2.8095 F150.00
G01 X4.4326 Y2.8583 F150.00
G01 X4.4909 Y2.9015 F150.00
G01 X4.5532 Y2.9389 F150.00
G01 X4.6189 Y2.9699 F150.00
G01 X4.6873 Y2.9944 F150.00
G01 X4.7578 Y3.0121 F150.00
G01 X4.8296 Y3.0227 F150.00
G01 X4.9022 Y3.0263 F150.00
G01 X4.9748 Y3.0227 F150.00
G01 X5.0466 Y3.0121 F150.00
G01 X5.1171 Y2.9944 F150.00
G01 X5.1855 Y2.9699 F150.00
G01 X5.2512 Y2.9389 F150.00
G01 X5.3135 Y2.9015 F150.00
G01 X5.3718 Y2.8583 F150.00
G01 X5.4257 Y2.8095 F150.00
G01 X5.4745 Y2.7556 F150.00
G01 X5.5177 Y2.6973 F150.00
G01 X5.5551 Y2.6350 F150.00
G01 X5.5861 Y2.5693 F150.00
G01 X5.6106 Y2.5009 F150.00
G01 X5.6283 Y2.4304 F150.00
G01 X5.6389 Y2.3586 F150.00
G01 X5.6425 Y2.2860 F150.00
G01 X5.6389 Y2.2134 F150.00
G01 X5.6283 Y2.1416 F150.00
G01 X5.6106 Y2.0711 F150.00
G01 X5.5861 Y2.0027 F150.00
G01 X5.5551 Y1.9370 F150.00
G01 X5.5177 Y1.8747 F150.00
G01 X5.4745 Y1.8164 F150.00
G01 X5.4257 Y1.7625 F150.00
G01 X5.3718 Y1.7137 F150.00
G01 X5.3135 Y1.6705 F150.00
G01 X5.2512 Y1.6331 F150.00
G01 X5.1855 Y1.6021 F150.00
G01 X5.1171 Y1.5776 F150.00
G01 X5.0466 Y1.5599 F150.00
G01 X4.9748 Y1.5493 F150.00
G01 X4.9022 Y1.5457 F150.00
G01 X4.8296 Y1.5493 F150.00
G01 X4.7578 Y1.5599 F150.00
G01 X4.6873 Y1.5776 F150.00
G01 X4.6189 Y1.6021 F150.00
G01 X4.5532 Y1.6331 F150.00
G01 X4.4909 Y1.6705 F150.00
G01 X4.4326 Y1.7137 F150.00
G01 X4.3787 Y1.7625 F150.00
G01 X4.3299 Y1.8164 F150.00
G01 X4.2867 Y1.8747 F150.00
G01 X4.2493 Y1.9370 F150.00
G01 X4.2183 Y2.0027 F150.00
G01 X4.1938 Y2.0711 F150.00
G01 X4.1761 Y2.1416 F150.00
G01 X4.1655 Y2.2134 F150.00
G01 X4.1619 Y2.2860 F150.00
G01 X4.4973 Y2.2860 F150.00
G01 X4.4993 Y2.3257 F150.00
G01 X4.5051 Y2.3650 F150.00
G01 X4.5147 Y2.4035 F150.00
G01 X4.5281 Y2.4409 F150.00
G01 X4.5451 Y2.4769 F150.00
G01 X4.5655 Y2.5109 F150.00
G01 X4.5892 Y2.5429 F150.00
G01 X4.6159 Y2.5723 F150.00
G01 X4.6453 Y2.5990 F150.00
G01 X4.6773 Y2.6227 F150.00
G01 X4.7113 Y2.6431 F150.00
G01 X4.7473 Y2.6601 F150.00
G01 X4.7847 Y2.6735 F150.00
G01 X4.8232 Y2.6831 F150.00
G01 X4.8625 Y2.6889 F150.00
G01 X4.9022 Y2.6909 F150.00
G01 X4.9419 Y2.6889 F150.00
G01 X4.9812 Y2.6831 F150.00
G01 X5.0197 Y2.6735 F150.00
G01 X5.0571 Y2.6601 F150.00
G01 X5.0931 Y2.6431 F150.00
G01 X5.1271 Y2.6227 F150.00
G01 X5.1591 Y2.5990 F150.00
G01 X5.1885 Y2.5723 F150.00
G01 X5.2152 Y2.5429 F150.00
G01 X5.2389 Y2.5109 F150.00
G01 X5.2593 Y2.4769 F150.00
G01 X5.2763 Y2.4409 F150.00
G01 X5.2897 Y2.4035 F150.00
G01 X5.2993 Y2.3650 F150.00
G01 X5.3051 Y2.3257 F150.00
G01 X5.3071 Y2.2860 F150.00
G01 X5.3051 Y2.2463 F150.00
G01 X5.2993 Y2.2070 F150.00
G01 X5.2897 Y2.1685 F150.00
G01 X5.2763 Y2.1311 F150.00
G01 X5.2593 Y2.0951 F150.00
G01 X5.2389 Y2.0611 F150.00
G01 X5.2152 Y2.0291 F150.00
G01 X5.1885 Y1.9997 F150.00
G01 X5.1591 Y1.9730 F150.00
G01 X5.1271 Y1.9493 F150.00
G01 X5.0931 Y1.9289 F150.00
G01 X5.0571 Y1.9119 F150.00
G01 X5.0197 Y1.8985 F150.00
G01 X4.9812 Y1.8889 F150.00
G01 X4.9419 Y1.8831 F150.00
G01 X4.9022 Y1.8811 F150.00
G01 X4.8625 Y1.8831 F150.00
G01 X4.8232 Y1.8889 F150.00
G01 X4.7847 Y1.8985 F150.00
G01 X4.7473 Y1.9119 F150.00
G01 X4.7113 Y1.9289 F150.00
G01 X4.6773 Y1.9493 F150.00
G01 X4.6453 Y1.9730 F150.00
G01 X4.6159 Y1.9997 F150.00
G01 X4.5892 Y2.0291 F150.00
G01 X4.5655 Y2.0611 F150.00
G01 X4.5451 Y2.0951 F150.00
G01 X4.5281 Y2.1311 F150.00
G01 X4.5147 Y2.1685 F150.00
G01 X4.5051 Y2.2070 F150.00
G01 X4.4993 Y2.2463 F150.00
G01 X4.4973 Y2.2860 F150.00
G01 X4.8327 Y2.2860 F150.00
G01 X4.8330 Y2.2928 F150.00
G01 X4.8340 Y2.2996 F150.00
G01 X4.8357 Y2.3062 F150.00
G01 X4.8380 Y2.3126 F150.00
G01 X4.8409 Y2.3188 F150.00
G01 X4.8444 Y2.3246 F150.00
G01 X4.8485 Y2.3301 F150.00
G01 X4.8531 Y2.3351 F150.00
G01 X4.8581 Y2.3397 F150.00
G01 X4.8636 Y2.3438 F150.00
G01 X4.8694 Y2.3473 F150.00
G01 X4.8756 Y2.3502 F150.00
G01 X4.8820 Y2.3525 F150.00
G01 X4.8886 Y2.3542 F150.00
G01 X4.8954 Y2.3552 F150.00
G01 X4.9022 Y2.3555 F150.00
G01 X4.9090 Y2.3552 F150.00
G01 X4.9158 Y2.3542 F150.00
G01 X4.9224 Y2.3525 F150.00
G01 X4.9288 Y2.3502 F150.00
G01 X4.9350 Y2.3473 F150.00
G01 X4.9408 Y2.3438 F150.00
G01 X4.9463 Y2.3397 F150.00
G01 X4.9513 Y2.3351 F150.00
G01 X4.9559 Y2.3301 F150.00
G01 X4.9600 Y2.3246 F150.00
G01 X4.9635 Y2.3188 F150.00
G01 X4.9664 Y2.3126 F150.00
G01 X4.9687 Y2.3062 F150.00
G01 X4.9704 Y2.2996 F150.00
G01 X4.9714 Y2.2928 F150.00
G01 X4.9717 Y2.2860 F150.00
G01 X4.9714 Y2.2792 F150.00
G01 X4.9704 Y2.2724 F150.00
G01 X4.9687 Y2.2658 F150.00
G01 X4.9664 Y2.2594 F150.00
G01 X4.9635 Y2.2532 F150.00
G01 X4.9600 Y2.2474 F150.00
G01 X4.9559 Y2.2419 F150.00
G01 X4.9513 Y2.2369 F150.00
G01 X4.9463 Y2.2323 F150.00
G01 X4.9408 Y2.2282 F150.00
G01 X4.9350 Y2.2247 F150.00
G01 X4.9288 Y2.2218 F150.00
G01 X4.9224 Y2.2195 F150.00
G01 X4.9158 Y2.2178 F150.00
G01 X4.9090 Y2.2168 F150.00
G01 X4.9022 Y2.2165 F150.00
G01 X4.8954 Y2.2168 F150.00
G01 X4.8886 Y2.2178 F150.00
G01 X4.8820 Y2.2195 F150.00
G01 X4.8756 Y2.2218 F150.00
G01 X4.8694 Y2.2247 F150.00
G01 X4.8636 Y2.2282 F150.00
G01 X4.8581 Y2.2323 F150.00
G01 X4.8531 Y2.2369 F150.00
G01 X4.8485 Y2.2419 F150.00
G01 X4.8444 Y2.2474 F150.00
G01 X4.8409 Y2.2532 F150.00
G01 X4.8380 Y2.2594 F150.00
G01 X4.8357 Y2.2658 F150.00
G01 X4.8340 Y2.2724 F150.00
G01 X4.8330 Y2.2792 F150.00
G01 X4.8327 Y2.2860 F150.00
G00 Z2.0000
G00 X6.7019 Y2.2860
G01 F50.00
G01 Z0.0000
G01 F150.00
G01 X6.7055 Y2.3586 F150.00
G01 X6.7161 Y2.4304 F150.00
G01 X6.7338 Y2.5009 F150.00
G01 X6.7583 Y2.5693 F150.00
G01 X6.7893 Y2.6350 F150.00
G01 X6.8267 Y2.6973 F150.00
G01 X6.8699 Y2.7556 F150.00
G01 X6.9187 Y2.8095 F150.00
G01 X6.9726 Y2.8583 F150.00
G01 X7.0309 Y2.9015 F150.00
G01 X7.0932 Y2.9389 F150.00
G01 X7.1589 Y2.9699 F150.00
G01 X7.2273 Y2.9944 F150.00
G01 X7.2978 Y3.0121 F150.00
G01 X7.3696 Y3.0227 F150.00
G01 X7.4422 Y3.0263 F150.00
G01 X7.5148 Y3.0227 F150.00
G01 X7.5866 Y3.0121 F150.00
G01 X7.6571 Y2.9944 F150.00
G01 X7.7255 Y2.9699 F150.00
G01 X7.7912 Y2.9389 F150.00
G01 X7.8535 Y2.9015 F150.00
G01 X7.9118 Y2.8583 F150.00
G01 X7.9657 Y2.8095 F150.00
G01 X8.0145 Y2.7556 F150.00
G01 X8.0577 Y2.6973 F150.00
G01 X8.0951 Y2.6350 F150.00
G01 X8.1261 Y2.5693 F150.00
G01 X8.1506 Y2.5009 F150.00
G01 X8.1683 Y2.4304 F150.00
G01 X8.1789 Y2.3586 F150.00
G01 X8.1825 Y2.2860 F150.00
G01 X8.1789 Y2.2134 F150.00
G01 X8.1683 Y2.1416 F150.00
G01 X8.1506 Y2.0711 F150.00
G01 X8.1261 Y2.0027 F150.00
G01 X8.0951 Y1.9370 F150.00
G01 X8.0577 Y1.8747 F150.00
G01 X8.0145 Y1.8164 F150.00
G01 X7.9657 Y1.7625 F150.00
G01 X7.9118 Y1.7137 F150.00
G01 X7.8535 Y1.6705 F150.00
G01 X7.7912 Y1.6331 F150.00
G01 X7.7255 Y1.6021 F150.00
G01 X7.6571 Y1.5776 F150.00
G01 X7.5866 Y1.5599 F150.00
G01 X7.5148 Y1.5493 F150.00
G01 X7.4422 Y1.5457 F150.00
G01 X7.3696 Y1.5493 F150.00
G01 X7.2978 Y1.5599 F150.00
G01 X7.2273 Y1.5776 F150.00
G01 X7.1589 Y1.6021 F150.00
G01 X7.0932 Y1.6331 F150.00
G01 X7.0309 Y1.6705 F150.00
G01 X6.9726 Y1.7137 F150.00
G01 X6.9187 Y1.7625 F150.00
G01 X6.8699 Y1.8164 F150.00
G01 X6.8267 Y1.8747 F150.00
G01 X6.7893 Y1.9370 F150.00
G01 X6.7583 Y2.0027 F150.00
G01 X6.7338 Y2.0711 F150.00
G01 X6.7161 Y2.1416 F150.00
G01 X6.7055 Y2.2134 F150.00
G01 X6.7019 Y2.2860 F150.00
G01 X7.0373 Y2.2860 F150.00
G01 X7.0393 Y2.3257 F150.00
G01 X7.0451 Y2.3650 F150.00
G01 X7.0547 Y2.4035 F150.00
G01 X7.0681 Y2.4409 F150.00
G01 X7.0851 Y2.4769 F150.00
G01 X7.1055 Y2.5109 F150.00
G01 X7.1292 Y2.5429 F150.00
G01 X7.1559 Y2.5723 F150.00
G01 X7.1853 Y2.5990 F150.00
G01 X7.2173 Y2.6227 F150.00
G01 X7.2513 Y2.6431 F150.00
G01 X7.2873 Y2.6601 F150.00
G01 X7.3247 Y2.6735 F150.00
G01 X7.3632 Y2.6831 F150.00
G01 X7.4025 Y2.6889 F150.00
G01 X7.4422 Y2.6909 F150.00
G01 X7.4819 Y2.6889 F150.00
G01 X7.5212 Y2.6831 F150.00
G01 X7.5597 Y2.6735 F150.00
G01 X7.5971 Y2.6601 F150.00
G01 X7.6331 Y2.6431 F150.00
G01 X7.6671 Y2.6227 F150.00
G01 X7.6991 Y2.5990 F150.00
G01 X7.7285 Y2.5723 F150.00
G01 X7.7552 Y2.5429 F150.00
G01 X7.7789 Y2.5109 F150.00
G01 X7.7993 Y2.4769 F150.00
G01 X7.8163 Y2.4409 F150.00
G01 X7.8297 Y2.4035 F150.00
G01 X7.8393 Y2.3650 F150.00
G01 X7.8451 Y2.3257 F150.00
G01 X7.8471 Y2.2860 F150.00
G01 X7.8451 Y2.2463 F150.00
G01 X7.8393 Y2.2070 F150.00
G01 X7.8297 Y2.1685 F150.00
G01 X7.8163 Y2.1311 F150.00
G01 X7.7993 Y2.0951 F150.00
G01 X7.7789 Y2.0611 F150.00
G01 X7.7552 Y2.0291 F150.00
G01 X7.7285 Y1.9997 F150.00
G01 X7.6991 Y1.9730 F150.00
G01 X7.6671 Y1.9493 F150.00
G01 X7.6331 Y1.9289 F150.00
G01 X7.5971 Y1.9119 F150.00
G01 X7.5597 Y1.8985 F150.00
G01 X7.5212 Y1.8889 F150.00
G01 X7.4819 Y1.8831 F150.00
G01 X7.4422 Y1.8811 F150.00
G01 X7.4025 Y1.8831 F150.00
G01 X7.3632 Y1.8889 F150.00
G01 X7.3247 Y1.8985 F150.00
G01 X7.2873 Y1.9119 F150.00
G01 X7.2513 Y1.9289 F150.00
G01 X7.2173 Y1.9493 F150.00
G01 X7.1853 Y1.9730 F150.00
G01 X7.1559 Y1.9997 F150.00
G01 X7.1292 Y2.0291 F150.00
G01 X7.1055 Y2.0611 F150.00
G01 X7.0851 Y2.0951 F150.00
G01 X7.0681 Y2.1311 F150.00
G01 X7.0547 Y2.1685 F150.00
G01 X7.0451 Y2.2070 F150.00
G01 X7.0393 Y2.2463 F150.00
G01 X7.0373 Y2.2860 F150.00
G01 X7.3727 Y2.2860 F150.00
G01 X7.3730 Y2.2928 F150.00
G01 X7.3740 Y2.2996 F150.00
G01 X7.3757 Y2.3062 F150.00
G01 X7.3780 Y2.3126 F150.00
G01 X7.3809 Y2.3188 F150.00
G01 X7.3844 Y2.3246 F150.00
G01 X7.3885 Y2.3301 F150.00
G01 X7.3931 Y2.3351 F150.00
G01 X7.3981 Y2.3397 F150.00
G01 X7.4036 Y2.3438 F150.00
G01 X7.4094 Y2.3473 F150.00
G01 X7.4156 Y2.3502 F150.00
G01 X7.4220 Y2.3525 F150.00
G01 X7.4286 Y2.3542 F150.00
G01 X7.4354 Y2.3552 F150.00
G01 X7.4422 Y2.3555 F150.00
G01 X7.4490 Y2.3552 F150.00
G01 X7.4558 Y2.3542 F150.00
G01 X7.4624 Y2.3525 F150.00
G01 X7.4688 Y2.3502 F150.00
G01 X7.4750 Y2.3473 F150.00
G01 X7.4808 Y2.3438 F150.00
G01 X7.4863 Y2.3397 F150.00
G01 X7.4913 Y2.3351 F150.00
G01 X7.4959 Y2.3301 F150.00
G01 X7.5000 Y2.3246 F150.00
G01 X7.5035 Y2.3188 F150.00
G01 X7.5064 Y2.3126 F150.00
G01 X7.5087 Y2.3062 F150.00
G01 X7.5104 Y2.2996 F150.00
G01 X7.5114 Y2.2928 F150.00
G01 X7.5117 Y2.2860 F150.00
G01 X7.5114 Y2.2792 F150.00
G01 X7.5104 Y2.2724 F150.00
G01 X7.5087 Y2.2658 F150.00
G01 X7.5064 Y2.2594 F150.00
G01 X7.5035 Y2.2532 F150.00
G01 X7.5000 Y2.2474 F150.00
G01 X7.4959 Y2.2419 F150.00
G01 X7.4913 Y2.2369 F150.00
G01 X7.4863 Y2.2323 F150.00
G01 X7.4808 Y2.2282 F150.00
G01 X7.4750 Y2.2247 F150.00
G01 X7.4688 Y2.2218 F150.00
G01 X7.4624 Y2.2195 F150.00
G01 X7.4558 Y2.2178 F150.00
G01 X7.4490 Y2.2168 F150.00
G01 X7.4422 Y2.2165 F150.00
G01 X7.4354 Y2.2168 F150.00
G01 X7.4286 Y2.2178 F150.00
G01 X7.4220 Y2.2195 F150.00
G01 X7.4156 Y2.2218 F150.00
G01 X7.4094 Y2.2247 F150.00
G01 X7.4036 Y2.2282 F150.00
G01 X7.3981 Y2.2323 F150.00
G01 X7.3931 Y2.2369 F150.00
G01 X7.3885 Y2.2419 F150.00
G01 X7.3844 Y2.2474 F150.00
G01 X7.3809 Y2.2532 F150.00
G01 X7.3780 Y2.2594 F150.00
G01 X7.3757 Y2.2658 F150.00
G01 X7.3740 Y2.2724 F150.00
G01 X7.3730 Y2.2792 F150.00
G01 X7.3727 Y2.2860 F150.00
G00 Z2.0000
G00 X9.2419 Y2.2860
G01 F50.00
G01 Z0.0000
G01 F150.00
G01 X9.2455 Y2.3586 F150.00
G01 X9.2561 Y2.4304 F150.00
G01 X9.2738 Y2.5009 F150.00
G01 X9.2983 Y2.5693 F150.00
G01 X9.3293 Y2.6350 F150.00
G01 X9.3667 Y2.6973 F150.00
G01 X9.4099 Y2.7556 F150.00
G01 X9.4587 Y2.8095 F150.00
G01 X9.5126 Y2.8583 F150.00
G01 X9.5709 Y2.9015 F150.00
G01 X9.6332 Y2.9389 F150.00
G01 X9.6989 Y2.9699 F150.00
G01 X9.7673 Y2.9944 F150.00
G01 X9.8378 Y3.0121 F150.00
G01 X9.9096 Y3.0227 F150.00
G01 X9.9822 Y3.0263 F150.00
G01 X10.0548 Y3.0227 F150.00
G01 X10.1266 Y3.0121 F150.00
G01 X10.1971 Y2.9944 F150.00
G01 X10.2655 Y2.9699 F150.00
G01 X10.3312 Y2.9389 F150.00
G01 X10.3935 Y2.9015 F150.00
G01 X10.4518 Y2.8583 F150.00
G01 X10.5057 Y2.8095 F150.00
G01 X10.5545 Y2.7556 F150.00
G01 X10.5977 Y2.6973 F150.00
G01 X10.6351 Y2.6350 F150.00
G01 X10.6661 Y2.5693 F150.00
G01 X10.6906 Y2.5009 F150.00
G01 X10.7083 Y2.4304 F150.00
G01 X10.7189 Y2.3586 F150.00
G01 X10.7225 Y2.2860 F150.00
G01 X10.7189 Y2.2134 F150.00
G01 X10.7083 Y2.1416 F150.00
G01 X10.6906 Y2.0711 F150.00
G01 X10.6661 Y2.0027 F150.00
G01 X10.6351 Y1.9370 F150.00
G01 X10.5977 Y1.8747 F150.00
G01 X10.5545 Y1.8164 F150.00
G01 X10.5057 Y1.7625 F150.00
G01 X10.4518 Y1.7137 F150.00
G01 X10.3935 Y1.6705 F150.00
G01 X10.3312 Y1.6331 F150.00
G01 X10.2655 Y1.6021 F150.00
G01 X10.1971 Y1.5776 F150.00
G01 X10.1266 Y1.5599 F150.00
G01 X10.0548 Y1.5493 F150.00
G01 X9.9822 Y1.5457 F150.00
G01 X9.9096 Y1.5493 F150.00
G01 X9.8378 Y1.5599 F150.00
G01 X9.7673 Y1.5776 F150.00
G01 X9.6989 Y1.6021 F150.00
G01 X9.6332 Y1.6331 F150.00
G01 X9.5709 Y1.6705 F150.00
G01 X9.5126 Y1.7137 F150.00
G01 X9.4587 Y1.7625 F150.00
G01 X9.4099 Y1.8164 F150.00
G01 X9.3667 Y1.8747 F150.00
G01 X9.3293 Y1.9370 F150.00
G01 X9.2983 Y2.0027 F150.00
G01 X9.2738 Y2.0711 F150.00
G01 X9.2561 Y2.1416 F150.00
G01 X9.2455 Y2.2134 F150.00
G01 X9.2419 Y2.2860 F150.00
G01 X9.5773 Y2.2860 F150.00
G01 X9.5793 Y2.3257 F150.00
G01 X9.5851 Y2.3650 F150.00
G01 X9.5947 Y2.4035 F150.00
G01 X9.6081 Y2.4409 F150.00
G01 X9.6251 Y2.4769 F150.00
G01 X9.6455 Y2.5109 F150.00
G01 X9.6692 Y2.5429 F150.00
G01 X9.6959 Y2.5723 F150.00
G01 X9.7253 Y2.5990 F150.00
G01 X9.7573 Y2.6227 F150.00
G01 X9.7913 Y2.6431 F150.00
G01 X9.8273 Y2.6601 F150.00
G01 X9.8647 Y2.6735 F150.00
G01 X9.9032 Y2.6831 F150.00
G01 X9.9425 Y2.6889 F150.00
G01 X9.9822 Y2.6909 F150.00
G01 X10.0219 Y2.6889 F150.00
G01 X10.0612 Y2.6831 F150.00
G01 X10.0997 Y2.6735 F150.00
G01 X10.1371 Y2.6601 F150.00
G01 X10.1731 Y2.6431 F150.00
G01 X10.2071 Y2.6227 F150.00
G01 X10.2391 Y2.5990 F150.00
G01 X10.2685 Y2.5723 F150.00
G01 X10.2952 Y2.5429 F150.00
G01 X10.3189 Y2.5109 F150.00
G01 X10.3393 Y2.4769 F150.00
G01 X10.3563 Y2.4409 F150.00
G01 X10.3697 Y2.4035 F150.00
G01 X10.3793 Y2.3650 F150.00
G01 X10.3851 Y2.3257 F150.00
G01 X10.3871 Y2.2860 F150.00
G01 X10.3851 Y2.2463 F150.00
G01 X10.3793 Y2.2070 F150.00
G01 X10.3697 Y2.1685 F150.00
G01 X10.3563 Y2.1311 F150.00
G01 X10.3393 Y2.0951 F150.00
G01 X10.3189 Y2.0611 F150.00
G01 X10.2952 Y2.0291 F150.00
G01 X10.2685 Y1.9997 F150.00
G01 X10.2391 Y1.9730 F150.00
G01 X10.2071 Y1.9493 F150.00
G01 X10.1731 Y1.9289 F150.00
G01 X10.1371 Y1.9119 F150.00
G01 X10.0997 Y1.8985 F150.00
G01 X10.0612 Y1.8889 F150.00
G01 X10.0219 Y1.8831 F150.00
G01 X9.9822 Y1.8811 F150.00
G01 X9.9425 Y1.8831 F150.00
G01 X9.9032 Y1.8889 F150.00
G01 X9.8647 Y1.8985 F150.00
G01 X9.8273 Y1.9119 F150.00
G01 X9.7913 Y1.9289 F150.00
G01 X9.7573 Y1.9493 F150.00
G01 X9.7253 Y1.9730 F150.00
G01 X9.6959 Y1.9997 F150.00
G01 X9.6692 Y2.0291 F150.00
G01 X9.6455 Y2.0611 F150.00
G01 X9.6251 Y2.0951 F150.00
G01 X9.6081 Y2.1311 F150.00
G01 X9.5947 Y2.1685 F150.00
G01 X9.5851 Y2.2070 F150.00
G01 X9.5793 Y2.2463 F150.00
G01 X9.5773 Y2.2860 F150.00
G01 X9.9127 Y2.2860 F150.00
G01 X9.9130 Y2.2928 F150.00
G01 X9.9140 Y2.2996 F150.00
G01 X9.9157 Y2.3062 F150.00
G01 X9.9180 Y2.3126 F150.00
G01 X9.9209 Y2.3188 F150.00
G01 X9.9244 Y2.3246 F150.00
G01 X9.9285 Y2.3301 F150.00
G01 X9.9331 Y2.3351 F150.00
G01 X9.9381 Y2.3397 F150.00
G01 X9.9436 Y2.3438 F150.00
G01 X9.9494 Y2.3473 F150.00
G01 X9.9556 Y2.3502 F150.00
G01 X9.9620 Y2.3525 F150.00
G01 X9.9686 Y2.3542 F150.00
G01 X9.9754 Y2.3552 F150.00
G01 X9.9822 Y2.3555 F150.00
G01 X9.9890 Y2.3552 F150.00
G01 X9.9958 Y2.3542 F150.00
G01 X10.0024 Y2.3525 F150.00
G01 X10.0088 Y2.3502 F150.00
G01 X10.0150 Y2.3473 F150.00
G01 X10.0208 Y2.3438 F150.00
G01 X10.0263 Y2.3397 F150.00
G01 X10.0313 Y2.3351 F150.00
G01 X10.0359 Y2.3301 F150.00
G01 X10.0400 Y2.3246 F150.00
G01 X10.0435 Y2.3188 F150.00
G01 X10.0464 Y2.3126 F150.00
G01 X10.0487 Y2.3062 F150.00
G01 X10.0504 Y2.2996 F150.00
G01 X10.0514 Y2.2928 F150.00
G01 X10.0517 Y2.2860 F150.00
G01 X10.0514 Y2.2792 F150.00
G01 X10.0504 Y2.2724 F150.00
G01 X10.0487 Y2.2658 F150.00
G01 X10.0464 Y2.2594 F150.00
G01 X10.0435 Y2.2532 F150.00
G01 X10.0400 Y2.2474 F150.00
G01 X10.0359 Y2.2419 F150.00
G01 X10.0313 Y2.2369 F150.00
G01 X10.0263 Y2.2323 F150.00
G01 X10.0208 Y2.2282 F150.00
G01 X10.0150 Y2.2247 F150.00
G01 X10.0088 Y2.2218 F150.00
G01 X10.0024 Y2.2195 F150.00
G01 X9.9958 Y2.2178 F150.00
G01 X9.9890 Y2.2168 F150.00
G01 X9.9822 Y2.2165 F150.00
G01 X9.9754 Y2.2168 F150.00
G01 X9.9686 Y2.2178 F150.00
G01 X9.9620 Y2.2195 F150.00
G01 X9.9556 Y2.2218 F150.00
G01 X9.9494 Y2.2247 F150.00
G01 X9.9436 Y2.2282 F150.00
G01 X9.9381 Y2.2323 F150.00
G01 X9.9331 Y2.2369 F150.00
G01 X9.9285 Y2.2419 F150.00
G01 X9.9244 Y2.2474 F150.00
G01 X9.9209 Y2.2532 F150.00
G01 X9.9180 Y2.2594 F150.00
G01 X9.9157 Y2.2658 F150.00
G01 X9.9140 Y2.2724 F150.00
G01 X9.9130 Y2.2792 F150.00
G01 X9.9127 Y2.2860 F150.00
G00 Z2.0000
G00 X11.7819 Y2.2860
G01 F50.00
G01 Z0.0000
G01 F150.00
G01 X11.7855 Y2.3586 F150.00
G01 X11.7961 Y2.4304 F150.00
G01 X11.8138 Y2.5009 F150.00
G01 X11.8383 Y2.5693 F150.00
G01 X11.8693 Y2.6350 F150.00
G01 X11.9067 Y2.6973 F150.00
G01 X11.9499 Y2.7556 F150.00
G01 X11.9987 Y2.8095 F150.00
G01 X12.0526 Y2.8583 F150.00
G01 X12.1109 Y2.9015 F150.00
G01 X12.1732 Y2.9389 F150.00
G01 X12.2389 Y2.9699 F150.00
G01 X12.3073 Y2.9944 F150.00
G01 X12.3778 Y3.0121 F150.00
G01 X12.4496 Y3.0227 F150.00
G01 X12.5222 Y3.0263 F150.00
G01 X12.5948 Y3.0227 F150.00
G01 X12.6666 Y3.0121 F150.00
G01 X12.7371 Y2.9944 F150.00
G01 X12.8055 Y2.9699 F150.00
G01 X12.8712 Y2.9389 F150.00
G01 X12.9335 Y2.9015 F150.00
G01 X12.9918 Y2.8583 F150.00
G01 X13.0457 Y2.8095 F150.00
G01 X13.0945 Y2.7556 F150.00
G01 X13.1377 Y2.6973 F150.00
G01 X13.1751 Y2.6350 F150.00
G01 X13.2061 Y2.5693 F150.00
G01 X13.2306 Y2.5009 F150.00
G01 X13.2483 Y2.4304 F150.00
G01 X13.2589 Y2.3586 F150.00
G01 X13.2625 Y2.2860 F150.00
G01 X13.2589 Y2.2134 F150.00
G01 X13.2483 Y2.1416 F150.00
G01 X13.2306 Y2.0711 F150.00
G01 X13.2061 Y2.0027 F150.00
G01 X13.1751 Y1.9370 F150.00
G01 X13.1377 Y1.8747 F150.00
G01 X13.0945 Y1.8164 F150.00
G01 X13.0457 Y1.7625 F150.00
G01 X12.9918 Y1.7137 F150.00
G01 X12.9335 Y1.6705 F150.00
G01 X12.8712 Y1.6331 F150.00
G01 X12.8055 Y1.6021 F150.00
G01 X12.7371 Y1.5776 F150.00
G01 X12.6666 Y1.5599 F150.00
G01 X12.5948 Y1.5493 F150.00
G01 X12.5222 Y1.5457 F150.00
G01 X12.4496 Y1.5493 F150.00
G01 X12.3778 Y1.5599 F150.00
G01 X12.3073 Y1.5776 F150.00
G01 X12.2389 Y1.6021 F150.00
G01 X12.1732 Y1.6331 F150.00
G01 X12.1109 Y1.6705 F150.00
G01 X12.0526 Y1.7137 F150.00
G01 X11.9987 Y1.7625 F150.00
G01 X11.9499 Y1.8164 F150.00
G01 X11.9067 Y1.8747 F150.00
G01 X11.8693 Y1.9370 F150.00
G01 X11.8383 Y2.0027 F150.00
G01 X11.8138 Y2.0711 F150.00
G01 X11.7961 Y2.1416 F150.00
G01 X11.7855 Y2.2134 F150.00
G01 X11.7819 Y2.2860 F150.00
G01 X12.1173 Y2.2860 F150.00
G01 X12.1193 Y2.3257 F150.00
G01 X12.1251 Y2.3650 F150.00
G01 X12.1347 Y2.4035 F150.00
G01 X12.1481 Y2.4409 F150.00
G01 X12.1651 Y2.4769 F150.00
G01 X12.1855 Y2.5109 F150.00
G01 X12.2092 Y2.5429 F150.00
G01 X12.2359 Y2.5723 F150.00
G01 X12.2653 Y2.5990 F150.00
G01 X12.2973 Y2.6227 F150.00
G01 X12.3313 Y2.6431 F150.00
G01 X12.3673 Y2.6601 F150.00
G01 X12.4047 Y2.6735 F150.00
G01 X12.4432 Y2.6831 F150.00
G01 X12.4825 Y2.6889 F150.00
G01 X12.5222 Y2.6909 F150.00
G01 X12.5619 Y2.6889 F150.00
G01 X12.6012 Y2.6831 F150.00
G01 X12.6397 Y2.6735 F150.00
G01 X12.6771 Y2.6601 F150.00
G01 X12.7131 Y2.6431 F150.00
G01 X12.7471 Y2.6227 F150.00
G01 X12.7791 Y2.5990 F150.00
G01 X12.8085 Y2.5723 F150.00
G01 X12.8352 Y2.5429 F150.00
G01 X12.8589 Y2.5109 F150.00
G01 X12.8793 Y2.4769 F150.00
G01 X12.8963 Y2.4409 F150.00
G01 X12.9097 Y2.4035 F150.00
G01 X12.9193 Y2.3650 F150.00
G01 X12.9251 Y2.3257 F150.00
G01 X12.9271 Y2.2860 F150.00
G01 X12.9251 Y2.2463 F150.00
G01 X12.9193 Y2.2070 F150.00
G01 X12.9097 Y2.1685 F150.00
G01 X12.8963 Y2.1311 F150.00
G01 X12.8793 Y2.0951 F150.00
G01 X12.8589 Y2.0611 F150.00
G01 X12.8352 Y2.0291 F150.00
G01 X12.8085 Y1.9997 F150.00
G01 X12.7791 Y1.9730 F150.00
G01 X12.7471 Y1.9493 F150.00
G01 X12.7131 Y1.9289 F150.00
G01 X12.6771 Y1.9119 F150.00
G01 X12.6397 Y1.8985 F150.00
G01 X12.6012 Y1.8889 F150.00
G01 X12.5619 Y1.8831 F150.00
G01 X12.5222 Y1.8811 F150.00
G01 X12.4825 Y1.8831 F150.00
G01 X12.4432 Y1.8889 F150.00
G01 X12.4047 Y1.8985 F150.00
G01 X12.3673 Y1.9119 F150.00
G01 X12.3313 Y1.9289 F150.00
G01 X12.2973 Y1.9493 F150.00
G01 X12.2653 Y1.9730 F150.00
G01 X12.2359 Y1.9997 F150.00
G01 X12.2092 Y2.0291 F150.00
G01 X12.1855 Y2.0611 F150.00
G01 X12.1651 Y2.0951 F150.00
G01 X12.1481 Y2.1311 F150.00
G01 X12.1347 Y2.1685 F150.00
G01 X12.1251 Y2.2070 F150.00
G01 X12.1193 Y2.2463 F150.00
G01 X12.1173 Y2.2860 F150.00
G01 X12.4527 Y2.2860 F150.00
G01 X12.4530 Y2.2928 F150.00
G01 X12.4540 Y2.2996 F150.00
G01 X12.4557 Y2.3062 F150.00
G01 X12.4580 Y2.3126 F150.00
G01 X12.4609 Y2.3188 F150.00
G01 X12.4644 Y2.3246 F150.00
G01 X12.4685 Y2.3301 F150.00
G01 X12.4731 Y2.3351 F150.00
G01 X12.4781 Y2.3397 F150.00
G01 X12.4836 Y2.3438 F150.00
G01 X12.4894 Y2.3473 F150.00
G01 X12.4956 Y2.3502 F150.00
G01 X12.5020 Y2.3525 F150.00
G01 X12.5086 Y2.3542 F150.00
G01 X12.5154 Y2.3552 F150.00
G01 X12.5222 Y2.3555 F150.00
G01 X12.5290 Y2.3552 F150.00
G01 X12.5358 Y2.3542 F150.00
G01 X12.5424 Y2.3525 F150.00
G01 X12.5488 Y2.3502 F150.00
G01 X12.5550 Y2.3473 F150.00
G01 X12.5608 Y2.3438 F150.00
G01 X12.5663 Y2.3397 F150.00
G01 X12.5713 Y2.3351 F150.00
G01 X12.5759 Y2.3301 F150.00
G01 X12.5800 Y2.3246 F150.00
G01 X12.5835 Y2.3188 F150.00
G01 X12.5864 Y2.3126 F150.00
G01 X12.5887 Y2.3062 F150.00
G01 X12.5904 Y2.2996 F150.00
G01 X12.5914 Y2.2928 F150.00
G01 X12.5917 Y2.2860 F150.00
G01 X12.5914 Y2.2792 F150.00
G01 X12.5904 Y2.2724 F150.00
G01 X12.5887 Y2.2658 F150.00
G01 X12.5864 Y2.2594 F150.00
G01 X12.5835 Y2.2532 F150.00
G01 X12.5800 Y2.2474 F150.00
G01 X12.5759 Y2.2419 F150.00
G01 X12.5713 Y2.2369 F150.00
G01 X12.5663 Y2.2323 F150.00
G01 X12.5608 Y2.2282 F150.00
G01 X12.5550 Y2.2247 F150.00
G01 X12.5488 Y2.2218 F150.00
G01 X12.5424 Y2.2195 F150.00
G01 X12.5358 Y2.2178 F150.00
G01 X12.5290 Y2.2168 F150.00
G01 X12.5222 Y2.2165 F150.00
G01 X12.5154 Y2.2168 F150.00
G01 X12.5086 Y2.2178 F150.00
G01 X12.5020 Y2.2195 F150.00
G01 X12.4956 Y2.2218 F150.00
G01 X12.4894 Y2.2247 F150.00
G01 X12.4836 Y2.2282 F150.00
G01 X12.4781 Y2.2323 F150.00
G01 X12.4731 Y2.2369 F150.00
G01 X12.4685 Y2.2419 F150.00
G01 X12.4644 Y2.2474 F150.00
G01 X12.4609 Y2.2532 F150.00
G01 X12.4580 Y2.2594 F150.00
G01 X12.4557 Y2.2658 F150.00
G01 X12.4540 Y2.2724 F150.00
G01 X12.4530 Y2.2792 F150.00
G01 X12.4527 Y2.2860 F150.00
G00 Z2.0000
G00 X14.3219 Y2.2860
G01 F50.00
G01 Z0.0000
G01 F150.00
G01 X14.3255 Y2.3586 F150.00
G01 X14.3361 Y2.4304 F150.00
G01 X14.3538 Y2.5009 F150.00
G01 X14.3783 Y2.5693 F150.00
G01 X14.4093 Y2.6350 F150.00
G01 X14.4467 Y2.6973 F150.00
G01 X14.4899 Y2.7556 F150.00
G01 X14.5387 Y2.8095 F150.00
G01 X14.5926 Y2.8583 F150.00
G01 X14.6509 Y2.9015 F150.00
G01 X14.7132 Y2.9389 F150.00
G01 X14.7789 Y2.9699 F150.00
G01 X14.8473 Y2.9944 F150.00
G01 X14.9178 Y3.0121 F150.00
G01 X14.9896 Y3.0227 F150.00
G01 X15.0622 Y3.0263 F150.00
G01 X15.1348 Y3.0227 F150.00
G01 X15.2066 Y3.0121 F150.00
G01 X15.2771 Y2.9944 F150.00
G01 X15.3455 Y2.9699 F150.00
G01 X15.4112 Y2.9389 F150.00
G01 X15.4735 Y2.9015 F150.00
G01 X15.5318 Y2.8583 F150.00
G01 X15.5857 Y2.8095 F150.00
G01 X15.6345 Y2.7556 F150.00
G01 X15.6777 Y2.6973 F150.00
G01 X15.7151 Y2.6350 F150.00
G01 X15.7461 Y2.5693 F150.00
G01 X15.7706 Y2.5009 F150.00
G01 X15.7883 Y2.4304 F150.00
G01 X15.7989 Y2.3586 F150.00
G01 X15.8025 Y2.2860 F150.00
G01 X15.7989 Y2.2134 F150.00
G01 X15.7883 Y2.1416 F150.00
G01 X15.7706 Y2.0711 F150.00
G01 X15.7461 Y2.0027 F150.00
G01 X15.7151 Y1.9370 F150.00
G01 X15.6777 Y1.8747 F150.00
G01 X15.6345 Y1.8164 F150.00
G01 X15.5857 Y1.7625 F150.00
G01 X15.5318 Y1.7137 F150.00
G01 X15.4735 Y1.6705 F150.00
G01 X15.4112 Y1.6331 F150.00
G01 X15.3455 Y1.6021 F150.00
G01 X15.2771 Y1.5776 F150.00
G01 X15.2066 Y1.5599 F150.00
G01 X15.1348 Y1.5493 F150.00
G01 X15.0622 Y1.5457 F150.00
G01 X14.9896 Y1.5493 F150.00
G01 X14.9178 Y1.5599 F150.00
G01 X14.8473 Y1.5776 F150.00
G01 X14.7789 Y1.6021 F150.00
G01 X14.7132 Y1.6331 F150.00
G01 X14.6509 Y1.6705 F150.00
G01 X14.5926 Y1.7137 F150.00
G01 X14.5387 Y1.7625 F150.00
G01 X14.4899 Y1.8164 F150.00
G01 X14.4467 Y1.8747 F150.00
G01 X14.4093 Y1.9370 F150.00
G01 X14.3783 Y2.0027 F150.00
G01 X14.3538 Y2.0711 F150.00
G01 X14.3361 Y2.1416 F150.00
G01 X14.3255 Y2.2134 F150.00
G01 X14.3219 Y2.2860 F150.00
G01 X14.6573 Y2.2860 F150.00
G01 X14.6593 Y2.3257 F150.00
G01 X14.6651 Y2.3650 F150.00
G01 X14.6747 Y2.4035 F150.00
G01 X14.6881 Y2.4409 F150.00
G01 X14.7051 Y2.4769 F150.00
G01 X14.7255 Y2.5109 F150.00
G01 X14.7492 Y2.5429 F150.00
G01 X14.7759 Y2.5723 F150.00
G01 X14.8053 Y2.5990 F150.00
G01 X14.8373 Y2.6227 F150.00
G01 X14.8713 Y2.6431 F150.00
G01 X14.9073 Y2.6601 F150.00
G01 X14.9447 Y2.6735 F150.00
G01 X14.9832 Y2.6831 F150.00
G01 X15.0225 Y2.6889 F150.00
G01 X15.0622 Y2.6909 F150.00
G01 X15.1019 Y2.6889 F150.00
G01 X15.1412 Y2.6831 F150.00
G01 X15.1797 Y2.6735 F150.00
G01 X15.2171 Y2.6601 F150.00
G01 X15.2531 Y2.6431 F150.00
G01 X15.2871 Y2.6227 F150.00
G01 X15.3191 Y2.5990 F150.00
G01 X15.3485 Y2.5723 F150.00
G01 X15.3752 Y2.5429 F150.00
G01 X15.3989 Y2.5109 F150.00
G01 X15.4193 Y2.4769 F150.00
G01 X15.4363 Y2.4409 F150.00
G01 X15.4497 Y2.4035 F150.00
G01 X15.4593 Y2.3650 F150.00
G01 X15.4651 Y2.3257 F150.00
G01 X15.4671 Y2.2860 F150.00
G01 X15.4651 Y2.2463 F150.00
G01 X15.4593 Y2.2070 F150.00
G01 X15.4497 Y2.1685 F150.00
G01 X15.4363 Y2.1311 F150.00
G01 X15.4193 Y2.0951 F150.00
G01 X15.3989 Y2.0611 F150.00
G01 X15.3752 Y2.0291 F150.00
G01 X15.3485 Y1.9997 F150.00
G01 X15.3191 Y1.9730 F150.00
G01 X15.2871 Y1.9493 F150.00
G01 X15.2531 Y1.9289 F150.00
G01 X15.2171 Y1.9119 F150.00
G01 X15.1797 Y1.8985 F150.00
G01 X15.1412 Y1.8889 F150.00
G01 X15.1019 Y1.8831 F150.00
G01 X15.0622 Y1.8811 F150.00
G01 X15.0225 Y1.8831 F150.00
G01 X14.9832 Y1.8889 F150.00
G01 X14.9447 Y1.8985 F150.00
G01 X14.9073 Y1.9119 F150.00
G01 X14.8713 Y1.9289 F150.00
G01 X14.8373 Y1.9493 F150.00
G01 X14.8053 Y1.9730 F150.00
G01 X14.7759 Y1.9997 F150.00
G01 X14.7492 Y2.0291 F150.00
G01 X14.7255 Y2.0611 F150.00
G01 X14.7051 Y2.0951 F150.00
G01 X14.6881 Y2.1311 F150.00
G01 X14.6747 Y2.1685 F150.00
G01 X14.6651 Y2.2070 F150.00
G01 X14.6593 Y2.2463 F150.00
G01 X14.6573 Y2.2860 F150.00
G01 X14.9927 Y2.2860 F150.00
G01 X14.9930 Y2.2928 F150.00
G01 X14.9940 Y2.2996 F150.00
G01 X14.9957 Y2.3062 F150.00
G01 X14.9980 Y2.3126 F150.00
G01 X15.0009 Y2.3188 F150.00
G01 X15.0044 Y2.3246 F150.00
G01 X15.0085 Y2.3301 F150.00
G01 X15.0131 Y2.3351 F150.00
G01 X15.0181 Y2.3397 F150.00
G01 X15.0236 Y2.3438 F150.00
G01 X15.0294 Y2.3473 F150.00
G01 X15.0356 Y2.3502 F150.00
G01 X15.0420 Y2.3525 F150.00
G01 X15.0486 Y2.3542 F150.00
G01 X15.0554 Y2.3552 F150.00
G01 X15.0622 Y2.3555 F150.00
G01 X15.0690 Y2.3552 F150.00
G01 X15.0758 Y2.3542 F150.00
G01 X15.0824 Y2.3525 F150.00
G01 X15.0888 Y2.3502 F150.00
G01 X15.0950 Y2.3473 F150.00
G01 X15.1008 Y2.3438 F150.00
G01 X15.1063 Y2.3397 F150.00
G01 X15.1113 Y2.3351 F150.00
G01 X15.1159 Y2.3301 F150.00
G01 X15.1200 Y2.3246 F150.00
G01 X15.1235 Y2.3188 F150.00
G01 X15.1264 Y2.3126 F150.00
G01 X15.1287 Y2.3062 F150.00
G01 X15.1304 Y2.2996 F150.00
G01 X15.1314 Y2.2928 F150.00
G01 X15.1317 Y2.2860 F150.00
G01 X15.1314 Y2.2792 F150.00
G01 X15.1304 Y2.2724 F150.00
G01 X15.1287 Y2.2658 F150.00
G01 X15.1264 Y2.2594 F150.00
G01 X15.1235 Y2.2532 F150.00
G01 X15.1200 Y2.2474 F150.00
G01 X15.1159 Y2.2419 F150.00
G01 X15.1113 Y2.2369 F150.00
G01 X15.1063 Y2.2323 F150.00
G01 X15.1008 Y2.2282 F150.00
G01 X15.0950 Y2.2247 F150.00
G01 X15.0888 Y2.2218 F150.00
G01 X15.0824 Y2.2195 F150.00
G01 X15.0758 Y2.2178 F150.00
G01 X15.0690 Y2.2168 F150.00
G01 X15.0622 Y2.2165 F150.00
G01 X15.0554 Y2.2168 F150.00
G01 X15.0486 Y2.2178 F150.00
G01 X15.0420 Y2.2195 F150.00
G01 X15.0356 Y2.2218 F150.00
G01 X15.0294 Y2.2247 F150.00
G01 X15.0236 Y2.2282 F150.00
G01 X15.0181 Y2.2323 F150.00
G01 X15.0131 Y2.2369 F150.00
G01 X15.0085 Y2.2419 F150.00
G01 X15.0044 Y2.2474 F150.00
G01 X15.0009 Y2.2532 F150.00
G01 X14.9980 Y2.2594 F150.00
G01 X14.9957 Y2.2658 F150.00
G01 X14.9940 Y2.2724 F150.00
G01 X14.9930 Y2.2792 F150.00
G01 X14.9927 Y2.2860 F150.00
G00 Z2.0000
G00 X17.9155 Y5.8395
G01 F50.00
G01 Z0.0000
G01 F150.00
G01 X17.9310 Y5.8591 F150.00
G01 X17.9489 Y5.8797 F150.00
G01 X17.9677 Y5.8995 F150.00
G01 X17.9875 Y5.9183 F150.00
G01 X18.0080 Y5.9362 F150.00
G01 X18.0294 Y5.9531 F150.00
G01 X18.0516 Y5.9691 F150.00
G01 X18.0745 Y5.9839 F150.00
G01 X18.0980 Y5.9977 F150.00
G01 X18.1222 Y6.0104 F150.00
G01 X18.1469 Y6.0219 F150.00
G01 X18.1721 Y6.0323 F150.00
G01 X18.1978 Y6.0414 F150.00
G01 X18.2239 Y6.0494 F150.00
G01 X18.2503 Y6.0561 F150.00
G01 X18.2694 Y6.0602 F150.00
G01 X18.2962 Y6.0648 F150.00
G01 X18.3175 Y6.0676 F150.00
G01 X18.3447 Y6.0699 F150.00
G01 X18.3641 Y6.0708 F150.00
G01 X18.3817 Y6.0711 F150.00
G01 X18.6267 Y6.0711 F150.00
G01 X18.6447 Y6.0708 F150.00
G01 X18.6646 Y6.0699 F150.00
G01 X18.6866 Y6.0680 F150.00
G01 X18.7143 Y6.0645 F150.00
G01 X18.7340 Y6.0612 F150.00
G01 X18.7614 Y6.0554 F150.00
G01 X18.7884 Y6.0483 F150.00
G01 X18.8151 Y6.0399 F150.00
G01 X18.8358 Y6.0324 F150.00
G01 X18.8617 Y6.0218 F150.00
G01 X18.8871 Y6.0099 F150.00
G01 X18.9118 Y5.9969 F150.00
G01 X18.9291 Y5.9869 F150.00
G01 X18.9527 Y5.9718 F150.00
G01 X18.9756 Y5.9557 F150.00
G01 X18.9930 Y5.9422 F150.00
G01 X19.0083 Y5.9295 F150.00
G01 X19.0291 Y5.9107 F150.00
G01 X19.9629 Y5.0135 F150.00
G01 X19.9735 Y5.0029 F150.00
G01 X19.9881 Y4.9874 F150.00
G01 X20.0007 Y4.9729 F150.00
G01 X20.0129 Y4.9581 F150.00
G01 X20.0259 Y4.9411 F150.00
G01 X20.0346 Y4.9290 F150.00
G01 X20.0510 Y4.9040 F150.00
G01 X20.0682 Y4.8745 F150.00
G01 X20.0772 Y4.8575 F150.00
G01 X20.0864 Y4.8382 F150.00
G01 X20.0941 Y4.8206 F150.00
G01 X20.1012 Y4.8028 F150.00
G01 X20.1085 Y4.7827 F150.00
G01 X20.1144 Y4.7644 F150.00
G01 X20.1196 Y4.7459 F150.00
G01 X20.1248 Y4.7252 F150.00
G01 X20.1287 Y4.7064 F150.00
G01 X20.1321 Y4.6875 F150.00
G01 X20.1351 Y4.6663 F150.00
G01 X20.1372 Y4.6472 F150.00
G01 X20.1392 Y4.6131 F150.00
G01 X20.1395 Y4.5875 F150.00
G01 X20.1209 Y3.0610 F150.00
G01 X20.1194 Y3.0269 F150.00
G01 X20.1171 Y3.0013 F150.00
G01 X20.1122 Y2.9675 F150.00
G01 X20.1063 Y2.9382 F150.00
G01 X20.1028 Y2.9236 F150.00
G01 X20.0971 Y2.9031 F150.00
G01 X20.0879 Y2.8746 F150.00
G01 X20.0828 Y2.8605 F150.00
G01 X20.0740 Y2.8387 F150.00
G01 X20.0616 Y2.8115 F150.00
G01 X20.0549 Y2.7982 F150.00
G01 X20.0447 Y2.7794 F150.00
G01 X20.0292 Y2.7538 F150.00
G01 X20.0125 Y2.7290 F150.00
G01 X19.9946 Y2.7050 F150.00
G01 X19.9754 Y2.6821 F150.00
G01 X19.9595 Y2.6647 F150.00
G01 X19.9445 Y2.6495 F150.00
G01 X19.9274 Y2.6334 F150.00
G01 X19.9046 Y2.6140 F150.00
G01 X19.8854 Y2.5990 F150.00
G01 X19.8559 Y2.5723 F150.00
G01 X19.8292 Y2.5429 F150.00
G01 X19.8055 Y2.5109 F150.00
G01 X19.7851 Y2.4769 F150.00
G01 X19.7681 Y2.4409 F150.00
G01 X19.7547 Y2.4035 F150.00
G01 X19.7451 Y2.3650 F150.00
G01 X19.7393 Y2.3257 F150.00
G01 X19.7373 Y2.2860 F150.00
G01 X19.7393 Y2.2463 F150.00
G01 X19.7451 Y2.2070 F150.00
G01 X19.7547 Y2.1685 F150.00
G01 X19.7681 Y2.1311 F150.00
G01 X19.7851 Y2.0951 F150.00
G01 X19.8055 Y2.0611 F150.00
G01 X19.8292 Y2.0291 F150.00
G01 X19.8559 Y1.9997 F150.00
G01 X19.8853 Y1.9730 F150.00
G01 X19.9173 Y1.9493 F150.00
G01 X19.9513 Y1.9289 F150.00
G01 X19.9873 Y1.9119 F150.00
G01 X20.0247 Y1.8985 F150.00
G01 X20.0632 Y1.8889 F150.00
G01 X20.1025 Y1.8831 F150.00
G01 X20.1422 Y1.8811 F150.00
G01 X20.1819 Y1.8831 F150.00
G01 X20.2212 Y1.8889 F150.00
G01 X20.2597 Y1.8985 F150.00
G01 X20.2971 Y1.9119 F150.00
G01 X20.3331 Y1.9289 F150.00
G01 X20.3671 Y1.9493 F150.00
G01 X20.3991 Y1.9730 F150.00
G01 X20.4285 Y1.9997 F150.00
G01 X20.4552 Y2.0291 F150.00
G01 X20.4789 Y2.0611 F150.00
G01 X20.4993 Y2.0951 F150.00
G01 X20.5163 Y2.1311 F150.00
G01 X20.5297 Y2.1685 F150.00
G01 X20.5393 Y2.2070 F150.00
G01 X20.5451 Y2.2463 F150.00
G01 X20.5471 Y2.2860 F150.00
G01 X20.5451 Y2.3257 F150.00
G01 X20.5393 Y2.3650 F150.00
G01 X20.5297 Y2.4035 F150.00
G01 X20.5163 Y2.4409 F150.00
G01 X20.4993 Y2.4769 F150.00
G01 X20.4789 Y2.5109 F150.00
G01 X20.4552 Y2.5429 F150.00
G01 X20.4285 Y2.5723 F150.00
G01 X20.3981 Y2.5999 F150.00
G01 X20.3779 Y2.6162 F150.00
G01 X20.3572 Y2.6345 F150.00
G01 X20.3374 Y2.6538 F150.00
G01 X20.3186 Y2.6741 F150.00
G01 X20.3007 Y2.6951 F150.00
G01 X20.2922 Y2.7060 F150.00
G01 X20.2792 Y2.7235 F150.00
G01 X20.2637 Y2.7463 F150.00
G01 X20.2464 Y2.7750 F150.00
G01 X20.2334 Y2.7994 F150.00
G01 X20.2215 Y2.8244 F150.00
G01 X20.2109 Y2.8499 F150.00
G01 X20.2014 Y2.8758 F150.00
G01 X20.1932 Y2.9022 F150.00
G01 X20.1863 Y2.9290 F150.00
G01 X20.1806 Y2.9560 F150.00
G01 X20.1762 Y2.9833 F150.00
G01 X20.1736 Y3.0049 F150.00
G01 X20.1720 Y3.0245 F150.00
G01 X20.1710 Y3.0462 F150.00
G01 X20.1708 Y3.0660 F150.00
G01 X20.1923 Y4.8374 F150.00
G01 X20.1921 Y4.8470 F150.00
G01 X20.1914 Y4.8562 F150.00
G01 X20.1900 Y4.8608 F150.00
G01 X20.1877 Y4.8650 F150.00
G01 X20.1817 Y4.8720 F150.00
G01 X20.1750 Y4.8789 F150.00
G01 X18.8998 Y6.1040 F150.00
G01 X18.8874 Y6.1149 F150.00
G01 X18.8834 Y6.1175 F150.00
G01 X18.8790 Y6.1193 F150.00
G01 X18.8743 Y6.1201 F150.00
G01 X18.8578 Y6.1209 F150.00
G01 X18.3817 Y6.1209 F150.00
G01 X18.3557 Y6.1215 F150.00
G01 X18.3212 Y6.1240 F150.00
G01 X18.3018 Y6.1264 F150.00
G01 X18.2804 Y6.1297 F150.00
G01 X18.2613 Y6.1334 F150.00
G01 X18.2423 Y6.1378 F150.00
G01 X18.2214 Y6.1433 F150.00
G01 X18.2069 Y6.1476 F150.00
G01 X18.1843 Y6.1552 F150.00
G01 X18.1641 Y6.1629 F150.00
G01 X18.1421 Y6.1722 F150.00
G01 X18.1148 Y6.1853 F150.00
G01 X18.0919 Y6.1977 F150.00
G01 X18.0697 Y6.2111 F150.00
G01 X18.0498 Y6.2242 F150.00
G01 X18.0322 Y6.2368 F150.00
G01 X18.0134 Y6.2514 F150.00
G01 X17.9968 Y6.2653 F150.00
G01 X17.9792 Y6.2814 F150.00
G01 X17.9638 Y6.2965 F150.00
G01 X17.9431 Y6.3187 F150.00
G01 X17.9277 Y6.3369 F150.00
G01 X17.9155 Y6.3525 F150.00
G01 X17.8885 Y6.3823 F150.00
G01 X17.8591 Y6.4090 F150.00
G01 X17.8271 Y6.4327 F150.00
G01 X17.7931 Y6.4531 F150.00
G01 X17.7571 Y6.4701 F150.00
G01 X17.7197 Y6.4835 F150.00
G01 X17.6812 Y6.4931 F150.00
G01 X17.6419 Y6.4989 F150.00
G01 X17.6022 Y6.5009 F150.00
G01 X17.5625 Y6.4989 F150.00
G01 X17.5232 Y6.4931 F150.00
G01 X17.4847 Y6.4835 F150.00
G01 X17.4473 Y6.4701 F150.00
G01 X17.4113 Y6.4531 F150.00
G01 X17.3773 Y6.4327 F150.00
G01 X17.3453 Y6.4090 F150.00
G01 X17.3159 Y6.3823 F150.00
G01 X17.2892 Y6.3529 F150.00
G01 X17.2655 Y6.3209 F150.00
G01 X17.2451 Y6.2869 F150.00
G01 X17.2281 Y6.2509 F150.00
G01 X17.2147 Y6.2135 F150.00
G01 X17.2051 Y6.1750 F150.00
G01 X17.1993 Y6.1357 F150.00
G01 X17.1973 Y6.0960 F150.00
G01 X17.1993 Y6.0563 F150.00
G01 X17.2051 Y6.0170 F150.00
G01 X17.2147 Y5.9785 F150.00
G01 X17.2281 Y5.9411 F150.00
G01 X17.2451 Y5.9051 F150.00
G01 X17.2655 Y5.8711 F150.00
G01 X17.2892 Y5.8391 F150.00
G01 X17.3159 Y5.8097 F150.00
G01 X17.3453 Y5.7830 F150.00
G01 X17.3773 Y5.7593 F150.00
G01 X17.4113 Y5.7389 F150.00
G01 X17.4473 Y5.7219 F150.00
G01 X17.4847 Y5.7085 F150.00
G01 X17.5232 Y5.6989 F150.00
G01 X17.5625 Y5.6931 F150.00
G01 X17.6022 Y5.6911 F150.00
G01 X17.6419 Y5.6931 F150.00
G01 X17.6812 Y5.6989 F150.00
G01 X17.7197 Y5.7085 F150.00
G01 X17.7571 Y5.7219 F150.00
G01 X17.7931 Y5.7389 F150.00
G01 X17.8271 Y5.7593 F150.00
G01 X17.8591 Y5.7830 F150.00
G01 X17.8885 Y5.8097 F150.00
G01 X17.9155 Y5.8395 F150.00
G01 X17.6585 Y6.0548 F150.00
G01 X17.6741 Y6.0740 F150.00
G01 X17.6929 Y6.0960 F150.00
G01 X17.6749 Y6.1170 F150.00
G01 X17.6586 Y6.1371 F150.00
G01 X17.6513 Y6.1451 F150.00
G01 X17.6463 Y6.1497 F150.00
G01 X17.6408 Y6.1538 F150.00
G01 X17.6350 Y6.1573 F150.00
G01 X17.6288 Y6.1602 F150.00
G01 X17.6224 Y6.1625 F150.00
G01 X17.6158 Y6.1642 F150.00
G01 X17.6090 Y6.1652 F150.00
G01 X17.6022 Y6.1655 F150.00
G01 X17.5954 Y6.1652 F150.00
G01 X17.5886 Y6.1642 F150.00
G01 X17.5820 Y6.1625 F150.00
G01 X17.5756 Y6.1602 F150.00
G01 X17.5694 Y6.1573 F150.00
G01 X17.5636 Y6.1538 F150.00
G01 X17.5581 Y6.1497 F150.00
G01 X17.5531 Y6.1451 F150.00
G01 X17.5485 Y6.1401 F150.00
G01 X17.5444 Y6.1346 F150.00
G01 X17.5409 Y6.1288 F150.00
G01 X17.5380 Y6.1226 F150.00
G01 X17.5357 Y6.1162 F150.00
G01 X17.5340 Y6.1096 F150.00
G01 X17.5330 Y6.1028 F150.00
G01 X17.5327 Y6.0960 F150.00
G01 X17.5330 Y6.0892 F150.00
G01 X17.5340 Y6.0824 F150.00
G01 X17.5357 Y6.0758 F150.00
G01 X17.5380 Y6.0694 F150.00
G01 X17.5409 Y6.0632 F150.00
G01 X17.5444 Y6.0574 F150.00
G01 X17.5485 Y6.0519 F150.00
G01 X17.5531 Y6.0469 F150.00
G01 X17.5581 Y6.0423 F150.00
G01 X17.5636 Y6.0382 F150.00
G01 X17.5694 Y6.0347 F150.00
G01 X17.5756 Y6.0318 F150.00
G01 X17.5820 Y6.0295 F150.00
G01 X17.5886 Y6.0278 F150.00
G01 X17.5954 Y6.0268 F150.00
G01 X17.6022 Y6.0265 F150.00
G01 X17.6090 Y6.0268 F150.00
G01 X17.6158 Y6.0278 F150.00
G01 X17.6224 Y6.0295 F150.00
G01 X17.6288 Y6.0318 F150.00
G01 X17.6350 Y6.0347 F150.00
G01 X17.6408 Y6.0382 F150.00
G01 X17.6463 Y6.0423 F150.00
G01 X17.6513 Y6.0469 F150.00
G01 X17.6585 Y6.0548 F150.00
G00 Z2.0000
G00 X18.9062 Y6.4541
G01 F50.00
G01 Z0.0000
G01 F150.00
G01 X18.9365 Y6.4499 F150.00
G01 X18.9709 Y6.4419 F150.00
G01 X19.0043 Y6.4305 F150.00
G01 X19.0365 Y6.4160 F150.00
G01 X19.0710 Y6.3957 F150.00
G01 X19.0994 Y6.3748 F150.00
G01 X19.1260 Y6.3513 F150.00
G01 X20.4125 Y5.1152 F150.00
G01 X20.4248 Y5.1027 F150.00
G01 X20.4411 Y5.0849 F150.00
G01 X20.4482 Y5.0763 F150.00
G01 X20.4627 Y5.0569 F150.00
G01 X20.4689 Y5.0477 F150.00
G01 X20.4814 Y5.0270 F150.00
G01 X20.4867 Y5.0172 F150.00
G01 X20.4971 Y4.9954 F150.00
G01 X20.5014 Y4.9852 F150.00
G01 X20.5096 Y4.9624 F150.00
G01 X20.5129 Y4.9518 F150.00
G01 X20.5189 Y4.9284 F150.00
G01 X20.5211 Y4.9175 F150.00
G01 X20.5247 Y4.8936 F150.00
G01 X20.5259 Y4.8825 F150.00
G01 X20.5271 Y4.8584 F150.00
G01 X20.5274 Y4.8409 F150.00
G01 X20.5058 Y3.0658 F150.00
G01 X20.5062 Y3.0481 F150.00
G01 X20.5078 Y3.0305 F150.00
G01 X20.5107 Y3.0130 F150.00
G01 X20.5149 Y2.9958 F150.00
G01 X20.5183 Y2.9845 F150.00
G01 X20.5244 Y2.9679 F150.00
G01 X20.5317 Y2.9517 F150.00
G01 X20.5372 Y2.9413 F150.00
G01 X20.5464 Y2.9261 F150.00
G01 X20.5531 Y2.9164 F150.00
G01 X20.5602 Y2.9070 F150.00
G01 X20.5678 Y2.8979 F150.00
G01 X20.5758 Y2.8892 F150.00
G01 X20.5842 Y2.8809 F150.00
G01 X20.5975 Y2.8692 F150.00
G01 X20.6118 Y2.8583 F150.00
G01 X20.6657 Y2.8095 F150.00
G01 X20.7145 Y2.7556 F150.00
G01 X20.7577 Y2.6973 F150.00
G01 X20.7951 Y2.6350 F150.00
G01 X20.8261 Y2.5693 F150.00
G01 X20.8506 Y2.5009 F150.00
G01 X20.8683 Y2.4304 F150.00
G01 X20.8789 Y2.3586 F150.00
G01 X20.8825 Y2.2860 F150.00
G01 X20.8789 Y2.2134 F150.00
G01 X20.8683 Y2.1416 F150.00
G01 X20.8506 Y2.0711 F150.00
G01 X20.8261 Y2.0027 F150.00
G01 X20.7951 Y1.9370 F150.00
G01 X20.7577 Y1.8747 F150.00
G01 X20.7145 Y1.8164 F150.00
G01 X20.6657 Y1.7625 F150.00
G01 X20.6118 Y1.7137 F150.00
G01 X20.5535 Y1.6705 F150.00
G01 X20.4912 Y1.6331 F150.00
G01 X20.4255 Y1.6021 F150.00
G01 X20.3571 Y1.5776 F150.00
G01 X20.2866 Y1.5599 F150.00
G01 X20.2148 Y1.5493 F150.00
G01 X20.1422 Y1.5457 F150.00
G01 X20.0696 Y1.5493 F150.00
G01 X19.9978 Y1.5599 F150.00
G01 X19.9273 Y1.5776 F150.00
G01 X19.8589 Y1.6021 F150.00
G01 X19.7932 Y1.6331 F150.00
G01 X19.7309 Y1.6705 F150.00
G01 X19.6726 Y1.7137 F150.00
G01 X19.6187 Y1.7625 F150.00
G01 X19.5699 Y1.8164 F150.00
G01 X19.5267 Y1.8747 F150.00
G01 X19.4893 Y1.9370 F150.00
G01 X19.4583 Y2.0027 F150.00
G01 X19.4338 Y2.0711 F150.00
G01 X19.4161 Y2.1416 F150.00
G01 X19.4055 Y2.2134 F150.00
G01 X19.4019 Y2.2860 F150.00
G01 X19.4055 Y2.3586 F150.00
G01 X19.4161 Y2.4304 F150.00
G01 X19.4338 Y2.5009 F150.00
G01 X19.4583 Y2.5693 F150.00
G01 X19.4893 Y2.6350 F150.00
G01 X19.5267 Y2.6973 F150.00
G01 X19.5699 Y2.7556 F150.00
G01 X19.6187 Y2.8095 F150.00
G01 X19.6726 Y2.8583 F150.00
G01 X19.6949 Y2.8752 F150.00
G01 X19.7046 Y2.8836 F150.00
G01 X19.7138 Y2.8925 F150.00
G01 X19.7225 Y2.9018 F150.00
G01 X19.7308 Y2.9115 F150.00
G01 X19.7422 Y2.9269 F150.00
G01 X19.7524 Y2.9432 F150.00
G01 X19.7585 Y2.9544 F150.00
G01 X19.7640 Y2.9659 F150.00
G01 X19.7690 Y2.9777 F150.00
G01 X19.7733 Y2.9898 F150.00
G01 X19.7786 Y3.0082 F150.00
G01 X19.7814 Y3.0207 F150.00
G01 X19.7843 Y3.0396 F150.00
G01 X19.7854 Y3.0523 F150.00
G01 X19.7859 Y3.0651 F150.00
G01 X19.8045 Y4.5980 F150.00
G01 X19.8035 Y4.6171 F150.00
G01 X19.8011 Y4.6361 F150.00
G01 X19.7972 Y4.6549 F150.00
G01 X19.7938 Y4.6672 F150.00
G01 X19.7897 Y4.6793 F150.00
G01 X19.7826 Y4.6971 F150.00
G01 X19.7741 Y4.7142 F150.00
G01 X19.7677 Y4.7253 F150.00
G01 X19.7607 Y4.7360 F150.00
G01 X19.7493 Y4.7514 F150.00
G01 X19.7410 Y4.7611 F150.00
G01 X19.7277 Y4.7749 F150.00
G01 X18.7999 Y5.6664 F150.00
G01 X18.7911 Y5.6744 F150.00
G01 X18.7819 Y5.6821 F150.00
G01 X18.7723 Y5.6893 F150.00
G01 X18.7624 Y5.6960 F150.00
G01 X18.7523 Y5.7023 F150.00
G01 X18.7418 Y5.7080 F150.00
G01 X18.7310 Y5.7133 F150.00
G01 X18.7200 Y5.7180 F150.00
G01 X18.7032 Y5.7241 F150.00
G01 X18.6917 Y5.7275 F150.00
G01 X18.6801 Y5.7303 F150.00
G01 X18.6683 Y5.7326 F150.00
G01 X18.6565 Y5.7343 F150.00
G01 X18.6446 Y5.7355 F150.00
G01 X18.6327 Y5.7360 F150.00
G01 X18.3759 Y5.7360 F150.00
G01 X18.3584 Y5.7350 F150.00
G01 X18.3411 Y5.7328 F150.00
G01 X18.3239 Y5.7293 F150.00
G01 X18.3071 Y5.7247 F150.00
G01 X18.2906 Y5.7189 F150.00
G01 X18.2798 Y5.7144 F150.00
G01 X18.2693 Y5.7094 F150.00
G01 X18.2590 Y5.7039 F150.00
G01 X18.2490 Y5.6980 F150.00
G01 X18.2392 Y5.6915 F150.00
G01 X18.2298 Y5.6847 F150.00
G01 X18.2207 Y5.6774 F150.00
G01 X18.2077 Y5.6657 F150.00
G01 X18.1956 Y5.6531 F150.00
G01 X18.1844 Y5.6397 F150.00
G01 X18.1745 Y5.6264 F150.00
G01 X18.1257 Y5.5725 F150.00
G01 X18.0718 Y5.5237 F150.00
G01 X18.0135 Y5.4805 F150.00
G01 X17.9512 Y5.4431 F150.00
G01 X17.8855 Y5.4121 F150.00
G01 X17.8171 Y5.3876 F150.00
G01 X17.7466 Y5.3699 F150.00
G01 X17.6748 Y5.3593 F150.00
G01 X17.6022 Y5.3557 F150.00
G01 X17.5296 Y5.3593 F150.00
G01 X17.4578 Y5.3699 F150.00
G01 X17.3873 Y5.3876 F150.00
G01 X17.3189 Y5.4121 F150.00
G01 X17.2532 Y5.4431 F150.00
G01 X17.1909 Y5.4805 F150.00
G01 X17.1326 Y5.5237 F150.00
G01 X17.0787 Y5.5725 F150.00
G01 X17.0299 Y5.6264 F150.00
G01 X16.9867 Y5.6847 F150.00
G01 X16.9493 Y5.7470 F150.00
G01 X16.9183 Y5.8127 F150.00
G01 X16.8938 Y5.8811 F150.00
G01 X16.8761 Y5.9516 F150.00
G01 X16.8655 Y6.0234 F150.00
G01 X16.8619 Y6.0960 F150.00
G01 X16.8655 Y6.1686 F150.00
G01 X16.8761 Y6.2404 F150.00
G01 X16.8938 Y6.3109 F150.00
G01 X16.9183 Y6.3793 F150.00
G01 X16.9493 Y6.4450 F150.00
G01 X16.9867 Y6.5073 F150.00
G01 X17.0299 Y6.5656 F150.00
G01 X17.0787 Y6.6195 F150.00
G01 X17.1326 Y6.6683 F150.00
G01 X17.1909 Y6.7115 F150.00
G01 X17.2532 Y6.7489 F150.00
G01 X17.3189 Y6.7799 F150.00
G01 X17.3873 Y6.8044 F150.00
G01 X17.4578 Y6.8221 F150.00
G01 X17.5296 Y6.8327 F150.00
G01 X17.6022 Y6.8363 F150.00
G01 X17.6748 Y6.8327 F150.00
G01 X17.7466 Y6.8221 F150.00
G01 X17.8171 Y6.8044 F150.00
G01 X17.8855 Y6.7799 F150.00
G01 X17.9512 Y6.7489 F150.00
G01 X18.0135 Y6.7115 F150.00
G01 X18.0718 Y6.6683 F150.00
G01 X18.1257 Y6.6195 F150.00
G01 X18.1745 Y6.5656 F150.00
G01 X18.1848 Y6.5518 F150.00
G01 X18.1974 Y6.5370 F150.00
G01 X18.2110 Y6.5232 F150.00
G01 X18.2257 Y6.5105 F150.00
G01 X18.2361 Y6.5027 F150.00
G01 X18.2468 Y6.4954 F150.00
G01 X18.2579 Y6.4887 F150.00
G01 X18.2693 Y6.4826 F150.00
G01 X18.2810 Y6.4771 F150.00
G01 X18.2930 Y6.4722 F150.00
G01 X18.3052 Y6.4679 F150.00
G01 X18.3239 Y6.4627 F150.00
G01 X18.3366 Y6.4600 F150.00
G01 X18.3494 Y6.4580 F150.00
G01 X18.3623 Y6.4567 F150.00
G01 X18.3752 Y6.4560 F150.00
G01 X18.8661 Y6.4559 F150.00
G01 X18.9062 Y6.4541 F150.00
G00 Z2.0000
G00 X17.6586 Y8.6771
G01 F50.00
G01 Z0.0000
G01 F150.00
G01 X17.6749 Y8.6570 F150.00
G01 X17.6929 Y8.6360 F150.00
G01 X17.6749 Y8.6150 F150.00
G01 X17.6586 Y8.5949 F150.00
G01 X17.6513 Y8.5869 F150.00
G01 X17.6463 Y8.5823 F150.00
G01 X17.6408 Y8.5782 F150.00
G01 X17.6350 Y8.5747 F150.00
G01 X17.6288 Y8.5718 F150.00
G01 X17.6224 Y8.5695 F150.00
G01 X17.6158 Y8.5678 F150.00
G01 X17.6090 Y8.5668 F150.00
G01 X17.6022 Y8.5665 F150.00
G01 X17.5954 Y8.5668 F150.00
G01 X17.5886 Y8.5678 F150.00
G01 X17.5820 Y8.5695 F150.00
G01 X17.5756 Y8.5718 F150.00
G01 X17.5694 Y8.5747 F150.00
G01 X17.5636 Y8.5782 F150.00
G01 X17.5581 Y8.5823 F150.00
G01 X17.5531 Y8.5869 F150.00
G01 X17.5485 Y8.5919 F150.00
G01 X17.5444 Y8.5974 F150.00
G01 X17.5409 Y8.6032 F150.00
G01 X17.5380 Y8.6094 F150.00
G01 X17.5357 Y8.6158 F150.00
G01 X17.5340 Y8.6224 F150.00
G01 X17.5330 Y8.6292 F150.00
G01 X17.5327 Y8.6360 F150.00
G01 X17.5330 Y8.6428 F150.00
G01 X17.5340 Y8.6496 F150.00
G01 X17.5357 Y8.6562 F150.00
G01 X17.5380 Y8.6626 F150.00
G01 X17.5409 Y8.6688 F150.00
G01 X17.5444 Y8.6746 F150.00
G01 X17.5485 Y8.6801 F150.00
G01 X17.5531 Y8.6851 F150.00
G01 X17.5581 Y8.6897 F150.00
G01 X17.5636 Y8.6938 F150.00
G01 X17.5694 Y8.6973 F150.00
G01 X17.5756 Y8.7002 F150.00
G01 X17.5820 Y8.7025 F150.00
G01 X17.5886 Y8.7042 F150.00
G01 X17.5954 Y8.7052 F150.00
G01 X17.6022 Y8.7055 F150.00
G01 X17.6090 Y8.7052 F150.00
G01 X17.6158 Y8.7042 F150.00
G01 X17.6224 Y8.7025 F150.00
G01 X17.6288 Y8.7002 F150.00
G01 X17.6350 Y8.6973 F150.00
G01 X17.6408 Y8.6938 F150.00
G01 X17.6463 Y8.6897 F150.00
G01 X17.6513 Y8.6851 F150.00
G01 X17.6586 Y8.6771 F150.00
G01 X17.9155 Y8.8925 F150.00
G01 X17.9333 Y8.8702 F150.00
G01 X17.9504 Y8.8507 F150.00
G01 X17.9683 Y8.8319 F150.00
G01 X17.9936 Y8.8082 F150.00
G01 X18.0134 Y8.7914 F150.00
G01 X18.0409 Y8.7704 F150.00
G01 X18.0624 Y8.7557 F150.00
G01 X18.0919 Y8.7377 F150.00
G01 X18.1148 Y8.7253 F150.00
G01 X18.1461 Y8.7104 F150.00
G01 X18.1701 Y8.7005 F150.00
G01 X18.2027 Y8.6889 F150.00
G01 X18.2276 Y8.6816 F150.00
G01 X18.2613 Y8.6734 F150.00
G01 X18.2868 Y8.6687 F150.00
G01 X18.3212 Y8.6640 F150.00
G01 X18.3471 Y8.6619 F150.00
G01 X18.3817 Y8.6609 F150.00
G01 X20.1555 Y8.6609 F150.00
G01 X20.1702 Y8.6601 F150.00
G01 X20.1749 Y8.6591 F150.00
G01 X20.1792 Y8.6573 F150.00
G01 X20.1832 Y8.6546 F150.00
G01 X20.1940 Y8.6445 F150.00
G01 X22.6648 Y6.0728 F150.00
G01 X22.6756 Y6.0605 F150.00
G01 X22.6793 Y6.0543 F150.00
G01 X22.6806 Y6.0498 F150.00
G01 X22.6818 Y6.0310 F150.00
G01 X22.7048 Y3.0627 F150.00
G01 X22.7061 Y3.0283 F150.00
G01 X22.7084 Y3.0027 F150.00
G01 X22.7132 Y2.9686 F150.00
G01 X22.7190 Y2.9392 F150.00
G01 X22.7225 Y2.9245 F150.00
G01 X22.7281 Y2.9038 F150.00
G01 X22.7372 Y2.8752 F150.00
G01 X22.7454 Y2.8530 F150.00
G01 X22.7511 Y2.8391 F150.00
G01 X22.7635 Y2.8118 F150.00
G01 X22.7733 Y2.7926 F150.00
G01 X22.7805 Y2.7794 F150.00
G01 X22.7959 Y2.7537 F150.00
G01 X22.8127 Y2.7287 F150.00
G01 X22.8307 Y2.7047 F150.00
G01 X22.8499 Y2.6816 F150.00
G01 X22.8659 Y2.6641 F150.00
G01 X22.8809 Y2.6488 F150.00
G01 X22.8982 Y2.6327 F150.00
G01 X22.9210 Y2.6131 F150.00
G01 X22.9389 Y2.5991 F150.00
G01 X22.9685 Y2.5723 F150.00
G01 X22.9952 Y2.5429 F150.00
G01 X23.0189 Y2.5109 F150.00
G01 X23.0393 Y2.4769 F150.00
G01 X23.0563 Y2.4409 F150.00
G01 X23.0697 Y2.4035 F150.00
G01 X23.0793 Y2.3650 F150.00
G01 X23.0851 Y2.3257 F150.00
G01 X23.0871 Y2.2860 F150.00
G01 X23.0851 Y2.2463 F150.00
G01 X23.0793 Y2.2070 F150.00
G01 X23.0697 Y2.1685 F150.00
G01 X23.0563 Y2.1311 F150.00
G01 X23.0393 Y2.0951 F150.00
G01 X23.0189 Y2.0611 F150.00
G01 X22.9952 Y2.0291 F150.00
G01 X22.9685 Y1.9997 F150.00
G01 X22.9391 Y1.9730 F150.00
G01 X22.9071 Y1.9493 F150.00
G01 X22.8731 Y1.9289 F150.00
G01 X22.8371 Y1.9119 F150.00
G01 X22.7997 Y1.8985 F150.00
G01 X22.7612 Y1.8889 F150.00
G01 X22.7219 Y1.8831 F150.00
G01 X22.6822 Y1.8811 F150.00
G01 X22.6425 Y1.8831 F150.00
G01 X22.6032 Y1.8889 F150.00
G01 X22.5647 Y1.8985 F150.00
G01 X22.5273 Y1.9119 F150.00
G01 X22.4913 Y1.9289 F150.00
G01 X22.4573 Y1.9493 F150.00
G01 X22.4253 Y1.9730 F150.00
G01 X22.3959 Y1.9997 F150.00
G01 X22.3692 Y2.0291 F150.00
G01 X22.3455 Y2.0611 F150.00
G01 X22.3251 Y2.0951 F150.00
G01 X22.3081 Y2.1311 F150.00
G01 X22.2947 Y2.1685 F150.00
G01 X22.2851 Y2.2070 F150.00
G01 X22.2793 Y2.2463 F150.00
G01 X22.2773 Y2.2860 F150.00
G01 X22.2793 Y2.3257 F150.00
G01 X22.2851 Y2.3650 F150.00
G01 X22.2947 Y2.4035 F150.00
G01 X22.3081 Y2.4409 F150.00
G01 X22.3251 Y2.4769 F150.00
G01 X22.3455 Y2.5109 F150.00
G01 X22.3692 Y2.5429 F150.00
G01 X22.3959 Y2.5723 F150.00
G01 X22.4260 Y2.5996 F150.00
G01 X22.4477 Y2.6171 F150.00
G01 X22.4683 Y2.6353 F150.00
G01 X22.4783 Y2.6448 F150.00
G01 X22.4935 Y2.6602 F150.00
G01 X22.5158 Y2.6850 F150.00
G01 X22.5246 Y2.6956 F150.00
G01 X22.5379 Y2.7126 F150.00
G01 X22.5571 Y2.7399 F150.00
G01 X22.5688 Y2.7581 F150.00
G01 X22.5758 Y2.7699 F150.00
G01 X22.5918 Y2.7993 F150.00
G01 X22.6036 Y2.8241 F150.00
G01 X22.6091 Y2.8367 F150.00
G01 X22.6171 Y2.8568 F150.00
G01 X22.6263 Y2.8827 F150.00
G01 X22.6357 Y2.9147 F150.00
G01 X22.6421 Y2.9415 F150.00
G01 X22.6462 Y2.9627 F150.00
G01 X22.6484 Y2.9763 F150.00
G01 X22.6519 Y3.0036 F150.00
G01 X22.6541 Y3.0310 F150.00
G01 X22.6548 Y3.0506 F150.00
G01 X22.6550 Y3.0683 F150.00
G01 X22.6338 Y5.8022 F150.00
G01 X22.6331 Y5.8260 F150.00
G01 X22.6316 Y5.8477 F150.00
G01 X22.6296 Y5.8674 F150.00
G01 X22.6266 Y5.8889 F150.00
G01 X22.6217 Y5.9162 F150.00
G01 X22.6173 Y5.9355 F150.00
G01 X22.6118 Y5.9565 F150.00
G01 X22.6037 Y5.9830 F150.00
G01 X22.5971 Y6.0017 F150.00
G01 X22.5891 Y6.0219 F150.00
G01 X22.5812 Y6.0401 F150.00
G01 X22.5692 Y6.0650 F150.00
G01 X22.5588 Y6.0842 F150.00
G01 X22.5447 Y6.1080 F150.00
G01 X22.5339 Y6.1246 F150.00
G01 X22.5214 Y6.1424 F150.00
G01 X22.5095 Y6.1582 F150.00
G01 X22.4919 Y6.1796 F150.00
G01 X22.4706 Y6.2030 F150.00
G01 X20.3267 Y8.4344 F150.00
G01 X20.3056 Y8.4550 F150.00
G01 X20.2868 Y8.4717 F150.00
G01 X20.2672 Y8.4877 F150.00
G01 X20.2487 Y8.5015 F150.00
G01 X20.2314 Y8.5135 F150.00
G01 X20.2118 Y8.5259 F150.00
G01 X20.1900 Y8.5385 F150.00
G01 X20.1676 Y8.5502 F150.00
G01 X20.1371 Y8.5643 F150.00
G01 X20.1057 Y8.5766 F150.00
G01 X20.0778 Y8.5858 F150.00
G01 X20.0494 Y8.5937 F150.00
G01 X20.0207 Y8.6001 F150.00
G01 X19.9916 Y8.6050 F150.00
G01 X19.9624 Y8.6085 F150.00
G01 X19.9477 Y8.6097 F150.00
G01 X19.9267 Y8.6108 F150.00
G01 X19.9078 Y8.6111 F150.00
G01 X18.3817 Y8.6111 F150.00
G01 X18.3471 Y8.6101 F150.00
G01 X18.3255 Y8.6084 F150.00
G01 X18.3104 Y8.6067 F150.00
G01 X18.2868 Y8.6033 F150.00
G01 X18.2719 Y8.6007 F150.00
G01 X18.2423 Y8.5942 F150.00
G01 X18.2131 Y8.5863 F150.00
G01 X18.1843 Y8.5768 F150.00
G01 X18.1641 Y8.5691 F150.00
G01 X18.1501 Y8.5633 F150.00
G01 X18.1225 Y8.5506 F150.00
G01 X18.0957 Y8.5364 F150.00
G01 X18.0697 Y8.5209 F150.00
G01 X18.0445 Y8.5041 F150.00
G01 X18.0202 Y8.4860 F150.00
G01 X17.9968 Y8.4667 F150.00
G01 X17.9792 Y8.4506 F150.00
G01 X17.9638 Y8.4355 F150.00
G01 X17.9475 Y8.4181 F150.00
G01 X17.9333 Y8.4018 F150.00
G01 X17.9155 Y8.3795 F150.00
G01 X17.8885 Y8.3497 F150.00
G01 X17.8591 Y8.3230 F150.00
G01 X17.8271 Y8.2993 F150.00
G01 X17.7931 Y8.2789 F150.00
G01 X17.7571 Y8.2619 F150.00
G01 X17.7197 Y8.2485 F150.00
G01 X17.6812 Y8.2389 F150.00
G01 X17.6419 Y8.2331 F150.00
G01 X17.6022 Y8.2311 F150.00
G01 X17.5625 Y8.2331 F150.00
G01 X17.5232 Y8.2389 F150.00
G01 X17.4847 Y8.2485 F150.00
G01 X17.4473 Y8.2619 F150.00
G01 X17.4113 Y8.2789 F150.00
G01 X17.3773 Y8.2993 F150.00
G01 X17.3453 Y8.3230 F150.00
G01 X17.3159 Y8.3497 F150.00
G01 X17.2892 Y8.3791 F150.00
G01 X17.2655 Y8.4111 F150.00
G01 X17.2451 Y8.4451 F150.00
G01 X17.2281 Y8.4811 F150.00
G01 X17.2147 Y8.5185 F150.00
G01 X17.2051 Y8.5570 F150.00
G01 X17.1993 Y8.5963 F150.00
G01 X17.1973 Y8.6360 F150.00
G01 X17.1993 Y8.6757 F150.00
G01 X17.2051 Y8.7150 F150.00
G01 X17.2147 Y8.7535 F150.00
G01 X17.2281 Y8.7909 F150.00
G01 X17.2451 Y8.8269 F150.00
G01 X17.2655 Y8.8609 F150.00
G01 X17.2892 Y8.8929 F150.00
G01 X17.3159 Y8.9223 F150.00
G01 X17.3453 Y8.9490 F150.00
G01 X17.3773 Y8.9727 F150.00
G01 X17.4113 Y8.9931 F150.00
G01 X17.4473 Y9.0101 F150.00
G01 X17.4847 Y9.0235 F150.00
G01 X17.5232 Y9.0331 F150.00
G01 X17.5625 Y9.0389 F150.00
G01 X17.6022 Y9.0409 F150.00
G01 X17.6419 Y9.0389 F150.00
G01 X17.6812 Y9.0331 F150.00
G01 X17.7197 Y9.0235 F150.00
G01 X17.7571 Y9.0101 F150.00
G01 X17.7931 Y8.9931 F150.00
G01 X17.8271 Y8.9727 F150.00
G01 X17.8591 Y8.9490 F150.00
G01 X17.8885 Y8.9223 F150.00
G01 X17.9155 Y8.8925 F150.00
G01 X20.1615 Y8.9959 F150.00
G01 X20.1735 Y8.9956 F150.00
G01 X20.2041 Y8.9938 F150.00
G01 X20.2390 Y8.9885 F150.00
G01 X20.2732 Y8.9798 F150.00
G01 X20.3107 Y8.9660 F150.00
G01 X20.3424 Y8.9503 F150.00
G01 X20.3723 Y8.9317 F150.00
G01 X20.4003 Y8.9102 F150.00
G01 X20.4228 Y8.8894 F150.00
G01 X20.4314 Y8.8809 F150.00
G01 X22.9121 Y6.2990 F150.00
G01 X22.9333 Y6.2752 F150.00
G01 X22.9391 Y6.2680 F150.00
G01 X22.9545 Y6.2470 F150.00
G01 X22.9595 Y6.2393 F150.00
G01 X22.9728 Y6.2168 F150.00
G01 X22.9771 Y6.2087 F150.00
G01 X22.9881 Y6.1850 F150.00
G01 X22.9916 Y6.1765 F150.00
G01 X23.0002 Y6.1519 F150.00
G01 X23.0029 Y6.1431 F150.00
G01 X23.0090 Y6.1177 F150.00
G01 X23.0108 Y6.1087 F150.00
G01 X23.0144 Y6.0828 F150.00
G01 X23.0153 Y6.0737 F150.00
G01 X23.0167 Y6.0419 F150.00
G01 X23.0398 Y3.0652 F150.00
G01 X23.0402 Y3.0524 F150.00
G01 X23.0413 Y3.0396 F150.00
G01 X23.0442 Y3.0206 F150.00
G01 X23.0469 Y3.0080 F150.00
G01 X23.0522 Y2.9895 F150.00
G01 X23.0565 Y2.9774 F150.00
G01 X23.0614 Y2.9655 F150.00
G01 X23.0699 Y2.9482 F150.00
G01 X23.0797 Y2.9317 F150.00
G01 X23.0870 Y2.9210 F150.00
G01 X23.0947 Y2.9108 F150.00
G01 X23.1030 Y2.9010 F150.00
G01 X23.1164 Y2.8871 F150.00
G01 X23.1308 Y2.8743 F150.00
G01 X23.1518 Y2.8583 F150.00
G01 X23.2057 Y2.8095 F150.00
G01 X23.2545 Y2.7556 F150.00
G01 X23.2977 Y2.6973 F150.00
G01 X23.3351 Y2.6350 F150.00
G01 X23.3661 Y2.5693 F150.00
G01 X23.3906 Y2.5009 F150.00
G01 X23.4083 Y2.4304 F150.00
G01 X23.4189 Y2.3586 F150.00
G01 X23.4225 Y2.2860 F150.00
G01 X23.4189 Y2.2134 F150.00
G01 X23.4083 Y2.1416 F150.00
G01 X23.3906 Y2.0711 F150.00
G01 X23.3661 Y2.0027 F150.00
G01 X23.3351 Y1.9370 F150.00
G01 X23.2977 Y1.8747 F150.00
G01 X23.2545 Y1.8164 F150.00
G01 X23.2057 Y1.7625 F150.00
G01 X23.1518 Y1.7137 F150.00
G01 X23.0935 Y1.6705 F150.00
G01 X23.0312 Y1.6331 F150.00
G01 X22.9655 Y1.6021 F150.00
G01 X22.8971 Y1.5776 F150.00
G01 X22.8266 Y1.5599 F150.00
G01 X22.7548 Y1.5493 F150.00
G01 X22.6822 Y1.5457 F150.00
G01 X22.6096 Y1.5493 F150.00
G01 X22.5378 Y1.5599 F150.00
G01 X22.4673 Y1.5776 F150.00
G01 X22.3989 Y1.6021 F150.00
G01 X22.3332 Y1.6331 F150.00
G01 X22.2709 Y1.6705 F150.00
G01 X22.2126 Y1.7137 F150.00
G01 X22.1587 Y1.7625 F150.00
G01 X22.1099 Y1.8164 F150.00
G01 X22.0667 Y1.8747 F150.00
G01 X22.0293 Y1.9370 F150.00
G01 X21.9983 Y2.0027 F150.00
G01 X21.9738 Y2.0711 F150.00
G01 X21.9561 Y2.1416 F150.00
G01 X21.9455 Y2.2134 F150.00
G01 X21.9419 Y2.2860 F150.00
G01 X21.9455 Y2.3586 F150.00
G01 X21.9561 Y2.4304 F150.00
G01 X21.9738 Y2.5009 F150.00
G01 X21.9983 Y2.5693 F150.00
G01 X22.0293 Y2.6350 F150.00
G01 X22.0667 Y2.6973 F150.00
G01 X22.1099 Y2.7556 F150.00
G01 X22.1587 Y2.8095 F150.00
G01 X22.2126 Y2.8583 F150.00
G01 X22.2236 Y2.8665 F150.00
G01 X22.2327 Y2.8740 F150.00
G01 X22.2414 Y2.8818 F150.00
G01 X22.2498 Y2.8901 F150.00
G01 X22.2578 Y2.8987 F150.00
G01 X22.2653 Y2.9077 F150.00
G01 X22.2724 Y2.9171 F150.00
G01 X22.2791 Y2.9268 F150.00
G01 X22.2882 Y2.9418 F150.00
G01 X22.2963 Y2.9575 F150.00
G01 X22.3032 Y2.9737 F150.00
G01 X22.3072 Y2.9848 F150.00
G01 X22.3122 Y3.0017 F150.00
G01 X22.3159 Y3.0189 F150.00
G01 X22.3178 Y3.0305 F150.00
G01 X22.3195 Y3.0481 F150.00
G01 X22.3200 Y3.0657 F150.00
G01 X22.2987 Y5.8056 F150.00
G01 X22.2980 Y5.8174 F150.00
G01 X22.2968 Y5.8292 F150.00
G01 X22.2940 Y5.8467 F150.00
G01 X22.2899 Y5.8640 F150.00
G01 X22.2865 Y5.8753 F150.00
G01 X22.2825 Y5.8865 F150.00
G01 X22.2756 Y5.9028 F150.00
G01 X22.2704 Y5.9134 F150.00
G01 X22.2647 Y5.9238 F150.00
G01 X22.2585 Y5.9339 F150.00
G01 X22.2518 Y5.9436 F150.00
G01 X22.2446 Y5.9531 F150.00
G01 X22.2371 Y5.9622 F150.00
G01 X22.2291 Y5.9709 F150.00
G01 X20.0881 Y8.1993 F150.00
G01 X20.0745 Y8.2124 F150.00
G01 X20.0649 Y8.2206 F150.00
G01 X20.0549 Y8.2282 F150.00
G01 X20.0393 Y8.2387 F150.00
G01 X20.0284 Y8.2451 F150.00
G01 X20.0172 Y8.2509 F150.00
G01 X20.0058 Y8.2561 F150.00
G01 X19.9941 Y8.2607 F150.00
G01 X19.9822 Y8.2648 F150.00
G01 X19.9701 Y8.2682 F150.00
G01 X19.9578 Y8.2710 F150.00
G01 X19.9454 Y8.2733 F150.00
G01 X19.9329 Y8.2748 F150.00
G01 X19.9141 Y8.2760 F150.00
G01 X18.3817 Y8.2761 F150.00
G01 X18.3623 Y8.2753 F150.00
G01 X18.3494 Y8.2740 F150.00
G01 X18.3302 Y8.2707 F150.00
G01 X18.3176 Y8.2678 F150.00
G01 X18.3052 Y8.2641 F150.00
G01 X18.2930 Y8.2598 F150.00
G01 X18.2810 Y8.2549 F150.00
G01 X18.2693 Y8.2494 F150.00
G01 X18.2579 Y8.2433 F150.00
G01 X18.2414 Y8.2330 F150.00
G01 X18.2257 Y8.2215 F150.00
G01 X18.2158 Y8.2132 F150.00
G01 X18.2064 Y8.2043 F150.00
G01 X18.1974 Y8.1950 F150.00
G01 X18.1889 Y8.1852 F150.00
G01 X18.1745 Y8.1664 F150.00
G01 X18.1257 Y8.1125 F150.00
G01 X18.0718 Y8.0637 F150.00
G01 X18.0135 Y8.0205 F150.00
G01 X17.9512 Y7.9831 F150.00
G01 X17.8855 Y7.9521 F150.00
G01 X17.8171 Y7.9276 F150.00
G01 X17.7466 Y7.9099 F150.00
G01 X17.6748 Y7.8993 F150.00
G01 X17.6022 Y7.8957 F150.00
G01 X17.5296 Y7.8993 F150.00
G01 X17.4578 Y7.9099 F150.00
G01 X17.3873 Y7.9276 F150.00
G01 X17.3189 Y7.9521 F150.00
G01 X17.2532 Y7.9831 F150.00
G01 X17.1909 Y8.0205 F150.00
G01 X17.1326 Y8.0637 F150.00
G01 X17.0787 Y8.1125 F150.00
G01 X17.0299 Y8.1664 F150.00
G01 X16.9867 Y8.2247 F150.00
G01 X16.9493 Y8.2870 F150.00
G01 X16.9183 Y8.3527 F150.00
G01 X16.8938 Y8.4211 F150.00
G01 X16.8761 Y8.4916 F150.00
G01 X16.8655 Y8.5634 F150.00
G01 X16.8619 Y8.6360 F150.00
G01 X16.8655 Y8.7086 F150.00
G01 X16.8761 Y8.7804 F150.00
G01 X16.8938 Y8.8509 F150.00
G01 X16.9183 Y8.9193 F150.00
G01 X16.9493 Y8.9850 F150.00
G01 X16.9867 Y9.0473 F150.00
G01 X17.0299 Y9.1056 F150.00
G01 X17.0787 Y9.1595 F150.00
G01 X17.1326 Y9.2083 F150.00
G01 X17.1909 Y9.2515 F150.00
G01 X17.2532 Y9.2889 F150.00
G01 X17.3189 Y9.3199 F150.00
G01 X17.3873 Y9.3444 F150.00
G01 X17.4578 Y9.3621 F150.00
G01 X17.5296 Y9.3727 F150.00
G01 X17.6022 Y9.3763 F150.00
G01 X17.6748 Y9.3727 F150.00
G01 X17.7466 Y9.3621 F150.00
G01 X17.8171 Y9.3444 F150.00
G01 X17.8855 Y9.3199 F150.00
G01 X17.9512 Y9.2889 F150.00
G01 X18.0135 Y9.2515 F150.00
G01 X18.0718 Y9.2083 F150.00
G01 X18.1257 Y9.1595 F150.00
G01 X18.1745 Y9.1056 F150.00
G01 X18.1889 Y9.0868 F150.00
G01 X18.1974 Y9.0770 F150.00
G01 X18.2064 Y9.0677 F150.00
G01 X18.2158 Y9.0588 F150.00
G01 X18.2257 Y9.0505 F150.00
G01 X18.2414 Y9.0390 F150.00
G01 X18.2579 Y9.0287 F150.00
G01 X18.2693 Y9.0226 F150.00
G01 X18.2810 Y9.0171 F150.00
G01 X18.2930 Y9.0122 F150.00
G01 X18.3052 Y9.0079 F150.00
G01 X18.3176 Y9.0042 F150.00
G01 X18.3302 Y9.0013 F150.00
G01 X18.3494 Y8.9980 F150.00
G01 X18.3623 Y8.9967 F150.00
G01 X18.3817 Y8.9959 F150.00
G01 X20.1615 Y8.9959 F150.00
G00 Z2.0000
G00 X21.3767 Y11.1440
G01 F50.00
G01 Z0.0000
G01 F150.00
G01 X21.3728 Y11.1466 F150.00
G01 X21.3661 Y11.1490 F150.00
G01 X21.3472 Y11.1502 F150.00
G01 X18.3978 Y11.1731 F150.00
G01 X18.3635 Y11.1744 F150.00
G01 X18.3378 Y11.1766 F150.00
G01 X18.3038 Y11.1814 F150.00
G01 X18.2827 Y11.1854 F150.00
G01 X18.2680 Y11.1887 F150.00
G01 X18.2535 Y11.1923 F150.00
G01 X18.2307 Y11.1988 F150.00
G01 X18.2022 Y11.2084 F150.00
G01 X18.1822 Y11.2161 F150.00
G01 X18.1684 Y11.2219 F150.00
G01 X18.1411 Y11.2346 F150.00
G01 X18.1109 Y11.2508 F150.00
G01 X18.0816 Y11.2688 F150.00
G01 X18.0569 Y11.2860 F150.00
G01 X18.0331 Y11.3043 F150.00
G01 X18.0103 Y11.3239 F150.00
G01 X17.9885 Y11.3446 F150.00
G01 X17.9707 Y11.3632 F150.00
G01 X17.9579 Y11.3777 F150.00
G01 X17.9389 Y11.4010 F150.00
G01 X17.9152 Y11.4329 F150.00
G01 X17.8885 Y11.4623 F150.00
G01 X17.8591 Y11.4890 F150.00
G01 X17.8271 Y11.5127 F150.00
G01 X17.7931 Y11.5331 F150.00
G01 X17.7571 Y11.5501 F150.00
G01 X17.7197 Y11.5635 F150.00
G01 X17.6812 Y11.5731 F150.00
G01 X17.6419 Y11.5789 F150.00
G01 X17.6022 Y11.5809 F150.00
G01 X17.5625 Y11.5789 F150.00
G01 X17.5232 Y11.5731 F150.00
G01 X17.4847 Y11.5635 F150.00
G01 X17.4473 Y11.5501 F150.00
G01 X17.4113 Y11.5331 F150.00
G01 X17.3773 Y11.5127 F150.00
G01 X17.3453 Y11.4890 F150.00
G01 X17.3159 Y11.4623 F150.00
G01 X17.2892 Y11.4329 F150.00
G01 X17.2655 Y11.4009 F150.00
G01 X17.2451 Y11.3669 F150.00
G01 X17.2281 Y11.3309 F150.00
G01 X17.2147 Y11.2935 F150.00
G01 X17.2051 Y11.2550 F150.00
G01 X17.1993 Y11.2157 F150.00
G01 X17.1973 Y11.1760 F150.00
G01 X17.1993 Y11.1363 F150.00
G01 X17.2051 Y11.0970 F150.00
G01 X17.2147 Y11.0585 F150.00
G01 X17.2281 Y11.0211 F150.00
G01 X17.2451 Y10.9851 F150.00
G01 X17.2655 Y10.9511 F150.00
G01 X17.2892 Y10.9191 F150.00
G01 X17.3159 Y10.8897 F150.00
G01 X17.3453 Y10.8630 F150.00
G01 X17.3773 Y10.8393 F150.00
G01 X17.4113 Y10.8189 F150.00
G01 X17.4473 Y10.8019 F150.00
G01 X17.4847 Y10.7885 F150.00
G01 X17.5232 Y10.7789 F150.00
G01 X17.5625 Y10.7731 F150.00
G01 X17.6022 Y10.7711 F150.00
G01 X17.6419 Y10.7731 F150.00
G01 X17.6812 Y10.7789 F150.00
G01 X17.7197 Y10.7885 F150.00
G01 X17.7571 Y10.8019 F150.00
G01 X17.7931 Y10.8189 F150.00
G01 X17.8271 Y10.8393 F150.00
G01 X17.8591 Y10.8630 F150.00
G01 X17.8885 Y10.8897 F150.00
G01 X17.9329 Y10.9386 F150.00
G01 X17.9521 Y10.9581 F150.00
G01 X17.9620 Y10.9675 F150.00
G01 X17.9781 Y10.9819 F150.00
G01 X17.9992 Y10.9992 F150.00
G01 X18.0260 Y11.0190 F150.00
G01 X18.0488 Y11.0340 F150.00
G01 X18.0672 Y11.0452 F150.00
G01 X18.0792 Y11.0519 F150.00
G01 X18.1035 Y11.0644 F150.00
G01 X18.1338 Y11.0781 F150.00
G01 X18.1592 Y11.0881 F150.00
G01 X18.1852 Y11.0969 F150.00
G01 X18.2115 Y11.1044 F150.00
G01 X18.2381 Y11.1107 F150.00
G01 X18.2650 Y11.1158 F150.00
G01 X18.2921 Y11.1196 F150.00
G01 X18.3194 Y11.1221 F150.00
G01 X18.3408 Y11.1232 F150.00
G01 X18.3643 Y11.1235 F150.00
G01 X21.1260 Y11.1020 F150.00
G01 X21.1539 Y11.1007 F150.00
G01 X21.1679 Y11.0995 F150.00
G01 X21.1897 Y11.0970 F150.00
G01 X21.2173 Y11.0926 F150.00
G01 X21.2505 Y11.0855 F150.00
G01 X21.2774 Y11.0782 F150.00
G01 X21.3040 Y11.0696 F150.00
G01 X21.3302 Y11.0598 F150.00
G01 X21.3504 Y11.0512 F150.00
G01 X21.3631 Y11.0453 F150.00
G01 X21.3810 Y11.0365 F150.00
G01 X21.4055 Y11.0230 F150.00
G01 X21.4242 Y11.0116 F150.00
G01 X21.4475 Y10.9961 F150.00
G01 X21.4636 Y10.9844 F150.00
G01 X21.4855 Y10.9670 F150.00
G01 X21.5022 Y10.9527 F150.00
G01 X21.5197 Y10.9363 F150.00
G01 X25.0444 Y7.5037 F150.00
G01 X25.0577 Y7.4903 F150.00
G01 X25.0720 Y7.4749 F150.00
G01 X25.0871 Y7.4574 F150.00
G01 X25.1053 Y7.4343 F150.00
G01 X25.1199 Y7.4138 F150.00
G01 X25.1336 Y7.3926 F150.00
G01 X25.1484 Y7.3673 F150.00
G01 X25.1592 Y7.3468 F150.00
G01 X25.1717 Y7.3202 F150.00
G01 X25.1798 Y7.3008 F150.00
G01 X25.1879 Y7.2792 F150.00
G01 X25.1958 Y7.2553 F150.00
G01 X25.2026 Y7.2310 F150.00
G01 X25.2093 Y7.2024 F150.00
G01 X25.2135 Y7.1796 F150.00
G01 X25.2175 Y7.1505 F150.00
G01 X25.2201 Y7.1212 F150.00
G01 X25.2210 Y7.1003 F150.00
G01 X25.2213 Y7.0814 F150.00
G01 X25.1989 Y3.0635 F150.00
G01 X25.1982 Y3.0376 F150.00
G01 X25.1955 Y3.0033 F150.00
G01 X25.1931 Y2.9841 F150.00
G01 X25.1896 Y2.9629 F150.00
G01 X25.1835 Y2.9334 F150.00
G01 X25.1799 Y2.9187 F150.00
G01 X25.1735 Y2.8959 F150.00
G01 X25.1689 Y2.8816 F150.00
G01 X25.1617 Y2.8613 F150.00
G01 X25.1487 Y2.8294 F150.00
G01 X25.1338 Y2.7984 F150.00
G01 X25.1236 Y2.7795 F150.00
G01 X25.1160 Y2.7664 F150.00
G01 X25.0999 Y2.7410 F150.00
G01 X25.0825 Y2.7164 F150.00
G01 X25.0638 Y2.6928 F150.00
G01 X25.0440 Y2.6701 F150.00
G01 X25.0275 Y2.6530 F150.00
G01 X25.0089 Y2.6352 F150.00
G01 X24.9895 Y2.6182 F150.00
G01 X24.9655 Y2.5992 F150.00
G01 X24.9359 Y2.5723 F150.00
G01 X24.9092 Y2.5429 F150.00
G01 X24.8855 Y2.5109 F150.00
G01 X24.8651 Y2.4769 F150.00
G01 X24.8481 Y2.4409 F150.00
G01 X24.8347 Y2.4035 F150.00
G01 X24.8251 Y2.3650 F150.00
G01 X24.8193 Y2.3257 F150.00
G01 X24.8173 Y2.2860 F150.00
G01 X24.8193 Y2.2463 F150.00
G01 X24.8251 Y2.2070 F150.00
G01 X24.8347 Y2.1685 F150.00
G01 X24.8481 Y2.1311 F150.00
G01 X24.8651 Y2.0951 F150.00
G01 X24.8855 Y2.0611 F150.00
G01 X24.9092 Y2.0291 F150.00
G01 X24.9359 Y1.9997 F150.00
G01 X24.9653 Y1.9730 F150.00
G01 X24.9973 Y1.9493 F150.00
G01 X25.0313 Y1.9289 F150.00
G01 X25.0673 Y1.9119 F150.00
G01 X25.1047 Y1.8985 F150.00
G01 X25.1432 Y1.8889 F150.00
G01 X25.1825 Y1.8831 F150.00
G01 X25.2222 Y1.8811 F150.00
G01 X25.2619 Y1.8831 F150.00
G01 X25.3012 Y1.8889 F150.00
G01 X25.3397 Y1.8985 F150.00
G01 X25.3771 Y1.9119 F150.00
G01 X25.4131 Y1.9289 F150.00
G01 X25.4471 Y1.9493 F150.00
G01 X25.4791 Y1.9730 F150.00
G01 X25.5085 Y1.9997 F150.00
G01 X25.5352 Y2.0291 F150.00
G01 X25.5589 Y2.0611 F150.00
G01 X25.5793 Y2.0951 F150.00
G01 X25.5963 Y2.1311 F150.00
G01 X25.6097 Y2.1685 F150.00
G01 X25.6193 Y2.2070 F150.00
G01 X25.6251 Y2.2463 F150.00
G01 X25.6271 Y2.2860 F150.00
G01 X25.6251 Y2.3257 F150.00
G01 X25.6193 Y2.3650 F150.00
G01 X25.6097 Y2.4035 F150.00
G01 X25.5963 Y2.4409 F150.00
G01 X25.5793 Y2.4769 F150.00
G01 X25.5589 Y2.5109 F150.00
G01 X25.5352 Y2.5429 F150.00
G01 X25.5085 Y2.5723 F150.00
G01 X25.4785 Y2.5995 F150.00
G01 X25.4561 Y2.6175 F150.00
G01 X25.4356 Y2.6357 F150.00
G01 X25.4200 Y2.6507 F150.00
G01 X25.4104 Y2.6605 F150.00
G01 X25.3882 Y2.6852 F150.00
G01 X25.3794 Y2.6958 F150.00
G01 X25.3661 Y2.7128 F150.00
G01 X25.3469 Y2.7400 F150.00
G01 X25.3394 Y2.7515 F150.00
G01 X25.3282 Y2.7699 F150.00
G01 X25.3123 Y2.7992 F150.00
G01 X25.3028 Y2.8186 F150.00
G01 X25.2972 Y2.8311 F150.00
G01 X25.2869 Y2.8565 F150.00
G01 X25.2777 Y2.8824 F150.00
G01 X25.2698 Y2.9087 F150.00
G01 X25.2619 Y2.9410 F150.00
G01 X25.2567 Y2.9680 F150.00
G01 X25.2529 Y2.9951 F150.00
G01 X25.2503 Y3.0225 F150.00
G01 X25.2491 Y3.0440 F150.00
G01 X25.2488 Y3.0675 F150.00
G01 X25.2724 Y7.3282 F150.00
G01 X25.2713 Y7.3454 F150.00
G01 X25.2699 Y7.3500 F150.00
G01 X25.2663 Y7.3560 F150.00
G01 X25.2565 Y7.3667 F150.00
G01 X21.3891 Y11.1330 F150.00
G01 X21.3767 Y11.1440 F150.00
G01 X17.6929 Y11.1723 F150.00
G01 X17.6751 Y11.1946 F150.00
G01 X17.6559 Y11.2201 F150.00
G01 X17.6513 Y11.2251 F150.00
G01 X17.6463 Y11.2297 F150.00
G01 X17.6408 Y11.2338 F150.00
G01 X17.6350 Y11.2373 F150.00
G01 X17.6288 Y11.2402 F150.00
G01 X17.6224 Y11.2425 F150.00
G01 X17.6158 Y11.2442 F150.00
G01 X17.6090 Y11.2452 F150.00
G01 X17.6022 Y11.2455 F150.00
G01 X17.5954 Y11.2452 F150.00
G01 X17.5886 Y11.2442 F150.00
G01 X17.5820 Y11.2425 F150.00
G01 X17.5756 Y11.2402 F150.00
G01 X17.5694 Y11.2373 F150.00
G01 X17.5636 Y11.2338 F150.00
G01 X17.5581 Y11.2297 F150.00
G01 X17.5531 Y11.2251 F150.00
G01 X17.5485 Y11.2201 F150.00
G01 X17.5444 Y11.2146 F150.00
G01 X17.5409 Y11.2088 F150.00
G01 X17.5380 Y11.2026 F150.00
G01 X17.5357 Y11.1962 F150.00
G01 X17.5340 Y11.1896 F150.00
G01 X17.5330 Y11.1828 F150.00
G01 X17.5327 Y11.1760 F150.00
G01 X17.5330 Y11.1692 F150.00
G01 X17.5340 Y11.1624 F150.00
G01 X17.5357 Y11.1558 F150.00
G01 X17.5380 Y11.1494 F150.00
G01 X17.5409 Y11.1432 F150.00
G01 X17.5444 Y11.1374 F150.00
G01 X17.5485 Y11.1319 F150.00
G01 X17.5531 Y11.1269 F150.00
G01 X17.5581 Y11.1223 F150.00
G01 X17.5636 Y11.1182 F150.00
G01 X17.5694 Y11.1147 F150.00
G01 X17.5756 Y11.1118 F150.00
G01 X17.5820 Y11.1095 F150.00
G01 X17.5886 Y11.1078 F150.00
G01 X17.5954 Y11.1068 F150.00
G01 X17.6022 Y11.1065 F150.00
G01 X17.6090 Y11.1068 F150.00
G01 X17.6158 Y11.1078 F150.00
G01 X17.6224 Y11.1095 F150.00
G01 X17.6288 Y11.1118 F150.00
G01 X17.6350 Y11.1147 F150.00
G01 X17.6408 Y11.1182 F150.00
G01 X17.6463 Y11.1223 F150.00
G01 X17.6513 Y11.1269 F150.00
G01 X17.6929 Y11.1723 F150.00
G00 Z2.0000
G00 X21.3983 Y11.4830
G01 F50.00
G01 Z0.0000
G01 F150.00
G01 X21.4280 Y11.4786 F150.00
G01 X21.4623 Y11.4704 F150.00
G01 X21.4957 Y11.4589 F150.00
G01 X21.5277 Y11.4441 F150.00
G01 X21.5582 Y11.4263 F150.00
G01 X21.5626 Y11.4233 F150.00
G01 X21.5909 Y11.4022 F150.00
G01 X21.6169 Y11.3788 F150.00
G01 X25.4944 Y7.6026 F150.00
G01 X25.5023 Y7.5945 F150.00
G01 X25.5235 Y7.5714 F150.00
G01 X25.5448 Y7.5432 F150.00
G01 X25.5632 Y7.5131 F150.00
G01 X25.5801 Y7.4777 F150.00
G01 X25.5920 Y7.4444 F150.00
G01 X25.6005 Y7.4102 F150.00
G01 X25.6056 Y7.3753 F150.00
G01 X25.6073 Y7.3440 F150.00
G01 X25.6075 Y7.3326 F150.00
G01 X25.5838 Y3.0656 F150.00
G01 X25.5843 Y3.0481 F150.00
G01 X25.5860 Y3.0306 F150.00
G01 X25.5890 Y3.0132 F150.00
G01 X25.5932 Y2.9962 F150.00
G01 X25.5967 Y2.9849 F150.00
G01 X25.6028 Y2.9685 F150.00
G01 X25.6101 Y2.9525 F150.00
G01 X25.6185 Y2.9370 F150.00
G01 X25.6280 Y2.9222 F150.00
G01 X25.6349 Y2.9127 F150.00
G01 X25.6422 Y2.9036 F150.00
G01 X25.6500 Y2.8948 F150.00
G01 X25.6581 Y2.8863 F150.00
G01 X25.6667 Y2.8783 F150.00
G01 X25.6756 Y2.8707 F150.00
G01 X25.6918 Y2.8583 F150.00
G01 X25.7457 Y2.8095 F150.00
G01 X25.7945 Y2.7556 F150.00
G01 X25.8377 Y2.6973 F150.00
G01 X25.8751 Y2.6350 F150.00
G01 X25.9061 Y2.5693 F150.00
G01 X25.9306 Y2.5009 F150.00
G01 X25.9483 Y2.4304 F150.00
G01 X25.9589 Y2.3586 F150.00
G01 X25.9625 Y2.2860 F150.00
G01 X25.9589 Y2.2134 F150.00
G01 X25.9483 Y2.1416 F150.00
G01 X25.9306 Y2.0711 F150.00
G01 X25.9061 Y2.0027 F150.00
G01 X25.8751 Y1.9370 F150.00
G01 X25.8377 Y1.8747 F150.00
G01 X25.7945 Y1.8164 F150.00
G01 X25.7457 Y1.7625 F150.00
G01 X25.6918 Y1.7137 F150.00
G01 X25.6335 Y1.6705 F150.00
G01 X25.5712 Y1.6331 F150.00
G01 X25.5055 Y1.6021 F150.00
G01 X25.4371 Y1.5776 F150.00
G01 X25.3666 Y1.5599 F150.00
G01 X25.2948 Y1.5493 F150.00
G01 X25.2222 Y1.5457 F150.00
G01 X25.1496 Y1.5493 F150.00
G01 X25.0778 Y1.5599 F150.00
G01 X25.0073 Y1.5776 F150.00
G01 X24.9389 Y1.6021 F150.00
G01 X24.8732 Y1.6331 F150.00
G01 X24.8109 Y1.6705 F150.00
G01 X24.7526 Y1.7137 F150.00
G01 X24.6987 Y1.7625 F150.00
G01 X24.6499 Y1.8164 F150.00
G01 X24.6067 Y1.8747 F150.00
G01 X24.5693 Y1.9370 F150.00
G01 X24.5383 Y2.0027 F150.00
G01 X24.5138 Y2.0711 F150.00
G01 X24.4961 Y2.1416 F150.00
G01 X24.4855 Y2.2134 F150.00
G01 X24.4819 Y2.2860 F150.00
G01 X24.4855 Y2.3586 F150.00
G01 X24.4961 Y2.4304 F150.00
G01 X24.5138 Y2.5009 F150.00
G01 X24.5383 Y2.5693 F150.00
G01 X24.5693 Y2.6350 F150.00
G01 X24.6067 Y2.6973 F150.00
G01 X24.6499 Y2.7556 F150.00
G01 X24.6987 Y2.8095 F150.00
G01 X24.7526 Y2.8583 F150.00
G01 X24.7730 Y2.8738 F150.00
G01 X24.7827 Y2.8823 F150.00
G01 X24.7920 Y2.8912 F150.00
G01 X24.8008 Y2.9006 F150.00
G01 X24.8091 Y2.9105 F150.00
G01 X24.8206 Y2.9260 F150.00
G01 X24.8308 Y2.9423 F150.00
G01 X24.8398 Y2.9595 F150.00
G01 X24.8450 Y2.9712 F150.00
G01 X24.8517 Y2.9893 F150.00
G01 X24.8553 Y3.0017 F150.00
G01 X24.8596 Y3.0205 F150.00
G01 X24.8625 Y3.0396 F150.00
G01 X24.8635 Y3.0524 F150.00
G01 X24.8639 Y3.0653 F150.00
G01 X24.8862 Y7.0895 F150.00
G01 X24.8851 Y7.1083 F150.00
G01 X24.8836 Y7.1208 F150.00
G01 X24.8815 Y7.1332 F150.00
G01 X24.8771 Y7.1515 F150.00
G01 X24.8735 Y7.1635 F150.00
G01 X24.8692 Y7.1754 F150.00
G01 X24.8617 Y7.1926 F150.00
G01 X24.8560 Y7.2038 F150.00
G01 X24.8497 Y7.2147 F150.00
G01 X24.8429 Y7.2253 F150.00
G01 X24.8356 Y7.2355 F150.00
G01 X24.8278 Y7.2453 F150.00
G01 X24.8195 Y7.2547 F150.00
G01 X24.8107 Y7.2637 F150.00
G01 X21.2859 Y10.6963 F150.00
G01 X21.2727 Y10.7083 F150.00
G01 X21.2634 Y10.7158 F150.00
G01 X21.2537 Y10.7228 F150.00
G01 X21.2386 Y10.7325 F150.00
G01 X21.2229 Y10.7410 F150.00
G01 X21.2066 Y10.7484 F150.00
G01 X21.1954 Y10.7527 F150.00
G01 X21.1783 Y10.7581 F150.00
G01 X21.1667 Y10.7610 F150.00
G01 X21.1550 Y10.7634 F150.00
G01 X21.1432 Y10.7652 F150.00
G01 X21.1314 Y10.7664 F150.00
G01 X21.1135 Y10.7672 F150.00
G01 X18.3617 Y10.7885 F150.00
G01 X18.3500 Y10.7884 F150.00
G01 X18.3383 Y10.7876 F150.00
G01 X18.3267 Y10.7864 F150.00
G01 X18.3094 Y10.7834 F150.00
G01 X18.2924 Y10.7793 F150.00
G01 X18.2812 Y10.7759 F150.00
G01 X18.2647 Y10.7698 F150.00
G01 X18.2487 Y10.7625 F150.00
G01 X18.2384 Y10.7571 F150.00
G01 X18.2234 Y10.7481 F150.00
G01 X18.2137 Y10.7414 F150.00
G01 X18.2044 Y10.7344 F150.00
G01 X18.1954 Y10.7269 F150.00
G01 X18.1868 Y10.7190 F150.00
G01 X18.1745 Y10.7064 F150.00
G01 X18.1257 Y10.6525 F150.00
G01 X18.0718 Y10.6037 F150.00
G01 X18.0135 Y10.5605 F150.00
G01 X17.9512 Y10.5231 F150.00
G01 X17.8855 Y10.4921 F150.00
G01 X17.8171 Y10.4676 F150.00
G01 X17.7466 Y10.4499 F150.00
G01 X17.6748 Y10.4393 F150.00
G01 X17.6022 Y10.4357 F150.00
G01 X17.5296 Y10.4393 F150.00
G01 X17.4578 Y10.4499 F150.00
G01 X17.3873 Y10.4676 F150.00
G01 X17.3189 Y10.4921 F150.00
G01 X17.2532 Y10.5231 F150.00
G01 X17.1909 Y10.5605 F150.00
G01 X17.1326 Y10.6037 F150.00
G01 X17.0787 Y10.6525 F150.00
G01 X17.0299 Y10.7064 F150.00
G01 X16.9867 Y10.7647 F150.00
G01 X16.9493 Y10.8270 F150.00
G01 X16.9183 Y10.8927 F150.00
G01 X16.8938 Y10.9611 F150.00
G01 X16.8761 Y11.0316 F150.00
G01 X16.8655 Y11.1034 F150.00
G01 X16.8619 Y11.1760 F150.00
G01 X16.8655 Y11.2486 F150.00
G01 X16.8761 Y11.3204 F150.00
G01 X16.8938 Y11.3909 F150.00
G01 X16.9183 Y11.4593 F150.00
G01 X16.9493 Y11.5250 F150.00
G01 X16.9867 Y11.5873 F150.00
G01 X17.0299 Y11.6456 F150.00
G01 X17.0787 Y11.6995 F150.00
G01 X17.1326 Y11.7483 F150.00
G01 X17.1909 Y11.7915 F150.00
G01 X17.2532 Y11.8289 F150.00
G01 X17.3189 Y11.8599 F150.00
G01 X17.3873 Y11.8844 F150.00
G01 X17.4578 Y11.9021 F150.00
G01 X17.5296 Y11.9127 F150.00
G01 X17.6022 Y11.9163 F150.00
G01 X17.6748 Y11.9127 F150.00
G01 X17.7466 Y11.9021 F150.00
G01 X17.8171 Y11.8844 F150.00
G01 X17.8855 Y11.8599 F150.00
G01 X17.9512 Y11.8289 F150.00
G01 X18.0135 Y11.7915 F150.00
G01 X18.0718 Y11.7483 F150.00
G01 X18.1257 Y11.6995 F150.00
G01 X18.1745 Y11.6456 F150.00
G01 X18.2054 Y11.6040 F150.00
G01 X18.2179 Y11.5893 F150.00
G01 X18.2314 Y11.5756 F150.00
G01 X18.2410 Y11.5671 F150.00
G01 X18.2510 Y11.5590 F150.00
G01 X18.2668 Y11.5480 F150.00
G01 X18.2778 Y11.5413 F150.00
G01 X18.2948 Y11.5324 F150.00
G01 X18.3066 Y11.5271 F150.00
G01 X18.3246 Y11.5204 F150.00
G01 X18.3369 Y11.5168 F150.00
G01 X18.3557 Y11.5124 F150.00
G01 X18.3748 Y11.5096 F150.00
G01 X18.3876 Y11.5085 F150.00
G01 X18.4004 Y11.5081 F150.00
G01 X21.3581 Y11.4851 F150.00
G01 X21.3983 Y11.4830 F150.00
G00 Z2.0000
G00 X17.9155 Y13.9725
G01 F50.00
G01 Z0.0000
G01 F150.00
G01 X17.8885 Y14.0023 F150.00
G01 X17.8591 Y14.0290 F150.00
G01 X17.8271 Y14.0527 F150.00
G01 X17.7931 Y14.0731 F150.00
G01 X17.7571 Y14.0901 F150.00
G01 X17.7197 Y14.1035 F150.00
G01 X17.6812 Y14.1131 F150.00
G01 X17.6419 Y14.1189 F150.00
G01 X17.6022 Y14.1209 F150.00
G01 X17.5625 Y14.1189 F150.00
G01 X17.5232 Y14.1131 F150.00
G01 X17.4847 Y14.1035 F150.00
G01 X17.4473 Y14.0901 F150.00
G01 X17.4113 Y14.0731 F150.00
G01 X17.3773 Y14.0527 F150.00
G01 X17.3453 Y14.0290 F150.00
G01 X17.3159 Y14.0023 F150.00
G01 X17.2892 Y13.9729 F150.00
G01 X17.2655 Y13.9409 F150.00
G01 X17.2451 Y13.9069 F150.00
G01 X17.2281 Y13.8709 F150.00
G01 X17.2147 Y13.8335 F150.00
G01 X17.2051 Y13.7950 F150.00
G01 X17.1993 Y13.7557 F150.00
G01 X17.1973 Y13.7160 F150.00
G01 X17.1993 Y13.6763 F150.00
G01 X17.2051 Y13.6370 F150.00
G01 X17.2147 Y13.5985 F150.00
G01 X17.2281 Y13.5611 F150.00
G01 X17.2451 Y13.5251 F150.00
G01 X17.2655 Y13.4911 F150.00
G01 X17.2892 Y13.4591 F150.00
G01 X17.3159 Y13.4297 F150.00
G01 X17.3453 Y13.4030 F150.00
G01 X17.3773 Y13.3793 F150.00
G01 X17.4113 Y13.3589 F150.00
G01 X17.4473 Y13.3419 F150.00
G01 X17.4847 Y13.3285 F150.00
G01 X17.5232 Y13.3189 F150.00
G01 X17.5625 Y13.3131 F150.00
G01 X17.6022 Y13.3111 F150.00
G01 X17.6419 Y13.3131 F150.00
G01 X17.6812 Y13.3189 F150.00
G01 X17.7197 Y13.3285 F150.00
G01 X17.7571 Y13.3419 F150.00
G01 X17.7931 Y13.3589 F150.00
G01 X17.8271 Y13.3793 F150.00
G01 X17.8591 Y13.4030 F150.00
G01 X17.8885 Y13.4297 F150.00
G01 X17.9155 Y13.4595 F150.00
G01 X17.9348 Y13.4836 F150.00
G01 X17.9529 Y13.5040 F150.00
G01 X17.9719 Y13.5236 F150.00
G01 X17.9817 Y13.5330 F150.00
G01 X17.9977 Y13.5474 F150.00
G01 X18.0186 Y13.5648 F150.00
G01 X18.0452 Y13.5846 F150.00
G01 X18.0564 Y13.5923 F150.00
G01 X18.0745 Y13.6039 F150.00
G01 X18.1031 Y13.6205 F150.00
G01 X18.1152 Y13.6269 F150.00
G01 X18.1345 Y13.6363 F150.00
G01 X18.1648 Y13.6494 F150.00
G01 X18.1849 Y13.6570 F150.00
G01 X18.1978 Y13.6614 F150.00
G01 X18.2295 Y13.6709 F150.00
G01 X18.2503 Y13.6761 F150.00
G01 X18.2636 Y13.6791 F150.00
G01 X18.2962 Y13.6848 F150.00
G01 X18.3098 Y13.6866 F150.00
G01 X18.3311 Y13.6889 F150.00
G01 X18.3641 Y13.6908 F150.00
G01 X18.3817 Y13.6911 F150.00
G01 X22.4144 Y13.6910 F150.00
G01 X22.4370 Y13.6902 F150.00
G01 X22.4513 Y13.6892 F150.00
G01 X22.4717 Y13.6872 F150.00
G01 X22.4859 Y13.6853 F150.00
G01 X22.5001 Y13.6832 F150.00
G01 X22.5223 Y13.6790 F150.00
G01 X22.5363 Y13.6760 F150.00
G01 X22.5562 Y13.6710 F150.00
G01 X22.5838 Y13.6628 F150.00
G01 X22.6051 Y13.6555 F150.00
G01 X22.6185 Y13.6504 F150.00
G01 X22.6375 Y13.6426 F150.00
G01 X22.6506 Y13.6367 F150.00
G01 X22.6635 Y13.6305 F150.00
G01 X22.6836 Y13.6201 F150.00
G01 X22.7014 Y13.6100 F150.00
G01 X22.7206 Y13.5981 F150.00
G01 X22.7376 Y13.5867 F150.00
G01 X22.7559 Y13.5735 F150.00
G01 X22.7721 Y13.5609 F150.00
G01 X22.7894 Y13.5464 F150.00
G01 X22.8046 Y13.5326 F150.00
G01 X22.8178 Y13.5198 F150.00
G01 X27.5416 Y8.7959 F150.00
G01 X27.5586 Y8.7783 F150.00
G01 X27.5774 Y8.7568 F150.00
G01 X27.5951 Y8.7344 F150.00
G01 X27.6083 Y8.7162 F150.00
G01 X27.6196 Y8.6993 F150.00
G01 X27.6345 Y8.6749 F150.00
G01 X27.6454 Y8.6553 F150.00
G01 X27.6581 Y8.6297 F150.00
G01 X27.6664 Y8.6111 F150.00
G01 X27.6769 Y8.5845 F150.00
G01 X27.6843 Y8.5633 F150.00
G01 X27.6924 Y8.5360 F150.00
G01 X27.6974 Y8.5162 F150.00
G01 X27.7033 Y8.4883 F150.00
G01 X27.7069 Y8.4661 F150.00
G01 X27.7095 Y8.4459 F150.00
G01 X27.7119 Y8.4174 F150.00
G01 X27.7128 Y8.3950 F150.00
G01 X27.7360 Y3.0671 F150.00
G01 X27.7356 Y3.0436 F150.00
G01 X27.7350 Y3.0299 F150.00
G01 X27.7333 Y3.0084 F150.00
G01 X27.7292 Y2.9754 F150.00
G01 X27.7255 Y2.9542 F150.00
G01 X27.7215 Y2.9350 F150.00
G01 X27.7183 Y2.9217 F150.00
G01 X27.7127 Y2.9009 F150.00
G01 X27.7024 Y2.8693 F150.00
G01 X27.6949 Y2.8491 F150.00
G01 X27.6874 Y2.8310 F150.00
G01 X27.6818 Y2.8185 F150.00
G01 X27.6723 Y2.7991 F150.00
G01 X27.6564 Y2.7699 F150.00
G01 X27.6494 Y2.7582 F150.00
G01 X27.6378 Y2.7400 F150.00
G01 X27.6220 Y2.7176 F150.00
G01 X27.6015 Y2.6914 F150.00
G01 X27.5836 Y2.6707 F150.00
G01 X27.5647 Y2.6509 F150.00
G01 X27.5448 Y2.6320 F150.00
G01 X27.5241 Y2.6140 F150.00
G01 X27.5059 Y2.5995 F150.00
G01 X27.4759 Y2.5723 F150.00
G01 X27.4492 Y2.5429 F150.00
G01 X27.4255 Y2.5109 F150.00
G01 X27.4051 Y2.4769 F150.00
G01 X27.3881 Y2.4409 F150.00
G01 X27.3747 Y2.4035 F150.00
G01 X27.3651 Y2.3650 F150.00
G01 X27.3593 Y2.3257 F150.00
G01 X27.3573 Y2.2860 F150.00
G01 X27.3593 Y2.2463 F150.00
G01 X27.3651 Y2.2070 F150.00
G01 X27.3747 Y2.1685 F150.00
G01 X27.3881 Y2.1311 F150.00
G01 X27.4051 Y2.0951 F150.00
G01 X27.4255 Y2.0611 F150.00
G01 X27.4492 Y2.0291 F150.00
G01 X27.4759 Y1.9997 F150.00
G01 X27.5053 Y1.9730 F150.00
G01 X27.5373 Y1.9493 F150.00
G01 X27.5713 Y1.9289 F150.00
G01 X27.6073 Y1.9119 F150.00
G01 X27.6447 Y1.8985 F150.00
G01 X27.6832 Y1.8889 F150.00
G01 X27.7225 Y1.8831 F150.00
G01 X27.7622 Y1.8811 F150.00
G01 X27.8019 Y1.8831 F150.00
G01 X27.8412 Y1.8889 F150.00
G01 X27.8797 Y1.8985 F150.00
G01 X27.9171 Y1.9119 F150.00
G01 X27.9531 Y1.9289 F150.00
G01 X27.9871 Y1.9493 F150.00
G01 X28.0191 Y1.9730 F150.00
G01 X28.0485 Y1.9997 F150.00
G01 X28.0752 Y2.0291 F150.00
G01 X28.0989 Y2.0611 F150.00
G01 X28.1193 Y2.0951 F150.00
G01 X28.1363 Y2.1311 F150.00
G01 X28.1497 Y2.1685 F150.00
G01 X28.1593 Y2.2070 F150.00
G01 X28.1651 Y2.2463 F150.00
G01 X28.1671 Y2.2860 F150.00
G01 X28.1651 Y2.3257 F150.00
G01 X28.1593 Y2.3650 F150.00
G01 X28.1497 Y2.4035 F150.00
G01 X28.1363 Y2.4409 F150.00
G01 X28.1193 Y2.4769 F150.00
G01 X28.0989 Y2.5109 F150.00
G01 X28.0752 Y2.5429 F150.00
G01 X28.0485 Y2.5723 F150.00
G01 X28.0188 Y2.5992 F150.00
G01 X27.9953 Y2.6179 F150.00
G01 X27.9758 Y2.6349 F150.00
G01 X27.9511 Y2.6590 F150.00
G01 X27.9335 Y2.6779 F150.00
G01 X27.9114 Y2.7044 F150.00
G01 X27.8933 Y2.7285 F150.00
G01 X27.8847 Y2.7409 F150.00
G01 X27.8731 Y2.7591 F150.00
G01 X27.8579 Y2.7851 F150.00
G01 X27.8508 Y2.7984 F150.00
G01 X27.8404 Y2.8197 F150.00
G01 X27.8284 Y2.8474 F150.00
G01 X27.8207 Y2.8675 F150.00
G01 X27.8157 Y2.8818 F150.00
G01 X27.8070 Y2.9106 F150.00
G01 X27.7987 Y2.9441 F150.00
G01 X27.7925 Y2.9781 F150.00
G01 X27.7897 Y2.9994 F150.00
G01 X27.7881 Y3.0144 F150.00
G01 X27.7862 Y3.0445 F150.00
G01 X27.7858 Y3.0639 F150.00
G01 X27.7618 Y8.6217 F150.00
G01 X27.7605 Y8.6408 F150.00
G01 X27.7581 Y8.6475 F150.00
G01 X27.7554 Y8.6514 F150.00
G01 X27.7443 Y8.6638 F150.00
G01 X22.6846 Y13.7235 F150.00
G01 X22.6722 Y13.7347 F150.00
G01 X22.6682 Y13.7373 F150.00
G01 X22.6638 Y13.7392 F150.00
G01 X22.6592 Y13.7401 F150.00
G01 X22.6424 Y13.7409 F150.00
G01 X18.3817 Y13.7409 F150.00
G01 X18.3505 Y13.7417 F150.00
G01 X18.3233 Y13.7438 F150.00
G01 X18.2905 Y13.7481 F150.00
G01 X18.2770 Y13.7503 F150.00
G01 X18.2560 Y13.7546 F150.00
G01 X18.2295 Y13.7611 F150.00
G01 X18.1978 Y13.7706 F150.00
G01 X18.1721 Y13.7797 F150.00
G01 X18.1522 Y13.7878 F150.00
G01 X18.1397 Y13.7933 F150.00
G01 X18.1100 Y13.8078 F150.00
G01 X18.0912 Y13.8181 F150.00
G01 X18.0794 Y13.8250 F150.00
G01 X18.0516 Y13.8429 F150.00
G01 X18.0294 Y13.8589 F150.00
G01 X18.0125 Y13.8721 F150.00
G01 X18.0021 Y13.8808 F150.00
G01 X17.9817 Y13.8990 F150.00
G01 X17.9582 Y13.9223 F150.00
G01 X17.9489 Y13.9323 F150.00
G01 X17.9348 Y13.9484 F150.00
G01 X17.9155 Y13.9725 F150.00
G01 X17.6585 Y13.6748 F150.00
G01 X17.6741 Y13.6940 F150.00
G01 X17.6929 Y13.7160 F150.00
G01 X17.6741 Y13.7380 F150.00
G01 X17.6585 Y13.7572 F150.00
G01 X17.6513 Y13.7651 F150.00
G01 X17.6463 Y13.7697 F150.00
G01 X17.6408 Y13.7738 F150.00
G01 X17.6350 Y13.7773 F150.00
G01 X17.6288 Y13.7802 F150.00
G01 X17.6224 Y13.7825 F150.00
G01 X17.6158 Y13.7842 F150.00
G01 X17.6090 Y13.7852 F150.00
G01 X17.6022 Y13.7855 F150.00
G01 X17.5954 Y13.7852 F150.00
G01 X17.5886 Y13.7842 F150.00
G01 X17.5820 Y13.7825 F150.00
G01 X17.5756 Y13.7802 F150.00
G01 X17.5694 Y13.7773 F150.00
G01 X17.5636 Y13.7738 F150.00
G01 X17.5581 Y13.7697 F150.00
G01 X17.5531 Y13.7651 F150.00
G01 X17.5485 Y13.7601 F150.00
G01 X17.5444 Y13.7546 F150.00
G01 X17.5409 Y13.7488 F150.00
G01 X17.5380 Y13.7426 F150.00
G01 X17.5357 Y13.7362 F150.00
G01 X17.5340 Y13.7296 F150.00
G01 X17.5330 Y13.7228 F150.00
G01 X17.5327 Y13.7160 F150.00
G01 X17.5330 Y13.7092 F150.00
G01 X17.5340 Y13.7024 F150.00
G01 X17.5357 Y13.6958 F150.00
G01 X17.5380 Y13.6894 F150.00
G01 X17.5409 Y13.6832 F150.00
G01 X17.5444 Y13.6774 F150.00
G01 X17.5485 Y13.6719 F150.00
G01 X17.5531 Y13.6669 F150.00
G01 X17.5581 Y13.6623 F150.00
G01 X17.5636 Y13.6582 F150.00
G01 X17.5694 Y13.6547 F150.00
G01 X17.5756 Y13.6518 F150.00
G01 X17.5820 Y13.6495 F150.00
G01 X17.5886 Y13.6478 F150.00
G01 X17.5954 Y13.6468 F150.00
G01 X17.6022 Y13.6465 F150.00
G01 X17.6090 Y13.6468 F150.00
G01 X17.6158 Y13.6478 F150.00
G01 X17.6224 Y13.6495 F150.00
G01 X17.6288 Y13.6518 F150.00
G01 X17.6350 Y13.6547 F150.00
G01 X17.6408 Y13.6582 F150.00
G01 X17.6463 Y13.6623 F150.00
G01 X17.6513 Y13.6669 F150.00
G01 X17.6585 Y13.6748 F150.00
G00 Z2.0000
G00 X17.6585 Y18.7548
G01 F50.00
G01 Z0.0000
G01 F150.00
G01 X17.6513 Y18.7469 F150.00
G01 X17.6463 Y18.7423 F150.00
G01 X17.6408 Y18.7382 F150.00
G01 X17.6350 Y18.7347 F150.00
G01 X17.6288 Y18.7318 F150.00
G01 X17.6224 Y18.7295 F150.00
G01 X17.6158 Y18.7278 F150.00
G01 X17.6090 Y18.7268 F150.00
G01 X17.6022 Y18.7265 F150.00
G01 X17.5954 Y18.7268 F150.00
G01 X17.5886 Y18.7278 F150.00
G01 X17.5820 Y18.7295 F150.00
G01 X17.5756 Y18.7318 F150.00
G01 X17.5694 Y18.7347 F150.00
G01 X17.5636 Y18.7382 F150.00
G01 X17.5581 Y18.7423 F150.00
G01 X17.5531 Y18.7469 F150.00
G01 X17.5485 Y18.7519 F150.00
G01 X17.5444 Y18.7574 F150.00
G01 X17.5409 Y18.7632 F150.00
G01 X17.5380 Y18.7694 F150.00
G01 X17.5357 Y18.7758 F150.00
G01 X17.5340 Y18.7824 F150.00
G01 X17.5330 Y18.7892 F150.00
G01 X17.5327 Y18.7960 F150.00
G01 X17.5330 Y18.8028 F150.00
G01 X17.5340 Y18.8096 F150.00
G01 X17.5357 Y18.8162 F150.00
G01 X17.5380 Y18.8226 F150.00
G01 X17.5409 Y18.8288 F150.00
G01 X17.5444 Y18.8346 F150.00
G01 X17.5485 Y18.8401 F150.00
G01 X17.5531 Y18.8451 F150.00
G01 X17.5581 Y18.8497 F150.00
G01 X17.5636 Y18.8538 F150.00
G01 X17.5694 Y18.8573 F150.00
G01 X17.5756 Y18.8602 F150.00
G01 X17.5820 Y18.8625 F150.00
G01 X17.5886 Y18.8642 F150.00
G01 X17.5954 Y18.8652 F150.00
G01 X17.6022 Y18.8655 F150.00
G01 X17.6090 Y18.8652 F150.00
G01 X17.6158 Y18.8642 F150.00
G01 X17.6224 Y18.8625 F150.00
G01 X17.6288 Y18.8602 F150.00
G01 X17.6350 Y18.8573 F150.00
G01 X17.6408 Y18.8538 F150.00
G01 X17.6463 Y18.8497 F150.00
G01 X17.6513 Y18.8451 F150.00
G01 X17.6585 Y18.8372 F150.00
G01 X17.6741 Y18.8180 F150.00
G01 X17.6929 Y18.7960 F150.00
G01 X17.6741 Y18.7740 F150.00
G01 X17.6585 Y18.7548 F150.00
G01 X17.9155 Y19.0525 F150.00
G01 X17.9348 Y19.0284 F150.00
G01 X17.9489 Y19.0123 F150.00
G01 X17.9582 Y19.0023 F150.00
G01 X17.9817 Y18.9790 F150.00
G01 X17.9977 Y18.9646 F150.00
G01 X18.0080 Y18.9558 F150.00
G01 X18.0341 Y18.9354 F150.00
G01 X18.0564 Y18.9197 F150.00
G01 X18.0745 Y18.9081 F150.00
G01 X18.0861 Y18.9011 F150.00
G01 X18.1152 Y18.8851 F150.00
G01 X18.1345 Y18.8757 F150.00
G01 X18.1469 Y18.8701 F150.00
G01 X18.1776 Y18.8577 F150.00
G01 X18.2033 Y18.8488 F150.00
G01 X18.2239 Y18.8426 F150.00
G01 X18.2371 Y18.8391 F150.00
G01 X18.2694 Y18.8318 F150.00
G01 X18.2905 Y18.8281 F150.00
G01 X18.3040 Y18.8261 F150.00
G01 X18.3369 Y18.8226 F150.00
G01 X18.3505 Y18.8217 F150.00
G01 X18.3719 Y18.8210 F150.00
G01 X32.5642 Y18.8209 F150.00
G01 X32.5826 Y18.8212 F150.00
G01 X32.6031 Y18.8222 F150.00
G01 X32.6256 Y18.8241 F150.00
G01 X32.6399 Y18.8258 F150.00
G01 X32.6601 Y18.8288 F150.00
G01 X32.6743 Y18.8314 F150.00
G01 X32.6963 Y18.8360 F150.00
G01 X32.7103 Y18.8395 F150.00
G01 X32.7300 Y18.8449 F150.00
G01 X32.7516 Y18.8517 F150.00
G01 X32.7709 Y18.8586 F150.00
G01 X32.7842 Y18.8639 F150.00
G01 X32.8050 Y18.8728 F150.00
G01 X32.8235 Y18.8815 F150.00
G01 X32.8436 Y18.8919 F150.00
G01 X32.8561 Y18.8990 F150.00
G01 X32.8737 Y18.9095 F150.00
G01 X32.8926 Y18.9218 F150.00
G01 X32.9044 Y18.9300 F150.00
G01 X32.9208 Y18.9422 F150.00
G01 X32.9385 Y18.9563 F150.00
G01 X32.9494 Y18.9656 F150.00
G01 X32.9646 Y18.9794 F150.00
G01 X32.9778 Y18.9922 F150.00
G01 X37.7006 Y23.7150 F150.00
G01 X37.7176 Y23.7327 F150.00
G01 X37.7365 Y23.7543 F150.00
G01 X37.7506 Y23.7720 F150.00
G01 X37.7675 Y23.7952 F150.00
G01 X37.7833 Y23.8191 F150.00
G01 X37.7938 Y23.8367 F150.00
G01 X37.8076 Y23.8619 F150.00
G01 X37.8200 Y23.8878 F150.00
G01 X37.8312 Y23.9143 F150.00
G01 X37.8411 Y23.9412 F150.00
G01 X37.8479 Y23.9628 F150.00
G01 X37.8518 Y23.9766 F150.00
G01 X37.8586 Y24.0045 F150.00
G01 X37.8640 Y24.0327 F150.00
G01 X37.8670 Y24.0529 F150.00
G01 X37.8687 Y24.0672 F150.00
G01 X37.8710 Y24.0958 F150.00
G01 X37.8719 Y24.1286 F150.00
G01 X37.8719 Y42.6480 F150.00
G01 X37.8710 Y42.6808 F150.00
G01 X37.8687 Y42.7094 F150.00
G01 X37.8649 Y42.7379 F150.00
G01 X37.8626 Y42.7520 F150.00
G01 X37.8586 Y42.7721 F150.00
G01 X37.8553 Y42.7861 F150.00
G01 X37.8496 Y42.8080 F150.00
G01 X37.8436 Y42.8276 F150.00
G01 X37.8363 Y42.8489 F150.00
G01 X37.8289 Y42.8680 F150.00
G01 X37.8200 Y42.8888 F150.00
G01 X37.8113 Y42.9073 F150.00
G01 X37.8009 Y42.9274 F150.00
G01 X37.7938 Y42.9399 F150.00
G01 X37.7833 Y42.9575 F150.00
G01 X37.7710 Y42.9764 F150.00
G01 X37.7592 Y42.9931 F150.00
G01 X37.7455 Y43.0111 F150.00
G01 X37.7325 Y43.0269 F150.00
G01 X37.7231 Y43.0378 F150.00
G01 X37.7077 Y43.0543 F150.00
G01 X32.8347 Y47.9274 F150.00
G01 X32.8221 Y47.9417 F150.00
G01 X32.8137 Y47.9589 F150.00
G01 X32.0632 Y49.7689 F150.00
G01 X32.0554 Y49.7868 F150.00
G01 X32.0461 Y49.8063 F150.00
G01 X32.0371 Y49.8236 F150.00
G01 X32.0276 Y49.8406 F150.00
G01 X32.0197 Y49.8535 F150.00
G01 X32.0080 Y49.8717 F150.00
G01 X31.9904 Y49.8964 F150.00
G01 X31.9716 Y49.9201 F150.00
G01 X31.9516 Y49.9428 F150.00
G01 X31.9304 Y49.9645 F150.00
G01 X31.9081 Y49.9850 F150.00
G01 X31.8848 Y50.0044 F150.00
G01 X31.8605 Y50.0225 F150.00
G01 X31.8354 Y50.0394 F150.00
G01 X31.8150 Y50.0517 F150.00
G01 X31.7883 Y50.0661 F150.00
G01 X31.7689 Y50.0756 F150.00
G01 X31.7471 Y50.0852 F150.00
G01 X31.7229 Y50.0946 F150.00
G01 X31.7045 Y50.1009 F150.00
G01 X31.6882 Y50.1060 F150.00
G01 X31.6459 Y50.1211 F150.00
G01 X31.6099 Y50.1381 F150.00
G01 X31.5759 Y50.1585 F150.00
G01 X31.5439 Y50.1822 F150.00
G01 X31.5145 Y50.2089 F150.00
G01 X31.4878 Y50.2383 F150.00
G01 X31.4641 Y50.2703 F150.00
G01 X31.4437 Y50.3043 F150.00
G01 X31.4267 Y50.3403 F150.00
G01 X31.4133 Y50.3777 F150.00
G01 X31.4037 Y50.4162 F150.00
G01 X31.3979 Y50.4555 F150.00
G01 X31.3959 Y50.4952 F150.00
G01 X31.3979 Y50.5349 F150.00
G01 X31.4037 Y50.5742 F150.00
G01 X31.4133 Y50.6127 F150.00
G01 X31.4267 Y50.6501 F150.00
G01 X31.4437 Y50.6861 F150.00
G01 X31.4641 Y50.7201 F150.00
G01 X31.4878 Y50.7521 F150.00
G01 X31.5145 Y50.7815 F150.00
G01 X31.5439 Y50.8082 F150.00
G01 X31.5759 Y50.8319 F150.00
G01 X31.6099 Y50.8523 F150.00
G01 X31.6459 Y50.8693 F150.00
G01 X31.6833 Y50.8827 F150.00
G01 X31.7218 Y50.8923 F150.00
G01 X31.7611 Y50.8981 F150.00
G01 X31.8008 Y50.9001 F150.00
G01 X31.8405 Y50.8981 F150.00
G01 X31.8798 Y50.8923 F150.00
G01 X31.9183 Y50.8827 F150.00
G01 X31.9557 Y50.8693 F150.00
G01 X31.9917 Y50.8523 F150.00
G01 X32.0257 Y50.8319 F150.00
G01 X32.0577 Y50.8082 F150.00
G01 X32.0871 Y50.7815 F150.00
G01 X32.1138 Y50.7521 F150.00
G01 X32.1375 Y50.7201 F150.00
G01 X32.1579 Y50.6861 F150.00
G01 X32.1749 Y50.6501 F150.00
G01 X32.1883 Y50.6127 F150.00
G01 X32.1979 Y50.5742 F150.00
G01 X32.2037 Y50.5349 F150.00
G01 X32.2057 Y50.4952 F150.00
G01 X32.2037 Y50.4555 F150.00
G01 X32.1979 Y50.4162 F150.00
G01 X32.1883 Y50.3777 F150.00
G01 X32.1749 Y50.3403 F150.00
G01 X32.1579 Y50.3043 F150.00
G01 X32.1424 Y50.2776 F150.00
G01 X32.1299 Y50.2534 F150.00
G01 X32.1185 Y50.2285 F150.00
G01 X32.1083 Y50.2032 F150.00
G01 X32.0993 Y50.1775 F150.00
G01 X32.0952 Y50.1645 F150.00
G01 X32.0895 Y50.1438 F150.00
G01 X32.0833 Y50.1172 F150.00
G01 X32.0774 Y50.0846 F150.00
G01 X32.0755 Y50.0711 F150.00
G01 X32.0732 Y50.0498 F150.00
G01 X32.0714 Y50.0226 F150.00
G01 X32.0709 Y49.9894 F150.00
G01 X32.0715 Y49.9680 F150.00
G01 X32.0724 Y49.9544 F150.00
G01 X32.0757 Y49.9214 F150.00
G01 X32.0776 Y49.9079 F150.00
G01 X32.0813 Y49.8868 F150.00
G01 X32.0885 Y49.8544 F150.00
G01 X32.0920 Y49.8412 F150.00
G01 X32.0981 Y49.8207 F150.00
G01 X32.1069 Y49.7949 F150.00
G01 X32.1154 Y49.7731 F150.00
G01 X32.8204 Y48.0729 F150.00
G01 X32.8287 Y48.0542 F150.00
G01 X32.8349 Y48.0413 F150.00
G01 X32.8453 Y48.0212 F150.00
G01 X32.8523 Y48.0087 F150.00
G01 X32.8628 Y47.9912 F150.00
G01 X32.8706 Y47.9791 F150.00
G01 X32.8833 Y47.9605 F150.00
G01 X32.8918 Y47.9489 F150.00
G01 X32.9044 Y47.9328 F150.00
G01 X32.9189 Y47.9155 F150.00
G01 X32.9327 Y47.9004 F150.00
G01 X32.9455 Y47.8871 F150.00
G01 X37.9043 Y42.9284 F150.00
G01 X37.9169 Y42.9140 F150.00
G01 X37.9192 Y42.9099 F150.00
G01 X37.9205 Y42.9053 F150.00
G01 X37.9217 Y42.8862 F150.00
G01 X37.9217 Y23.8904 F150.00
G01 X37.9209 Y23.8736 F150.00
G01 X37.9192 Y23.8667 F150.00
G01 X37.9155 Y23.8606 F150.00
G01 X37.9043 Y23.8482 F150.00
G01 X32.8446 Y18.7885 F150.00
G01 X32.8302 Y18.7759 F150.00
G01 X32.8261 Y18.7736 F150.00
G01 X32.8215 Y18.7723 F150.00
