(G-CODE GENERATED BY FLATCAM v8.994 - www.flatcam.org - Version Date: 2020/11/7)

(Name: Q1060-PCB Alimentação_copperBottom.gbl_mt_paint_cnc)
(Type: G-code from Geometry)
(Units: MM)

(Created on Saturday, 02 December 2023 at 12:28)

(This preprocessor is used with a motion controller loaded with GRBL firmware.)
(It is configured to be compatible with almost any version of GRBL firmware.)

(TOOL DIAMETER: 0.5 mm)
(Feedrate_XY: 150.0 mm/min)
(Feedrate_Z: 50.0 mm/min)
(Feedrate rapids 1500.0 mm/min)

(Z_Cut: 0.0 mm)
(Z_Move: 2.0 mm)
(Z Start: None mm)
(Z End: 15.0 mm)
(X,Y End: 0.0000, 0.0000 mm)
(Steps per circle: 64)
(Steps per circle: 64)
(Preprocessor Geometry: GRBL_11_no_M6)

(X range:    1.2663 ...   35.7669  mm)
(Y range:    7.3877 ...   18.6479  mm)

(Spindle Speed: 0.0 RPM)
G21
G90
G17
G94


G01 F150.00

M5             
G00 Z15.0000
G00 X0.0000 Y0.0000                
T2
(MSG, Change to Tool Dia = 0.5000)
M0
G00 Z15.0000
        
M03
G01 F150.00
G00 X3.3330 Y8.1691
G01 F50.00
G01 Z0.0000
G01 F150.00
G01 X3.3493 Y8.1490 F150.00
G01 X3.3673 Y8.1280 F150.00
G01 X3.3493 Y8.1070 F150.00
G01 X3.3330 Y8.0869 F150.00
G01 X3.3257 Y8.0789 F150.00
G01 X3.3207 Y8.0743 F150.00
G01 X3.3152 Y8.0702 F150.00
G01 X3.3094 Y8.0667 F150.00
G01 X3.3032 Y8.0638 F150.00
G01 X3.2968 Y8.0615 F150.00
G01 X3.2902 Y8.0598 F150.00
G01 X3.2834 Y8.0588 F150.00
G01 X3.2766 Y8.0585 F150.00
G01 X3.2698 Y8.0588 F150.00
G01 X3.2630 Y8.0598 F150.00
G01 X3.2564 Y8.0615 F150.00
G01 X3.2500 Y8.0638 F150.00
G01 X3.2438 Y8.0667 F150.00
G01 X3.2380 Y8.0702 F150.00
G01 X3.2325 Y8.0743 F150.00
G01 X3.2275 Y8.0789 F150.00
G01 X3.2229 Y8.0839 F150.00
G01 X3.2188 Y8.0894 F150.00
G01 X3.2153 Y8.0952 F150.00
G01 X3.2124 Y8.1014 F150.00
G01 X3.2101 Y8.1078 F150.00
G01 X3.2084 Y8.1144 F150.00
G01 X3.2074 Y8.1212 F150.00
G01 X3.2071 Y8.1280 F150.00
G01 X3.2074 Y8.1348 F150.00
G01 X3.2084 Y8.1416 F150.00
G01 X3.2101 Y8.1482 F150.00
G01 X3.2124 Y8.1546 F150.00
G01 X3.2153 Y8.1608 F150.00
G01 X3.2188 Y8.1666 F150.00
G01 X3.2229 Y8.1721 F150.00
G01 X3.2275 Y8.1771 F150.00
G01 X3.2325 Y8.1817 F150.00
G01 X3.2380 Y8.1858 F150.00
G01 X3.2438 Y8.1893 F150.00
G01 X3.2500 Y8.1922 F150.00
G01 X3.2564 Y8.1945 F150.00
G01 X3.2630 Y8.1962 F150.00
G01 X3.2698 Y8.1972 F150.00
G01 X3.2766 Y8.1975 F150.00
G01 X3.2834 Y8.1972 F150.00
G01 X3.2902 Y8.1962 F150.00
G01 X3.2968 Y8.1945 F150.00
G01 X3.3032 Y8.1922 F150.00
G01 X3.3094 Y8.1893 F150.00
G01 X3.3152 Y8.1858 F150.00
G01 X3.3207 Y8.1817 F150.00
G01 X3.3257 Y8.1771 F150.00
G01 X3.3330 Y8.1691 F150.00
G01 X3.5899 Y8.3845 F150.00
G01 X3.6021 Y8.3689 F150.00
G01 X3.6119 Y8.3573 F150.00
G01 X3.6322 Y8.3348 F150.00
G01 X3.6489 Y8.3179 F150.00
G01 X3.6600 Y8.3074 F150.00
G01 X3.6828 Y8.2875 F150.00
G01 X3.7066 Y8.2688 F150.00
G01 X3.7314 Y8.2513 F150.00
G01 X3.7570 Y8.2351 F150.00
G01 X3.7701 Y8.2276 F150.00
G01 X3.7892 Y8.2173 F150.00
G01 X3.8165 Y8.2042 F150.00
G01 X3.8445 Y8.1925 F150.00
G01 X3.8771 Y8.1809 F150.00
G01 X3.9104 Y8.1713 F150.00
G01 X3.9400 Y8.1646 F150.00
G01 X3.9698 Y8.1593 F150.00
G01 X3.9999 Y8.1556 F150.00
G01 X4.0150 Y8.1544 F150.00
G01 X4.0366 Y8.1532 F150.00
G01 X4.0561 Y8.1529 F150.00
G01 X10.1171 Y8.1529 F150.00
G01 X10.1431 Y8.1535 F150.00
G01 X10.1733 Y8.1556 F150.00
G01 X10.2034 Y8.1593 F150.00
G01 X10.2332 Y8.1646 F150.00
G01 X10.2628 Y8.1713 F150.00
G01 X10.2961 Y8.1809 F150.00
G01 X10.3287 Y8.1925 F150.00
G01 X10.3567 Y8.2042 F150.00
G01 X10.3840 Y8.2173 F150.00
G01 X10.4106 Y8.2319 F150.00
G01 X10.4291 Y8.2431 F150.00
G01 X10.4418 Y8.2513 F150.00
G01 X10.4666 Y8.2688 F150.00
G01 X10.4854 Y8.2834 F150.00
G01 X10.4971 Y8.2931 F150.00
G01 X10.5196 Y8.3134 F150.00
G01 X10.5350 Y8.3285 F150.00
G01 X10.5455 Y8.3395 F150.00
G01 X10.5655 Y8.3622 F150.00
G01 X10.5833 Y8.3845 F150.00
G01 X10.6103 Y8.4143 F150.00
G01 X10.6397 Y8.4410 F150.00
G01 X10.6717 Y8.4647 F150.00
G01 X10.7057 Y8.4851 F150.00
G01 X10.7417 Y8.5021 F150.00
G01 X10.7791 Y8.5155 F150.00
G01 X10.8176 Y8.5251 F150.00
G01 X10.8569 Y8.5309 F150.00
G01 X10.8966 Y8.5329 F150.00
G01 X10.9363 Y8.5309 F150.00
G01 X10.9756 Y8.5251 F150.00
G01 X11.0141 Y8.5155 F150.00
G01 X11.0515 Y8.5021 F150.00
G01 X11.0875 Y8.4851 F150.00
G01 X11.1215 Y8.4647 F150.00
G01 X11.1535 Y8.4410 F150.00
G01 X11.1829 Y8.4143 F150.00
G01 X11.2099 Y8.3845 F150.00
G01 X11.2277 Y8.3622 F150.00
G01 X11.2477 Y8.3395 F150.00
G01 X11.2582 Y8.3285 F150.00
G01 X11.2736 Y8.3134 F150.00
G01 X11.2961 Y8.2931 F150.00
G01 X11.3146 Y8.2780 F150.00
G01 X11.3266 Y8.2688 F150.00
G01 X11.3514 Y8.2513 F150.00
G01 X11.3696 Y8.2396 F150.00
G01 X11.3826 Y8.2319 F150.00
G01 X11.4092 Y8.2173 F150.00
G01 X11.4365 Y8.2042 F150.00
G01 X11.4645 Y8.1925 F150.00
G01 X11.4930 Y8.1823 F150.00
G01 X11.5220 Y8.1736 F150.00
G01 X11.5515 Y8.1663 F150.00
G01 X11.5812 Y8.1607 F150.00
G01 X11.6113 Y8.1565 F150.00
G01 X11.6415 Y8.1539 F150.00
G01 X11.6761 Y8.1529 F150.00
G01 X17.7479 Y8.1530 F150.00
G01 X17.7782 Y8.1544 F150.00
G01 X17.8084 Y8.1573 F150.00
G01 X17.8320 Y8.1607 F150.00
G01 X17.8469 Y8.1633 F150.00
G01 X17.8765 Y8.1698 F150.00
G01 X17.8974 Y8.1753 F150.00
G01 X17.9119 Y8.1796 F150.00
G01 X17.9406 Y8.1894 F150.00
G01 X17.9687 Y8.2007 F150.00
G01 X17.9963 Y8.2134 F150.00
G01 X18.0269 Y8.2297 F150.00
G01 X18.0436 Y8.2396 F150.00
G01 X18.0618 Y8.2513 F150.00
G01 X18.0866 Y8.2688 F150.00
G01 X18.1054 Y8.2834 F150.00
G01 X18.1171 Y8.2931 F150.00
G01 X18.1396 Y8.3134 F150.00
G01 X18.1550 Y8.3285 F150.00
G01 X18.1655 Y8.3395 F150.00
G01 X18.1855 Y8.3622 F150.00
G01 X18.2033 Y8.3845 F150.00
G01 X18.2303 Y8.4143 F150.00
G01 X18.2597 Y8.4410 F150.00
G01 X18.2917 Y8.4647 F150.00
G01 X18.3257 Y8.4851 F150.00
G01 X18.3617 Y8.5021 F150.00
G01 X18.3991 Y8.5155 F150.00
G01 X18.4376 Y8.5251 F150.00
G01 X18.4769 Y8.5309 F150.00
G01 X18.5166 Y8.5329 F150.00
G01 X18.5563 Y8.5309 F150.00
G01 X18.5956 Y8.5251 F150.00
G01 X18.6341 Y8.5155 F150.00
G01 X18.6715 Y8.5021 F150.00
G01 X18.7075 Y8.4851 F150.00
G01 X18.7415 Y8.4647 F150.00
G01 X18.7735 Y8.4410 F150.00
G01 X18.8029 Y8.4143 F150.00
G01 X18.8299 Y8.3845 F150.00
G01 X18.8477 Y8.3622 F150.00
G01 X18.8677 Y8.3395 F150.00
G01 X18.8782 Y8.3285 F150.00
G01 X18.8936 Y8.3134 F150.00
G01 X18.9161 Y8.2931 F150.00
G01 X18.9346 Y8.2780 F150.00
G01 X18.9466 Y8.2688 F150.00
G01 X18.9714 Y8.2513 F150.00
G01 X18.9896 Y8.2396 F150.00
G01 X19.0026 Y8.2319 F150.00
G01 X19.0292 Y8.2173 F150.00
G01 X19.0565 Y8.2042 F150.00
G01 X19.0845 Y8.1925 F150.00
G01 X19.1130 Y8.1823 F150.00
G01 X19.1420 Y8.1736 F150.00
G01 X19.1715 Y8.1663 F150.00
G01 X19.2012 Y8.1607 F150.00
G01 X19.2313 Y8.1565 F150.00
G01 X19.2615 Y8.1539 F150.00
G01 X19.2961 Y8.1529 F150.00
G01 X25.3679 Y8.1530 F150.00
G01 X25.3982 Y8.1544 F150.00
G01 X25.4284 Y8.1573 F150.00
G01 X25.4520 Y8.1607 F150.00
G01 X25.4669 Y8.1633 F150.00
G01 X25.4965 Y8.1698 F150.00
G01 X25.5174 Y8.1753 F150.00
G01 X25.5319 Y8.1796 F150.00
G01 X25.5606 Y8.1894 F150.00
G01 X25.5887 Y8.2007 F150.00
G01 X25.6163 Y8.2134 F150.00
G01 X25.6469 Y8.2297 F150.00
G01 X25.6636 Y8.2396 F150.00
G01 X25.6818 Y8.2513 F150.00
G01 X25.7066 Y8.2688 F150.00
G01 X25.7254 Y8.2834 F150.00
G01 X25.7371 Y8.2931 F150.00
G01 X25.7596 Y8.3134 F150.00
G01 X25.7750 Y8.3285 F150.00
G01 X25.7855 Y8.3395 F150.00
G01 X25.8055 Y8.3622 F150.00
G01 X25.8233 Y8.3845 F150.00
G01 X25.8503 Y8.4143 F150.00
G01 X25.8797 Y8.4410 F150.00
G01 X25.9117 Y8.4647 F150.00
G01 X25.9457 Y8.4851 F150.00
G01 X25.9817 Y8.5021 F150.00
G01 X26.0191 Y8.5155 F150.00
G01 X26.0576 Y8.5251 F150.00
G01 X26.0969 Y8.5309 F150.00
G01 X26.1366 Y8.5329 F150.00
G01 X26.1763 Y8.5309 F150.00
G01 X26.2156 Y8.5251 F150.00
G01 X26.2541 Y8.5155 F150.00
G01 X26.2915 Y8.5021 F150.00
G01 X26.3275 Y8.4851 F150.00
G01 X26.3615 Y8.4647 F150.00
G01 X26.3935 Y8.4410 F150.00
G01 X26.4229 Y8.4143 F150.00
G01 X26.4499 Y8.3845 F150.00
G01 X26.4677 Y8.3622 F150.00
G01 X26.4877 Y8.3395 F150.00
G01 X26.4982 Y8.3285 F150.00
G01 X26.5136 Y8.3134 F150.00
G01 X26.5361 Y8.2931 F150.00
G01 X26.5546 Y8.2780 F150.00
G01 X26.5666 Y8.2688 F150.00
G01 X26.5914 Y8.2513 F150.00
G01 X26.6096 Y8.2396 F150.00
G01 X26.6226 Y8.2319 F150.00
G01 X26.6492 Y8.2173 F150.00
G01 X26.6765 Y8.2042 F150.00
G01 X26.7045 Y8.1925 F150.00
G01 X26.7330 Y8.1823 F150.00
G01 X26.7620 Y8.1736 F150.00
G01 X26.7915 Y8.1663 F150.00
G01 X26.8212 Y8.1607 F150.00
G01 X26.8513 Y8.1565 F150.00
G01 X26.8815 Y8.1539 F150.00
G01 X26.9161 Y8.1529 F150.00
G01 X32.9815 Y8.1529 F150.00
G01 X33.0031 Y8.1535 F150.00
G01 X33.0182 Y8.1544 F150.00
G01 X33.0484 Y8.1573 F150.00
G01 X33.0720 Y8.1607 F150.00
G01 X33.0869 Y8.1633 F150.00
G01 X33.1165 Y8.1698 F150.00
G01 X33.1374 Y8.1753 F150.00
G01 X33.1519 Y8.1796 F150.00
G01 X33.1806 Y8.1894 F150.00
G01 X33.2087 Y8.2007 F150.00
G01 X33.2363 Y8.2134 F150.00
G01 X33.2669 Y8.2297 F150.00
G01 X33.2836 Y8.2396 F150.00
G01 X33.3018 Y8.2513 F150.00
G01 X33.3266 Y8.2688 F150.00
G01 X33.3454 Y8.2834 F150.00
G01 X33.3571 Y8.2931 F150.00
G01 X33.3796 Y8.3134 F150.00
G01 X33.3950 Y8.3285 F150.00
G01 X33.4055 Y8.3395 F150.00
G01 X33.4255 Y8.3622 F150.00
G01 X33.4433 Y8.3845 F150.00
G01 X33.4703 Y8.4143 F150.00
G01 X33.4997 Y8.4410 F150.00
G01 X33.5317 Y8.4647 F150.00
G01 X33.5657 Y8.4851 F150.00
G01 X33.6017 Y8.5021 F150.00
G01 X33.6391 Y8.5155 F150.00
G01 X33.6776 Y8.5251 F150.00
G01 X33.7169 Y8.5309 F150.00
G01 X33.7566 Y8.5329 F150.00
G01 X33.7963 Y8.5309 F150.00
G01 X33.8356 Y8.5251 F150.00
G01 X33.8741 Y8.5155 F150.00
G01 X33.9115 Y8.5021 F150.00
G01 X33.9475 Y8.4851 F150.00
G01 X33.9815 Y8.4647 F150.00
G01 X34.0135 Y8.4410 F150.00
G01 X34.0429 Y8.4143 F150.00
G01 X34.0696 Y8.3849 F150.00
G01 X34.0933 Y8.3529 F150.00
G01 X34.1137 Y8.3189 F150.00
G01 X34.1307 Y8.2829 F150.00
G01 X34.1441 Y8.2455 F150.00
G01 X34.1537 Y8.2070 F150.00
G01 X34.1595 Y8.1677 F150.00
G01 X34.1615 Y8.1280 F150.00
G01 X34.1595 Y8.0883 F150.00
G01 X34.1537 Y8.0490 F150.00
G01 X34.1441 Y8.0105 F150.00
G01 X34.1307 Y7.9731 F150.00
G01 X34.1137 Y7.9371 F150.00
G01 X34.0933 Y7.9031 F150.00
G01 X34.0696 Y7.8711 F150.00
G01 X34.0429 Y7.8417 F150.00
G01 X34.0135 Y7.8150 F150.00
G01 X33.9815 Y7.7913 F150.00
G01 X33.9475 Y7.7709 F150.00
G01 X33.9115 Y7.7539 F150.00
G01 X33.8741 Y7.7405 F150.00
G01 X33.8356 Y7.7309 F150.00
G01 X33.7963 Y7.7251 F150.00
G01 X33.7566 Y7.7231 F150.00
G01 X33.7169 Y7.7251 F150.00
G01 X33.6776 Y7.7309 F150.00
G01 X33.6391 Y7.7405 F150.00
G01 X33.6017 Y7.7539 F150.00
G01 X33.5657 Y7.7709 F150.00
G01 X33.5317 Y7.7913 F150.00
G01 X33.4997 Y7.8150 F150.00
G01 X33.4703 Y7.8417 F150.00
G01 X33.4433 Y7.8715 F150.00
G01 X33.4255 Y7.8938 F150.00
G01 X33.4055 Y7.9165 F150.00
G01 X33.3950 Y7.9275 F150.00
G01 X33.3796 Y7.9426 F150.00
G01 X33.3571 Y7.9629 F150.00
G01 X33.3386 Y7.9780 F150.00
G01 X33.3266 Y7.9872 F150.00
G01 X33.3018 Y8.0047 F150.00
G01 X33.2836 Y8.0164 F150.00
G01 X33.2669 Y8.0263 F150.00
G01 X33.2363 Y8.0426 F150.00
G01 X33.2087 Y8.0553 F150.00
G01 X33.1947 Y8.0611 F150.00
G01 X33.1745 Y8.0688 F150.00
G01 X33.1457 Y8.0783 F150.00
G01 X33.1228 Y8.0847 F150.00
G01 X33.1081 Y8.0882 F150.00
G01 X33.0784 Y8.0943 F150.00
G01 X33.0570 Y8.0976 F150.00
G01 X33.0419 Y8.0995 F150.00
G01 X33.0117 Y8.1021 F150.00
G01 X32.9923 Y8.1029 F150.00
G01 X32.9771 Y8.1031 F150.00
G01 X26.9161 Y8.1031 F150.00
G01 X26.8815 Y8.1021 F150.00
G01 X26.8513 Y8.0995 F150.00
G01 X26.8212 Y8.0953 F150.00
G01 X26.7915 Y8.0897 F150.00
G01 X26.7620 Y8.0824 F150.00
G01 X26.7330 Y8.0737 F150.00
G01 X26.7045 Y8.0635 F150.00
G01 X26.6765 Y8.0518 F150.00
G01 X26.6492 Y8.0387 F150.00
G01 X26.6226 Y8.0241 F150.00
G01 X26.6096 Y8.0164 F150.00
G01 X26.5914 Y8.0047 F150.00
G01 X26.5666 Y7.9872 F150.00
G01 X26.5478 Y7.9726 F150.00
G01 X26.5361 Y7.9629 F150.00
G01 X26.5136 Y7.9426 F150.00
G01 X26.4982 Y7.9275 F150.00
G01 X26.4877 Y7.9165 F150.00
G01 X26.4677 Y7.8938 F150.00
G01 X26.4499 Y7.8715 F150.00
G01 X26.4229 Y7.8417 F150.00
G01 X26.3935 Y7.8150 F150.00
G01 X26.3615 Y7.7913 F150.00
G01 X26.3275 Y7.7709 F150.00
G01 X26.2915 Y7.7539 F150.00
G01 X26.2541 Y7.7405 F150.00
G01 X26.2156 Y7.7309 F150.00
G01 X26.1763 Y7.7251 F150.00
G01 X26.1366 Y7.7231 F150.00
G01 X26.0969 Y7.7251 F150.00
G01 X26.0576 Y7.7309 F150.00
G01 X26.0191 Y7.7405 F150.00
G01 X25.9817 Y7.7539 F150.00
G01 X25.9457 Y7.7709 F150.00
G01 X25.9117 Y7.7913 F150.00
G01 X25.8797 Y7.8150 F150.00
G01 X25.8503 Y7.8417 F150.00
G01 X25.8233 Y7.8715 F150.00
G01 X25.8055 Y7.8938 F150.00
G01 X25.7855 Y7.9165 F150.00
G01 X25.7705 Y7.9321 F150.00
G01 X25.7596 Y7.9426 F150.00
G01 X25.7371 Y7.9629 F150.00
G01 X25.7254 Y7.9726 F150.00
G01 X25.7066 Y7.9872 F150.00
G01 X25.6818 Y8.0047 F150.00
G01 X25.6636 Y8.0164 F150.00
G01 X25.6469 Y8.0263 F150.00
G01 X25.6163 Y8.0426 F150.00
G01 X25.5887 Y8.0553 F150.00
G01 X25.5687 Y8.0635 F150.00
G01 X25.5545 Y8.0688 F150.00
G01 X25.5257 Y8.0783 F150.00
G01 X25.5028 Y8.0847 F150.00
G01 X25.4881 Y8.0882 F150.00
G01 X25.4584 Y8.0943 F150.00
G01 X25.4370 Y8.0976 F150.00
G01 X25.4219 Y8.0995 F150.00
G01 X25.3917 Y8.1021 F150.00
G01 X25.3571 Y8.1031 F150.00
G01 X19.2961 Y8.1031 F150.00
G01 X19.2615 Y8.1021 F150.00
G01 X19.2313 Y8.0995 F150.00
G01 X19.2012 Y8.0953 F150.00
G01 X19.1715 Y8.0897 F150.00
G01 X19.1420 Y8.0824 F150.00
G01 X19.1130 Y8.0737 F150.00
G01 X19.0845 Y8.0635 F150.00
G01 X19.0565 Y8.0518 F150.00
G01 X19.0292 Y8.0387 F150.00
G01 X19.0026 Y8.0241 F150.00
G01 X18.9896 Y8.0164 F150.00
G01 X18.9714 Y8.0047 F150.00
G01 X18.9466 Y7.9872 F150.00
G01 X18.9278 Y7.9726 F150.00
G01 X18.9161 Y7.9629 F150.00
G01 X18.8936 Y7.9426 F150.00
G01 X18.8782 Y7.9275 F150.00
G01 X18.8677 Y7.9165 F150.00
G01 X18.8477 Y7.8938 F150.00
G01 X18.8299 Y7.8715 F150.00
G01 X18.8029 Y7.8417 F150.00
G01 X18.7735 Y7.8150 F150.00
G01 X18.7415 Y7.7913 F150.00
G01 X18.7075 Y7.7709 F150.00
G01 X18.6715 Y7.7539 F150.00
G01 X18.6341 Y7.7405 F150.00
G01 X18.5956 Y7.7309 F150.00
G01 X18.5563 Y7.7251 F150.00
G01 X18.5166 Y7.7231 F150.00
G01 X18.4769 Y7.7251 F150.00
G01 X18.4376 Y7.7309 F150.00
G01 X18.3991 Y7.7405 F150.00
G01 X18.3617 Y7.7539 F150.00
G01 X18.3257 Y7.7709 F150.00
G01 X18.2917 Y7.7913 F150.00
G01 X18.2597 Y7.8150 F150.00
G01 X18.2303 Y7.8417 F150.00
G01 X18.2033 Y7.8715 F150.00
G01 X18.1855 Y7.8938 F150.00
G01 X18.1655 Y7.9165 F150.00
G01 X18.1505 Y7.9321 F150.00
G01 X18.1396 Y7.9426 F150.00
G01 X18.1171 Y7.9629 F150.00
G01 X18.0986 Y7.9780 F150.00
G01 X18.0866 Y7.9872 F150.00
G01 X18.0743 Y7.9961 F150.00
G01 X18.0564 Y8.0083 F150.00
G01 X18.0269 Y8.0263 F150.00
G01 X17.9963 Y8.0426 F150.00
G01 X17.9687 Y8.0553 F150.00
G01 X17.9487 Y8.0635 F150.00
G01 X17.9345 Y8.0688 F150.00
G01 X17.9057 Y8.0783 F150.00
G01 X17.8765 Y8.0862 F150.00
G01 X17.8469 Y8.0927 F150.00
G01 X17.8234 Y8.0967 F150.00
G01 X17.8084 Y8.0987 F150.00
G01 X17.7782 Y8.1016 F150.00
G01 X17.7566 Y8.1028 F150.00
G01 X17.7415 Y8.1031 F150.00
G01 X11.6761 Y8.1031 F150.00
G01 X11.6415 Y8.1021 F150.00
G01 X11.6113 Y8.0995 F150.00
G01 X11.5812 Y8.0953 F150.00
G01 X11.5515 Y8.0897 F150.00
G01 X11.5220 Y8.0824 F150.00
G01 X11.4930 Y8.0737 F150.00
G01 X11.4645 Y8.0635 F150.00
G01 X11.4365 Y8.0518 F150.00
G01 X11.4092 Y8.0387 F150.00
G01 X11.3826 Y8.0241 F150.00
G01 X11.3696 Y8.0164 F150.00
G01 X11.3514 Y8.0047 F150.00
G01 X11.3266 Y7.9872 F150.00
G01 X11.3078 Y7.9726 F150.00
G01 X11.2961 Y7.9629 F150.00
G01 X11.2736 Y7.9426 F150.00
G01 X11.2582 Y7.9275 F150.00
G01 X11.2477 Y7.9165 F150.00
G01 X11.2277 Y7.8938 F150.00
G01 X11.2099 Y7.8715 F150.00
G01 X11.1829 Y7.8417 F150.00
G01 X11.1535 Y7.8150 F150.00
G01 X11.1215 Y7.7913 F150.00
G01 X11.0875 Y7.7709 F150.00
G01 X11.0515 Y7.7539 F150.00
G01 X11.0141 Y7.7405 F150.00
G01 X10.9756 Y7.7309 F150.00
G01 X10.9363 Y7.7251 F150.00
G01 X10.8966 Y7.7231 F150.00
G01 X10.8569 Y7.7251 F150.00
G01 X10.8176 Y7.7309 F150.00
G01 X10.7791 Y7.7405 F150.00
G01 X10.7417 Y7.7539 F150.00
G01 X10.7057 Y7.7709 F150.00
G01 X10.6717 Y7.7913 F150.00
G01 X10.6397 Y7.8150 F150.00
G01 X10.6103 Y7.8417 F150.00
G01 X10.5833 Y7.8715 F150.00
G01 X10.5655 Y7.8938 F150.00
G01 X10.5455 Y7.9165 F150.00
G01 X10.5350 Y7.9275 F150.00
G01 X10.5196 Y7.9426 F150.00
G01 X10.4971 Y7.9629 F150.00
G01 X10.4786 Y7.9780 F150.00
G01 X10.4666 Y7.9872 F150.00
G01 X10.4418 Y8.0047 F150.00
G01 X10.4236 Y8.0164 F150.00
G01 X10.4069 Y8.0263 F150.00
G01 X10.3763 Y8.0426 F150.00
G01 X10.3487 Y8.0553 F150.00
G01 X10.3206 Y8.0666 F150.00
G01 X10.2919 Y8.0764 F150.00
G01 X10.2774 Y8.0807 F150.00
G01 X10.2565 Y8.0862 F150.00
G01 X10.2269 Y8.0927 F150.00
G01 X10.1970 Y8.0976 F150.00
G01 X10.1669 Y8.1010 F150.00
G01 X10.1517 Y8.1021 F150.00
G01 X10.1279 Y8.1030 F150.00
G01 X4.0561 Y8.1031 F150.00
G01 X4.0366 Y8.1028 F150.00
G01 X4.0063 Y8.1010 F150.00
G01 X3.9913 Y8.0995 F150.00
G01 X3.9698 Y8.0967 F150.00
G01 X3.9357 Y8.0906 F150.00
G01 X3.9020 Y8.0824 F150.00
G01 X3.8730 Y8.0737 F150.00
G01 X3.8587 Y8.0688 F150.00
G01 X3.8385 Y8.0611 F150.00
G01 X3.8106 Y8.0491 F150.00
G01 X3.7969 Y8.0426 F150.00
G01 X3.7758 Y8.0316 F150.00
G01 X3.7496 Y8.0164 F150.00
G01 X3.7314 Y8.0047 F150.00
G01 X3.7189 Y7.9961 F150.00
G01 X3.6946 Y7.9780 F150.00
G01 X3.6680 Y7.9558 F150.00
G01 X3.6489 Y7.9381 F150.00
G01 X3.6248 Y7.9133 F150.00
G01 X3.6077 Y7.8938 F150.00
G01 X3.5899 Y7.8715 F150.00
G01 X3.5629 Y7.8417 F150.00
G01 X3.5335 Y7.8150 F150.00
G01 X3.5015 Y7.7913 F150.00
G01 X3.4675 Y7.7709 F150.00
G01 X3.4315 Y7.7539 F150.00
G01 X3.3941 Y7.7405 F150.00
G01 X3.3556 Y7.7309 F150.00
G01 X3.3163 Y7.7251 F150.00
G01 X3.2766 Y7.7231 F150.00
G01 X3.2369 Y7.7251 F150.00
G01 X3.1976 Y7.7309 F150.00
G01 X3.1591 Y7.7405 F150.00
G01 X3.1217 Y7.7539 F150.00
G01 X3.0857 Y7.7709 F150.00
G01 X3.0517 Y7.7913 F150.00
G01 X3.0197 Y7.8150 F150.00
G01 X2.9903 Y7.8417 F150.00
G01 X2.9636 Y7.8711 F150.00
G01 X2.9399 Y7.9031 F150.00
G01 X2.9195 Y7.9371 F150.00
G01 X2.9025 Y7.9731 F150.00
G01 X2.8891 Y8.0105 F150.00
G01 X2.8795 Y8.0490 F150.00
G01 X2.8737 Y8.0883 F150.00
G01 X2.8717 Y8.1280 F150.00
G01 X2.8737 Y8.1677 F150.00
G01 X2.8795 Y8.2070 F150.00
G01 X2.8891 Y8.2455 F150.00
G01 X2.9025 Y8.2829 F150.00
G01 X2.9195 Y8.3189 F150.00
G01 X2.9399 Y8.3529 F150.00
G01 X2.9636 Y8.3849 F150.00
G01 X2.9903 Y8.4143 F150.00
G01 X3.0197 Y8.4410 F150.00
G01 X3.0517 Y8.4647 F150.00
G01 X3.0857 Y8.4851 F150.00
G01 X3.1217 Y8.5021 F150.00
G01 X3.1591 Y8.5155 F150.00
G01 X3.1976 Y8.5251 F150.00
G01 X3.2369 Y8.5309 F150.00
G01 X3.2766 Y8.5329 F150.00
G01 X3.3163 Y8.5309 F150.00
G01 X3.3556 Y8.5251 F150.00
G01 X3.3941 Y8.5155 F150.00
G01 X3.4315 Y8.5021 F150.00
G01 X3.4675 Y8.4851 F150.00
G01 X3.5015 Y8.4647 F150.00
G01 X3.5335 Y8.4410 F150.00
G01 X3.5629 Y8.4143 F150.00
G01 X3.5899 Y8.3845 F150.00
G00 Z2.0000
G00 X3.3330 Y10.7091
G01 F50.00
G01 Z0.0000
G01 F150.00
G01 X3.3493 Y10.6890 F150.00
G01 X3.3673 Y10.6680 F150.00
G01 X3.3493 Y10.6470 F150.00
G01 X3.3330 Y10.6269 F150.00
G01 X3.3257 Y10.6189 F150.00
G01 X3.3207 Y10.6143 F150.00
G01 X3.3152 Y10.6102 F150.00
G01 X3.3094 Y10.6067 F150.00
G01 X3.3032 Y10.6038 F150.00
G01 X3.2968 Y10.6015 F150.00
G01 X3.2902 Y10.5998 F150.00
G01 X3.2834 Y10.5988 F150.00
G01 X3.2766 Y10.5985 F150.00
G01 X3.2698 Y10.5988 F150.00
G01 X3.2630 Y10.5998 F150.00
G01 X3.2564 Y10.6015 F150.00
G01 X3.2500 Y10.6038 F150.00
G01 X3.2438 Y10.6067 F150.00
G01 X3.2380 Y10.6102 F150.00
G01 X3.2325 Y10.6143 F150.00
G01 X3.2275 Y10.6189 F150.00
G01 X3.2229 Y10.6239 F150.00
G01 X3.2188 Y10.6294 F150.00
G01 X3.2153 Y10.6352 F150.00
G01 X3.2124 Y10.6414 F150.00
G01 X3.2101 Y10.6478 F150.00
G01 X3.2084 Y10.6544 F150.00
G01 X3.2074 Y10.6612 F150.00
G01 X3.2071 Y10.6680 F150.00
G01 X3.2074 Y10.6748 F150.00
G01 X3.2084 Y10.6816 F150.00
G01 X3.2101 Y10.6882 F150.00
G01 X3.2124 Y10.6946 F150.00
G01 X3.2153 Y10.7008 F150.00
G01 X3.2188 Y10.7066 F150.00
G01 X3.2229 Y10.7121 F150.00
G01 X3.2275 Y10.7171 F150.00
G01 X3.2325 Y10.7217 F150.00
G01 X3.2380 Y10.7258 F150.00
G01 X3.2438 Y10.7293 F150.00
G01 X3.2500 Y10.7322 F150.00
G01 X3.2564 Y10.7345 F150.00
G01 X3.2630 Y10.7362 F150.00
G01 X3.2698 Y10.7372 F150.00
G01 X3.2766 Y10.7375 F150.00
G01 X3.2834 Y10.7372 F150.00
G01 X3.2902 Y10.7362 F150.00
G01 X3.2968 Y10.7345 F150.00
G01 X3.3032 Y10.7322 F150.00
G01 X3.3094 Y10.7293 F150.00
G01 X3.3152 Y10.7258 F150.00
G01 X3.3207 Y10.7217 F150.00
G01 X3.3257 Y10.7171 F150.00
G01 X3.3330 Y10.7091 F150.00
G01 X3.5899 Y10.9245 F150.00
G01 X3.6021 Y10.9089 F150.00
G01 X3.6119 Y10.8973 F150.00
G01 X3.6322 Y10.8748 F150.00
G01 X3.6489 Y10.8579 F150.00
G01 X3.6600 Y10.8474 F150.00
G01 X3.6828 Y10.8275 F150.00
G01 X3.7066 Y10.8088 F150.00
G01 X3.7314 Y10.7913 F150.00
G01 X3.7496 Y10.7796 F150.00
G01 X3.7626 Y10.7719 F150.00
G01 X3.7892 Y10.7573 F150.00
G01 X3.8165 Y10.7442 F150.00
G01 X3.8445 Y10.7325 F150.00
G01 X3.8771 Y10.7209 F150.00
G01 X3.9104 Y10.7113 F150.00
G01 X3.9400 Y10.7046 F150.00
G01 X3.9698 Y10.6993 F150.00
G01 X3.9999 Y10.6956 F150.00
G01 X4.0150 Y10.6944 F150.00
G01 X4.0366 Y10.6932 F150.00
G01 X4.0561 Y10.6929 F150.00
G01 X10.1171 Y10.6929 F150.00
G01 X10.1431 Y10.6935 F150.00
G01 X10.1733 Y10.6956 F150.00
G01 X10.2034 Y10.6993 F150.00
G01 X10.2332 Y10.7046 F150.00
G01 X10.2628 Y10.7113 F150.00
G01 X10.2919 Y10.7196 F150.00
G01 X10.3206 Y10.7294 F150.00
G01 X10.3527 Y10.7424 F150.00
G01 X10.3840 Y10.7573 F150.00
G01 X10.4106 Y10.7719 F150.00
G01 X10.4291 Y10.7831 F150.00
G01 X10.4418 Y10.7913 F150.00
G01 X10.4666 Y10.8088 F150.00
G01 X10.4854 Y10.8234 F150.00
G01 X10.4971 Y10.8331 F150.00
G01 X10.5196 Y10.8534 F150.00
G01 X10.5350 Y10.8685 F150.00
G01 X10.5455 Y10.8795 F150.00
G01 X10.5655 Y10.9022 F150.00
G01 X10.5833 Y10.9245 F150.00
G01 X10.6103 Y10.9543 F150.00
G01 X10.6397 Y10.9810 F150.00
G01 X10.6717 Y11.0047 F150.00
G01 X10.7057 Y11.0251 F150.00
G01 X10.7417 Y11.0421 F150.00
G01 X10.7791 Y11.0555 F150.00
G01 X10.8176 Y11.0651 F150.00
G01 X10.8569 Y11.0709 F150.00
G01 X10.8966 Y11.0729 F150.00
G01 X10.9363 Y11.0709 F150.00
G01 X10.9756 Y11.0651 F150.00
G01 X11.0141 Y11.0555 F150.00
G01 X11.0515 Y11.0421 F150.00
G01 X11.0875 Y11.0251 F150.00
G01 X11.1215 Y11.0047 F150.00
G01 X11.1535 Y10.9810 F150.00
G01 X11.1829 Y10.9543 F150.00
G01 X11.2099 Y10.9245 F150.00
G01 X11.2277 Y10.9022 F150.00
G01 X11.2477 Y10.8795 F150.00
G01 X11.2582 Y10.8685 F150.00
G01 X11.2736 Y10.8534 F150.00
G01 X11.2961 Y10.8331 F150.00
G01 X11.3146 Y10.8180 F150.00
G01 X11.3266 Y10.8088 F150.00
G01 X11.3514 Y10.7913 F150.00
G01 X11.3696 Y10.7796 F150.00
G01 X11.3826 Y10.7719 F150.00
G01 X11.4092 Y10.7573 F150.00
G01 X11.4365 Y10.7442 F150.00
G01 X11.4645 Y10.7325 F150.00
G01 X11.4930 Y10.7223 F150.00
G01 X11.5220 Y10.7136 F150.00
G01 X11.5515 Y10.7063 F150.00
G01 X11.5812 Y10.7007 F150.00
G01 X11.6113 Y10.6965 F150.00
G01 X11.6415 Y10.6939 F150.00
G01 X11.6761 Y10.6929 F150.00
G01 X17.7479 Y10.6930 F150.00
G01 X17.7782 Y10.6944 F150.00
G01 X17.8084 Y10.6973 F150.00
G01 X17.8320 Y10.7007 F150.00
G01 X17.8469 Y10.7033 F150.00
G01 X17.8765 Y10.7098 F150.00
G01 X17.8974 Y10.7153 F150.00
G01 X17.9119 Y10.7196 F150.00
G01 X17.9406 Y10.7294 F150.00
G01 X17.9687 Y10.7407 F150.00
G01 X17.9963 Y10.7534 F150.00
G01 X18.0269 Y10.7697 F150.00
G01 X18.0436 Y10.7796 F150.00
G01 X18.0618 Y10.7913 F150.00
G01 X18.0866 Y10.8088 F150.00
G01 X18.1054 Y10.8234 F150.00
G01 X18.1171 Y10.8331 F150.00
G01 X18.1396 Y10.8534 F150.00
G01 X18.1550 Y10.8685 F150.00
G01 X18.1655 Y10.8795 F150.00
G01 X18.1855 Y10.9022 F150.00
G01 X18.2033 Y10.9245 F150.00
G01 X18.2303 Y10.9543 F150.00
G01 X18.2597 Y10.9810 F150.00
G01 X18.2917 Y11.0047 F150.00
G01 X18.3257 Y11.0251 F150.00
G01 X18.3617 Y11.0421 F150.00
G01 X18.3991 Y11.0555 F150.00
G01 X18.4376 Y11.0651 F150.00
G01 X18.4769 Y11.0709 F150.00
G01 X18.5166 Y11.0729 F150.00
G01 X18.5563 Y11.0709 F150.00
G01 X18.5956 Y11.0651 F150.00
G01 X18.6341 Y11.0555 F150.00
G01 X18.6715 Y11.0421 F150.00
G01 X18.7075 Y11.0251 F150.00
G01 X18.7415 Y11.0047 F150.00
G01 X18.7735 Y10.9810 F150.00
G01 X18.8029 Y10.9543 F150.00
G01 X18.8299 Y10.9245 F150.00
G01 X18.8477 Y10.9022 F150.00
G01 X18.8677 Y10.8795 F150.00
G01 X18.8782 Y10.8685 F150.00
G01 X18.8936 Y10.8534 F150.00
G01 X18.9161 Y10.8331 F150.00
G01 X18.9346 Y10.8180 F150.00
G01 X18.9466 Y10.8088 F150.00
G01 X18.9714 Y10.7913 F150.00
G01 X18.9896 Y10.7796 F150.00
G01 X19.0026 Y10.7719 F150.00
G01 X19.0292 Y10.7573 F150.00
G01 X19.0565 Y10.7442 F150.00
G01 X19.0845 Y10.7325 F150.00
G01 X19.1130 Y10.7223 F150.00
G01 X19.1420 Y10.7136 F150.00
G01 X19.1715 Y10.7063 F150.00
G01 X19.2012 Y10.7007 F150.00
G01 X19.2313 Y10.6965 F150.00
G01 X19.2615 Y10.6939 F150.00
G01 X19.2961 Y10.6929 F150.00
G01 X25.3679 Y10.6930 F150.00
G01 X25.3982 Y10.6944 F150.00
G01 X25.4284 Y10.6973 F150.00
G01 X25.4520 Y10.7007 F150.00
G01 X25.4669 Y10.7033 F150.00
G01 X25.4965 Y10.7098 F150.00
G01 X25.5174 Y10.7153 F150.00
G01 X25.5319 Y10.7196 F150.00
G01 X25.5606 Y10.7294 F150.00
G01 X25.5887 Y10.7407 F150.00
G01 X25.6163 Y10.7534 F150.00
G01 X25.6469 Y10.7697 F150.00
G01 X25.6636 Y10.7796 F150.00
G01 X25.6818 Y10.7913 F150.00
G01 X25.7066 Y10.8088 F150.00
G01 X25.7254 Y10.8234 F150.00
G01 X25.7371 Y10.8331 F150.00
G01 X25.7596 Y10.8534 F150.00
G01 X25.7750 Y10.8685 F150.00
G01 X25.7855 Y10.8795 F150.00
G01 X25.8055 Y10.9022 F150.00
G01 X25.8233 Y10.9245 F150.00
G01 X25.8503 Y10.9543 F150.00
G01 X25.8797 Y10.9810 F150.00
G01 X25.9117 Y11.0047 F150.00
G01 X25.9457 Y11.0251 F150.00
G01 X25.9817 Y11.0421 F150.00
G01 X26.0191 Y11.0555 F150.00
G01 X26.0576 Y11.0651 F150.00
G01 X26.0969 Y11.0709 F150.00
G01 X26.1366 Y11.0729 F150.00
G01 X26.1763 Y11.0709 F150.00
G01 X26.2156 Y11.0651 F150.00
G01 X26.2541 Y11.0555 F150.00
G01 X26.2915 Y11.0421 F150.00
G01 X26.3275 Y11.0251 F150.00
G01 X26.3615 Y11.0047 F150.00
G01 X26.3935 Y10.9810 F150.00
G01 X26.4229 Y10.9543 F150.00
G01 X26.4499 Y10.9245 F150.00
G01 X26.4677 Y10.9022 F150.00
G01 X26.4877 Y10.8795 F150.00
G01 X26.4982 Y10.8685 F150.00
G01 X26.5136 Y10.8534 F150.00
G01 X26.5361 Y10.8331 F150.00
G01 X26.5546 Y10.8180 F150.00
G01 X26.5666 Y10.8088 F150.00
G01 X26.5914 Y10.7913 F150.00
G01 X26.6096 Y10.7796 F150.00
G01 X26.6226 Y10.7719 F150.00
G01 X26.6492 Y10.7573 F150.00
G01 X26.6765 Y10.7442 F150.00
G01 X26.7045 Y10.7325 F150.00
G01 X26.7330 Y10.7223 F150.00
G01 X26.7620 Y10.7136 F150.00
G01 X26.7915 Y10.7063 F150.00
G01 X26.8212 Y10.7007 F150.00
G01 X26.8513 Y10.6965 F150.00
G01 X26.8815 Y10.6939 F150.00
G01 X26.9161 Y10.6929 F150.00
G01 X32.9815 Y10.6929 F150.00
G01 X33.0031 Y10.6935 F150.00
G01 X33.0182 Y10.6944 F150.00
G01 X33.0484 Y10.6973 F150.00
G01 X33.0720 Y10.7007 F150.00
G01 X33.0869 Y10.7033 F150.00
G01 X33.1165 Y10.7098 F150.00
G01 X33.1374 Y10.7153 F150.00
G01 X33.1519 Y10.7196 F150.00
G01 X33.1806 Y10.7294 F150.00
G01 X33.2087 Y10.7407 F150.00
G01 X33.2363 Y10.7534 F150.00
G01 X33.2669 Y10.7697 F150.00
G01 X33.2836 Y10.7796 F150.00
G01 X33.3018 Y10.7913 F150.00
G01 X33.3266 Y10.8088 F150.00
G01 X33.3454 Y10.8234 F150.00
G01 X33.3571 Y10.8331 F150.00
G01 X33.3796 Y10.8534 F150.00
G01 X33.3950 Y10.8685 F150.00
G01 X33.4055 Y10.8795 F150.00
G01 X33.4255 Y10.9022 F150.00
G01 X33.4433 Y10.9245 F150.00
G01 X33.4703 Y10.9543 F150.00
G01 X33.4997 Y10.9810 F150.00
G01 X33.5317 Y11.0047 F150.00
G01 X33.5657 Y11.0251 F150.00
G01 X33.6017 Y11.0421 F150.00
G01 X33.6391 Y11.0555 F150.00
G01 X33.6776 Y11.0651 F150.00
G01 X33.7169 Y11.0709 F150.00
G01 X33.7566 Y11.0729 F150.00
G01 X33.7963 Y11.0709 F150.00
G01 X33.8356 Y11.0651 F150.00
G01 X33.8741 Y11.0555 F150.00
G01 X33.9115 Y11.0421 F150.00
G01 X33.9475 Y11.0251 F150.00
G01 X33.9815 Y11.0047 F150.00
G01 X34.0135 Y10.9810 F150.00
G01 X34.0429 Y10.9543 F150.00
G01 X34.0696 Y10.9249 F150.00
G01 X34.0933 Y10.8929 F150.00
G01 X34.1137 Y10.8589 F150.00
G01 X34.1307 Y10.8229 F150.00
G01 X34.1441 Y10.7855 F150.00
G01 X34.1537 Y10.7470 F150.00
G01 X34.1595 Y10.7077 F150.00
G01 X34.1615 Y10.6680 F150.00
G01 X34.1595 Y10.6283 F150.00
G01 X34.1537 Y10.5890 F150.00
G01 X34.1441 Y10.5505 F150.00
G01 X34.1307 Y10.5131 F150.00
G01 X34.1137 Y10.4771 F150.00
G01 X34.0933 Y10.4431 F150.00
G01 X34.0696 Y10.4111 F150.00
G01 X34.0429 Y10.3817 F150.00
G01 X34.0135 Y10.3550 F150.00
G01 X33.9815 Y10.3313 F150.00
G01 X33.9475 Y10.3109 F150.00
G01 X33.9115 Y10.2939 F150.00
G01 X33.8741 Y10.2805 F150.00
G01 X33.8356 Y10.2709 F150.00
G01 X33.7963 Y10.2651 F150.00
G01 X33.7566 Y10.2631 F150.00
G01 X33.7169 Y10.2651 F150.00
G01 X33.6776 Y10.2709 F150.00
G01 X33.6391 Y10.2805 F150.00
G01 X33.6017 Y10.2939 F150.00
G01 X33.5657 Y10.3109 F150.00
G01 X33.5317 Y10.3313 F150.00
G01 X33.4997 Y10.3550 F150.00
G01 X33.4703 Y10.3817 F150.00
G01 X33.4433 Y10.4115 F150.00
G01 X33.4255 Y10.4338 F150.00
G01 X33.4055 Y10.4565 F150.00
G01 X33.3950 Y10.4675 F150.00
G01 X33.3796 Y10.4826 F150.00
G01 X33.3571 Y10.5029 F150.00
G01 X33.3386 Y10.5180 F150.00
G01 X33.3266 Y10.5272 F150.00
G01 X33.3018 Y10.5447 F150.00
G01 X33.2836 Y10.5564 F150.00
G01 X33.2669 Y10.5663 F150.00
G01 X33.2363 Y10.5826 F150.00
G01 X33.2087 Y10.5953 F150.00
G01 X33.1947 Y10.6011 F150.00
G01 X33.1745 Y10.6088 F150.00
G01 X33.1457 Y10.6183 F150.00
G01 X33.1228 Y10.6247 F150.00
G01 X33.1081 Y10.6282 F150.00
G01 X33.0784 Y10.6343 F150.00
G01 X33.0570 Y10.6376 F150.00
G01 X33.0419 Y10.6395 F150.00
G01 X33.0117 Y10.6421 F150.00
G01 X32.9923 Y10.6429 F150.00
G01 X32.9771 Y10.6431 F150.00
G01 X26.9161 Y10.6431 F150.00
G01 X26.8815 Y10.6421 F150.00
G01 X26.8513 Y10.6395 F150.00
G01 X26.8212 Y10.6353 F150.00
G01 X26.7915 Y10.6297 F150.00
G01 X26.7620 Y10.6224 F150.00
G01 X26.7330 Y10.6137 F150.00
G01 X26.7045 Y10.6035 F150.00
G01 X26.6765 Y10.5918 F150.00
G01 X26.6492 Y10.5787 F150.00
G01 X26.6226 Y10.5641 F150.00
G01 X26.6096 Y10.5564 F150.00
G01 X26.5914 Y10.5447 F150.00
G01 X26.5666 Y10.5272 F150.00
G01 X26.5478 Y10.5126 F150.00
G01 X26.5361 Y10.5029 F150.00
G01 X26.5136 Y10.4826 F150.00
G01 X26.4982 Y10.4675 F150.00
G01 X26.4877 Y10.4565 F150.00
G01 X26.4677 Y10.4338 F150.00
G01 X26.4499 Y10.4115 F150.00
G01 X26.4229 Y10.3817 F150.00
G01 X26.3935 Y10.3550 F150.00
G01 X26.3615 Y10.3313 F150.00
G01 X26.3275 Y10.3109 F150.00
G01 X26.2915 Y10.2939 F150.00
G01 X26.2541 Y10.2805 F150.00
G01 X26.2156 Y10.2709 F150.00
G01 X26.1763 Y10.2651 F150.00
G01 X26.1366 Y10.2631 F150.00
G01 X26.0969 Y10.2651 F150.00
G01 X26.0576 Y10.2709 F150.00
G01 X26.0191 Y10.2805 F150.00
G01 X25.9817 Y10.2939 F150.00
G01 X25.9457 Y10.3109 F150.00
G01 X25.9117 Y10.3313 F150.00
G01 X25.8797 Y10.3550 F150.00
G01 X25.8503 Y10.3817 F150.00
G01 X25.8233 Y10.4115 F150.00
G01 X25.8055 Y10.4338 F150.00
G01 X25.7855 Y10.4565 F150.00
G01 X25.7705 Y10.4721 F150.00
G01 X25.7596 Y10.4826 F150.00
G01 X25.7371 Y10.5029 F150.00
G01 X25.7254 Y10.5126 F150.00
G01 X25.7066 Y10.5272 F150.00
G01 X25.6818 Y10.5447 F150.00
G01 X25.6636 Y10.5564 F150.00
G01 X25.6469 Y10.5663 F150.00
G01 X25.6163 Y10.5826 F150.00
G01 X25.5887 Y10.5953 F150.00
G01 X25.5687 Y10.6035 F150.00
G01 X25.5545 Y10.6088 F150.00
G01 X25.5257 Y10.6183 F150.00
G01 X25.5028 Y10.6247 F150.00
G01 X25.4881 Y10.6282 F150.00
G01 X25.4584 Y10.6343 F150.00
G01 X25.4370 Y10.6376 F150.00
G01 X25.4219 Y10.6395 F150.00
G01 X25.3917 Y10.6421 F150.00
G01 X25.3571 Y10.6431 F150.00
G01 X19.2961 Y10.6431 F150.00
G01 X19.2615 Y10.6421 F150.00
G01 X19.2313 Y10.6395 F150.00
G01 X19.2012 Y10.6353 F150.00
G01 X19.1715 Y10.6297 F150.00
G01 X19.1420 Y10.6224 F150.00
G01 X19.1130 Y10.6137 F150.00
G01 X19.0845 Y10.6035 F150.00
G01 X19.0565 Y10.5918 F150.00
G01 X19.0292 Y10.5787 F150.00
G01 X19.0026 Y10.5641 F150.00
G01 X18.9896 Y10.5564 F150.00
G01 X18.9714 Y10.5447 F150.00
G01 X18.9466 Y10.5272 F150.00
G01 X18.9346 Y10.5180 F150.00
G01 X18.9161 Y10.5029 F150.00
G01 X18.8936 Y10.4826 F150.00
G01 X18.8782 Y10.4675 F150.00
G01 X18.8677 Y10.4565 F150.00
G01 X18.8477 Y10.4338 F150.00
G01 X18.8299 Y10.4115 F150.00
G01 X18.8029 Y10.3817 F150.00
G01 X18.7735 Y10.3550 F150.00
G01 X18.7415 Y10.3313 F150.00
G01 X18.7075 Y10.3109 F150.00
G01 X18.6715 Y10.2939 F150.00
G01 X18.6341 Y10.2805 F150.00
G01 X18.5956 Y10.2709 F150.00
G01 X18.5563 Y10.2651 F150.00
G01 X18.5166 Y10.2631 F150.00
G01 X18.4769 Y10.2651 F150.00
G01 X18.4376 Y10.2709 F150.00
G01 X18.3991 Y10.2805 F150.00
G01 X18.3617 Y10.2939 F150.00
G01 X18.3257 Y10.3109 F150.00
G01 X18.2917 Y10.3313 F150.00
G01 X18.2597 Y10.3550 F150.00
G01 X18.2303 Y10.3817 F150.00
G01 X18.2033 Y10.4115 F150.00
G01 X18.1855 Y10.4338 F150.00
G01 X18.1655 Y10.4565 F150.00
G01 X18.1505 Y10.4721 F150.00
G01 X18.1396 Y10.4826 F150.00
G01 X18.1171 Y10.5029 F150.00
G01 X18.0986 Y10.5180 F150.00
G01 X18.0866 Y10.5272 F150.00
G01 X18.0743 Y10.5361 F150.00
G01 X18.0564 Y10.5483 F150.00
G01 X18.0269 Y10.5663 F150.00
G01 X17.9963 Y10.5826 F150.00
G01 X17.9687 Y10.5953 F150.00
G01 X17.9487 Y10.6035 F150.00
G01 X17.9345 Y10.6088 F150.00
G01 X17.9057 Y10.6183 F150.00
G01 X17.8765 Y10.6262 F150.00
G01 X17.8469 Y10.6327 F150.00
G01 X17.8234 Y10.6367 F150.00
G01 X17.8084 Y10.6387 F150.00
G01 X17.7782 Y10.6416 F150.00
G01 X17.7566 Y10.6428 F150.00
G01 X17.7415 Y10.6431 F150.00
G01 X11.6761 Y10.6431 F150.00
G01 X11.6415 Y10.6421 F150.00
G01 X11.6113 Y10.6395 F150.00
G01 X11.5812 Y10.6353 F150.00
G01 X11.5515 Y10.6297 F150.00
G01 X11.5220 Y10.6224 F150.00
G01 X11.4930 Y10.6137 F150.00
G01 X11.4645 Y10.6035 F150.00
G01 X11.4365 Y10.5918 F150.00
G01 X11.4092 Y10.5787 F150.00
G01 X11.3826 Y10.5641 F150.00
G01 X11.3696 Y10.5564 F150.00
G01 X11.3514 Y10.5447 F150.00
G01 X11.3266 Y10.5272 F150.00
G01 X11.3078 Y10.5126 F150.00
G01 X11.2961 Y10.5029 F150.00
G01 X11.2736 Y10.4826 F150.00
G01 X11.2582 Y10.4675 F150.00
G01 X11.2477 Y10.4565 F150.00
G01 X11.2277 Y10.4338 F150.00
G01 X11.2099 Y10.4115 F150.00
G01 X11.1829 Y10.3817 F150.00
G01 X11.1535 Y10.3550 F150.00
G01 X11.1215 Y10.3313 F150.00
G01 X11.0875 Y10.3109 F150.00
G01 X11.0515 Y10.2939 F150.00
G01 X11.0141 Y10.2805 F150.00
G01 X10.9756 Y10.2709 F150.00
G01 X10.9363 Y10.2651 F150.00
G01 X10.8966 Y10.2631 F150.00
G01 X10.8569 Y10.2651 F150.00
G01 X10.8176 Y10.2709 F150.00
G01 X10.7791 Y10.2805 F150.00
G01 X10.7417 Y10.2939 F150.00
G01 X10.7057 Y10.3109 F150.00
G01 X10.6717 Y10.3313 F150.00
G01 X10.6397 Y10.3550 F150.00
G01 X10.6103 Y10.3817 F150.00
G01 X10.5833 Y10.4115 F150.00
G01 X10.5655 Y10.4338 F150.00
G01 X10.5455 Y10.4565 F150.00
G01 X10.5305 Y10.4721 F150.00
G01 X10.5196 Y10.4826 F150.00
G01 X10.4971 Y10.5029 F150.00
G01 X10.4786 Y10.5180 F150.00
G01 X10.4666 Y10.5272 F150.00
G01 X10.4418 Y10.5447 F150.00
G01 X10.4236 Y10.5564 F150.00
G01 X10.4069 Y10.5663 F150.00
G01 X10.3763 Y10.5826 F150.00
G01 X10.3487 Y10.5953 F150.00
G01 X10.3206 Y10.6066 F150.00
G01 X10.2919 Y10.6164 F150.00
G01 X10.2774 Y10.6207 F150.00
G01 X10.2565 Y10.6262 F150.00
G01 X10.2269 Y10.6327 F150.00
G01 X10.1970 Y10.6376 F150.00
G01 X10.1669 Y10.6410 F150.00
G01 X10.1517 Y10.6421 F150.00
G01 X10.1279 Y10.6430 F150.00
G01 X4.0561 Y10.6431 F150.00
G01 X4.0366 Y10.6428 F150.00
G01 X4.0063 Y10.6410 F150.00
G01 X3.9913 Y10.6395 F150.00
G01 X3.9698 Y10.6367 F150.00
G01 X3.9357 Y10.6306 F150.00
G01 X3.9020 Y10.6224 F150.00
G01 X3.8730 Y10.6137 F150.00
G01 X3.8587 Y10.6088 F150.00
G01 X3.8385 Y10.6011 F150.00
G01 X3.8106 Y10.5891 F150.00
G01 X3.7892 Y10.5787 F150.00
G01 X3.7758 Y10.5716 F150.00
G01 X3.7496 Y10.5564 F150.00
G01 X3.7314 Y10.5447 F150.00
G01 X3.7189 Y10.5361 F150.00
G01 X3.6946 Y10.5180 F150.00
G01 X3.6680 Y10.4958 F150.00
G01 X3.6489 Y10.4781 F150.00
G01 X3.6248 Y10.4533 F150.00
G01 X3.6077 Y10.4338 F150.00
G01 X3.5899 Y10.4115 F150.00
G01 X3.5629 Y10.3817 F150.00
G01 X3.5335 Y10.3550 F150.00
G01 X3.5015 Y10.3313 F150.00
G01 X3.4675 Y10.3109 F150.00
G01 X3.4315 Y10.2939 F150.00
G01 X3.3941 Y10.2805 F150.00
G01 X3.3556 Y10.2709 F150.00
G01 X3.3163 Y10.2651 F150.00
G01 X3.2766 Y10.2631 F150.00
G01 X3.2369 Y10.2651 F150.00
G01 X3.1976 Y10.2709 F150.00
G01 X3.1591 Y10.2805 F150.00
G01 X3.1217 Y10.2939 F150.00
G01 X3.0857 Y10.3109 F150.00
G01 X3.0517 Y10.3313 F150.00
G01 X3.0197 Y10.3550 F150.00
G01 X2.9903 Y10.3817 F150.00
G01 X2.9636 Y10.4111 F150.00
G01 X2.9399 Y10.4431 F150.00
G01 X2.9195 Y10.4771 F150.00
G01 X2.9025 Y10.5131 F150.00
G01 X2.8891 Y10.5505 F150.00
G01 X2.8795 Y10.5890 F150.00
G01 X2.8737 Y10.6283 F150.00
G01 X2.8717 Y10.6680 F150.00
G01 X2.8737 Y10.7077 F150.00
G01 X2.8795 Y10.7470 F150.00
G01 X2.8891 Y10.7855 F150.00
G01 X2.9025 Y10.8229 F150.00
G01 X2.9195 Y10.8589 F150.00
G01 X2.9399 Y10.8929 F150.00
G01 X2.9636 Y10.9249 F150.00
G01 X2.9903 Y10.9543 F150.00
G01 X3.0197 Y10.9810 F150.00
G01 X3.0517 Y11.0047 F150.00
G01 X3.0857 Y11.0251 F150.00
G01 X3.1217 Y11.0421 F150.00
G01 X3.1591 Y11.0555 F150.00
G01 X3.1976 Y11.0651 F150.00
G01 X3.2369 Y11.0709 F150.00
G01 X3.2766 Y11.0729 F150.00
G01 X3.3163 Y11.0709 F150.00
G01 X3.3556 Y11.0651 F150.00
G01 X3.3941 Y11.0555 F150.00
G01 X3.4315 Y11.0421 F150.00
G01 X3.4675 Y11.0251 F150.00
G01 X3.5015 Y11.0047 F150.00
G01 X3.5335 Y10.9810 F150.00
G01 X3.5629 Y10.9543 F150.00
G01 X3.5899 Y10.9245 F150.00
G00 Z2.0000
G00 X4.2142 Y13.1959
G01 F50.00
G01 Z0.0000
G01 F150.00
G01 X4.2120 Y13.2350 F150.00
G01 X4.1904 Y14.9689 F150.00
G01 X4.1894 Y14.9880 F150.00
G01 X4.1879 Y15.0007 F150.00
G01 X4.1858 Y15.0133 F150.00
G01 X4.1815 Y15.0320 F150.00
G01 X4.1778 Y15.0442 F150.00
G01 X4.1734 Y15.0563 F150.00
G01 X4.1685 Y15.0680 F150.00
G01 X4.1600 Y15.0852 F150.00
G01 X4.1536 Y15.0963 F150.00
G01 X4.1467 Y15.1070 F150.00
G01 X4.1352 Y15.1224 F150.00
G01 X4.1270 Y15.1322 F150.00
G01 X4.1182 Y15.1415 F150.00
G01 X4.1090 Y15.1503 F150.00
G01 X4.0994 Y15.1587 F150.00
G01 X4.0770 Y15.1757 F150.00
G01 X4.0231 Y15.2245 F150.00
G01 X3.9743 Y15.2784 F150.00
G01 X3.9311 Y15.3367 F150.00
G01 X3.8937 Y15.3990 F150.00
G01 X3.8627 Y15.4647 F150.00
G01 X3.8382 Y15.5331 F150.00
G01 X3.8205 Y15.6036 F150.00
G01 X3.8099 Y15.6754 F150.00
G01 X3.8063 Y15.7480 F150.00
G01 X3.8099 Y15.8206 F150.00
G01 X3.8205 Y15.8924 F150.00
G01 X3.8382 Y15.9629 F150.00
G01 X3.8627 Y16.0313 F150.00
G01 X3.8937 Y16.0970 F150.00
G01 X3.9311 Y16.1593 F150.00
G01 X3.9743 Y16.2176 F150.00
G01 X4.0231 Y16.2715 F150.00
G01 X4.0770 Y16.3203 F150.00
G01 X4.1353 Y16.3635 F150.00
G01 X4.1976 Y16.4009 F150.00
G01 X4.2633 Y16.4319 F150.00
G01 X4.3317 Y16.4564 F150.00
G01 X4.4022 Y16.4741 F150.00
G01 X4.4740 Y16.4847 F150.00
G01 X4.5466 Y16.4883 F150.00
G01 X4.6192 Y16.4847 F150.00
G01 X4.6910 Y16.4741 F150.00
G01 X4.7615 Y16.4564 F150.00
G01 X4.8299 Y16.4319 F150.00
G01 X4.8956 Y16.4009 F150.00
G01 X4.9579 Y16.3635 F150.00
G01 X5.0162 Y16.3203 F150.00
G01 X5.0701 Y16.2715 F150.00
G01 X5.1189 Y16.2176 F150.00
G01 X5.1621 Y16.1593 F150.00
G01 X5.1995 Y16.0970 F150.00
G01 X5.2305 Y16.0313 F150.00
G01 X5.2550 Y15.9629 F150.00
G01 X5.2727 Y15.8924 F150.00
G01 X5.2833 Y15.8206 F150.00
G01 X5.2869 Y15.7480 F150.00
G01 X5.2833 Y15.6754 F150.00
G01 X5.2727 Y15.6036 F150.00
G01 X5.2550 Y15.5331 F150.00
G01 X5.2305 Y15.4647 F150.00
G01 X5.1995 Y15.3990 F150.00
G01 X5.1621 Y15.3367 F150.00
G01 X5.1189 Y15.2784 F150.00
G01 X5.0701 Y15.2245 F150.00
G01 X5.0162 Y15.1757 F150.00
G01 X4.9975 Y15.1610 F150.00
G01 X4.9844 Y15.1490 F150.00
G01 X4.9723 Y15.1361 F150.00
G01 X4.9647 Y15.1271 F150.00
G01 X4.9576 Y15.1177 F150.00
G01 X4.9477 Y15.1029 F150.00
G01 X4.9417 Y15.0927 F150.00
G01 X4.9337 Y15.0770 F150.00
G01 X4.9267 Y15.0606 F150.00
G01 X4.9210 Y15.0439 F150.00
G01 X4.9165 Y15.0268 F150.00
G01 X4.9131 Y15.0094 F150.00
G01 X4.9111 Y14.9918 F150.00
G01 X4.9104 Y14.9800 F150.00
G01 X4.9102 Y14.9682 F150.00
G01 X4.9243 Y13.8402 F150.00
G01 X4.9252 Y13.8219 F150.00
G01 X4.9266 Y13.8098 F150.00
G01 X4.9285 Y13.7978 F150.00
G01 X4.9325 Y13.7800 F150.00
G01 X4.9358 Y13.7683 F150.00
G01 X4.9398 Y13.7568 F150.00
G01 X4.9467 Y13.7399 F150.00
G01 X4.9520 Y13.7289 F150.00
G01 X4.9578 Y13.7183 F150.00
G01 X4.9642 Y13.7079 F150.00
G01 X4.9710 Y13.6978 F150.00
G01 X4.9822 Y13.6834 F150.00
G01 X4.9944 Y13.6698 F150.00
G01 X5.0075 Y13.6571 F150.00
G01 X5.0168 Y13.6492 F150.00
G01 X5.0264 Y13.6417 F150.00
G01 X5.0415 Y13.6315 F150.00
G01 X5.0520 Y13.6253 F150.00
G01 X5.0628 Y13.6196 F150.00
G01 X5.0794 Y13.6120 F150.00
G01 X5.0965 Y13.6057 F150.00
G01 X5.1082 Y13.6022 F150.00
G01 X5.1200 Y13.5993 F150.00
G01 X5.1379 Y13.5960 F150.00
G01 X5.1500 Y13.5945 F150.00
G01 X5.1622 Y13.5936 F150.00
G01 X5.1743 Y13.5933 F150.00
G01 X11.5567 Y13.5933 F150.00
G01 X11.5690 Y13.5936 F150.00
G01 X11.5812 Y13.5945 F150.00
G01 X11.5934 Y13.5960 F150.00
G01 X11.6055 Y13.5981 F150.00
G01 X11.6174 Y13.6008 F150.00
G01 X11.6293 Y13.6041 F150.00
G01 X11.6409 Y13.6079 F150.00
G01 X11.6524 Y13.6123 F150.00
G01 X11.6636 Y13.6173 F150.00
G01 X11.6799 Y13.6258 F150.00
G01 X11.6956 Y13.6354 F150.00
G01 X11.7105 Y13.6462 F150.00
G01 X11.7246 Y13.6581 F150.00
G01 X11.7378 Y13.6709 F150.00
G01 X11.7499 Y13.6847 F150.00
G01 X11.7575 Y13.6944 F150.00
G01 X11.7679 Y13.7096 F150.00
G01 X11.7772 Y13.7255 F150.00
G01 X11.7827 Y13.7364 F150.00
G01 X11.7899 Y13.7533 F150.00
G01 X11.7959 Y13.7707 F150.00
G01 X11.8006 Y13.7885 F150.00
G01 X11.8030 Y13.8006 F150.00
G01 X11.8055 Y13.8188 F150.00
G01 X11.8064 Y13.8310 F150.00
G01 X11.8067 Y13.8433 F150.00
G01 X11.8067 Y14.9685 F150.00
G01 X11.8064 Y14.9815 F150.00
G01 X11.8054 Y14.9944 F150.00
G01 X11.8037 Y15.0072 F150.00
G01 X11.8013 Y15.0200 F150.00
G01 X11.7966 Y15.0388 F150.00
G01 X11.7927 Y15.0511 F150.00
G01 X11.7855 Y15.0692 F150.00
G01 X11.7800 Y15.0809 F150.00
G01 X11.7739 Y15.0923 F150.00
G01 X11.7636 Y15.1088 F150.00
G01 X11.7521 Y15.1245 F150.00
G01 X11.7438 Y15.1344 F150.00
G01 X11.7349 Y15.1438 F150.00
G01 X11.7256 Y15.1528 F150.00
G01 X11.7158 Y15.1613 F150.00
G01 X11.6970 Y15.1757 F150.00
G01 X11.6431 Y15.2245 F150.00
G01 X11.5943 Y15.2784 F150.00
G01 X11.5511 Y15.3367 F150.00
G01 X11.5137 Y15.3990 F150.00
G01 X11.4827 Y15.4647 F150.00
G01 X11.4582 Y15.5331 F150.00
G01 X11.4405 Y15.6036 F150.00
G01 X11.4299 Y15.6754 F150.00
G01 X11.4263 Y15.7480 F150.00
G01 X11.4299 Y15.8206 F150.00
G01 X11.4405 Y15.8924 F150.00
G01 X11.4582 Y15.9629 F150.00
G01 X11.4827 Y16.0313 F150.00
G01 X11.5137 Y16.0970 F150.00
G01 X11.5511 Y16.1593 F150.00
G01 X11.5943 Y16.2176 F150.00
G01 X11.6431 Y16.2715 F150.00
G01 X11.6970 Y16.3203 F150.00
G01 X11.7553 Y16.3635 F150.00
G01 X11.8176 Y16.4009 F150.00
G01 X11.8833 Y16.4319 F150.00
G01 X11.9517 Y16.4564 F150.00
G01 X12.0222 Y16.4741 F150.00
G01 X12.0940 Y16.4847 F150.00
G01 X12.1666 Y16.4883 F150.00
G01 X12.2392 Y16.4847 F150.00
G01 X12.3110 Y16.4741 F150.00
G01 X12.3815 Y16.4564 F150.00
G01 X12.4499 Y16.4319 F150.00
G01 X12.5156 Y16.4009 F150.00
G01 X12.5779 Y16.3635 F150.00
G01 X12.6362 Y16.3203 F150.00
G01 X12.6901 Y16.2715 F150.00
G01 X12.7389 Y16.2176 F150.00
G01 X12.7821 Y16.1593 F150.00
G01 X12.8195 Y16.0970 F150.00
G01 X12.8505 Y16.0313 F150.00
G01 X12.8750 Y15.9629 F150.00
G01 X12.8927 Y15.8924 F150.00
G01 X12.9033 Y15.8206 F150.00
G01 X12.9069 Y15.7480 F150.00
G01 X12.9033 Y15.6754 F150.00
G01 X12.8927 Y15.6036 F150.00
G01 X12.8750 Y15.5331 F150.00
G01 X12.8505 Y15.4647 F150.00
G01 X12.8195 Y15.3990 F150.00
G01 X12.7821 Y15.3367 F150.00
G01 X12.7389 Y15.2784 F150.00
G01 X12.6901 Y15.2245 F150.00
G01 X12.6362 Y15.1757 F150.00
G01 X12.6184 Y15.1622 F150.00
G01 X12.6095 Y15.1546 F150.00
G01 X12.6010 Y15.1466 F150.00
G01 X12.5929 Y15.1382 F150.00
G01 X12.5852 Y15.1295 F150.00
G01 X12.5779 Y15.1204 F150.00
G01 X12.5711 Y15.1110 F150.00
G01 X12.5616 Y15.0963 F150.00
G01 X12.5532 Y15.0809 F150.00
G01 X12.5482 Y15.0704 F150.00
G01 X12.5416 Y15.0542 F150.00
G01 X12.5362 Y15.0376 F150.00
G01 X12.5333 Y15.0263 F150.00
G01 X12.5298 Y15.0091 F150.00
G01 X12.5282 Y14.9976 F150.00
G01 X12.5271 Y14.9860 F150.00
G01 X12.5265 Y14.9685 F150.00
G01 X12.5265 Y13.8433 F150.00
G01 X12.5272 Y13.8249 F150.00
G01 X12.5284 Y13.8127 F150.00
G01 X12.5313 Y13.7945 F150.00
G01 X12.5340 Y13.7826 F150.00
G01 X12.5391 Y13.7649 F150.00
G01 X12.5455 Y13.7476 F150.00
G01 X12.5505 Y13.7364 F150.00
G01 X12.5560 Y13.7255 F150.00
G01 X12.5621 Y13.7148 F150.00
G01 X12.5721 Y13.6994 F150.00
G01 X12.5794 Y13.6895 F150.00
G01 X12.5872 Y13.6800 F150.00
G01 X12.5997 Y13.6665 F150.00
G01 X12.6086 Y13.6581 F150.00
G01 X12.6227 Y13.6462 F150.00
G01 X12.6326 Y13.6389 F150.00
G01 X12.6428 Y13.6321 F150.00
G01 X12.6587 Y13.6228 F150.00
G01 X12.6752 Y13.6148 F150.00
G01 X12.6923 Y13.6079 F150.00
G01 X12.7098 Y13.6024 F150.00
G01 X12.7277 Y13.5981 F150.00
G01 X12.7459 Y13.5952 F150.00
G01 X12.7581 Y13.5940 F150.00
G01 X12.7765 Y13.5933 F150.00
G01 X16.6189 Y13.5933 F150.00
G01 X16.6371 Y13.5940 F150.00
G01 X16.6492 Y13.5952 F150.00
G01 X16.6613 Y13.5969 F150.00
G01 X16.6791 Y13.6007 F150.00
G01 X16.6967 Y13.6057 F150.00
G01 X16.7082 Y13.6098 F150.00
G01 X16.7194 Y13.6144 F150.00
G01 X16.7359 Y13.6224 F150.00
G01 X16.7517 Y13.6315 F150.00
G01 X16.7668 Y13.6417 F150.00
G01 X16.7764 Y13.6492 F150.00
G01 X16.7857 Y13.6571 F150.00
G01 X16.7988 Y13.6698 F150.00
G01 X16.8071 Y13.6787 F150.00
G01 X16.8148 Y13.6881 F150.00
G01 X16.8256 Y13.7028 F150.00
G01 X16.8354 Y13.7183 F150.00
G01 X16.8439 Y13.7344 F150.00
G01 X16.8513 Y13.7511 F150.00
G01 X16.8574 Y13.7683 F150.00
G01 X16.8622 Y13.7859 F150.00
G01 X16.8657 Y13.8038 F150.00
G01 X16.8680 Y13.8219 F150.00
G01 X16.8689 Y13.8402 F150.00
G01 X16.8830 Y14.9741 F150.00
G01 X16.8821 Y14.9918 F150.00
G01 X16.8801 Y15.0094 F150.00
G01 X16.8767 Y15.0268 F150.00
G01 X16.8722 Y15.0439 F150.00
G01 X16.8685 Y15.0551 F150.00
G01 X16.8643 Y15.0661 F150.00
G01 X16.8570 Y15.0823 F150.00
G01 X16.8486 Y15.0979 F150.00
G01 X16.8390 Y15.1128 F150.00
G01 X16.8321 Y15.1224 F150.00
G01 X16.8248 Y15.1316 F150.00
G01 X16.8170 Y15.1405 F150.00
G01 X16.8088 Y15.1490 F150.00
G01 X16.7957 Y15.1610 F150.00
G01 X16.7770 Y15.1757 F150.00
G01 X16.7231 Y15.2245 F150.00
G01 X16.6743 Y15.2784 F150.00
G01 X16.6311 Y15.3367 F150.00
G01 X16.5937 Y15.3990 F150.00
G01 X16.5627 Y15.4647 F150.00
G01 X16.5382 Y15.5331 F150.00
G01 X16.5205 Y15.6036 F150.00
G01 X16.5099 Y15.6754 F150.00
G01 X16.5063 Y15.7480 F150.00
G01 X16.5099 Y15.8206 F150.00
G01 X16.5205 Y15.8924 F150.00
G01 X16.5382 Y15.9629 F150.00
G01 X16.5627 Y16.0313 F150.00
G01 X16.5937 Y16.0970 F150.00
G01 X16.6311 Y16.1593 F150.00
G01 X16.6743 Y16.2176 F150.00
G01 X16.7231 Y16.2715 F150.00
G01 X16.7770 Y16.3203 F150.00
G01 X16.8353 Y16.3635 F150.00
G01 X16.8976 Y16.4009 F150.00
G01 X16.9633 Y16.4319 F150.00
G01 X17.0317 Y16.4564 F150.00
G01 X17.1022 Y16.4741 F150.00
G01 X17.1740 Y16.4847 F150.00
G01 X17.2466 Y16.4883 F150.00
G01 X17.3192 Y16.4847 F150.00
G01 X17.3910 Y16.4741 F150.00
G01 X17.4615 Y16.4564 F150.00
G01 X17.5299 Y16.4319 F150.00
G01 X17.5956 Y16.4009 F150.00
G01 X17.6579 Y16.3635 F150.00
G01 X17.7162 Y16.3203 F150.00
G01 X17.7701 Y16.2715 F150.00
G01 X17.8189 Y16.2176 F150.00
G01 X17.8621 Y16.1593 F150.00
G01 X17.8995 Y16.0970 F150.00
G01 X17.9305 Y16.0313 F150.00
G01 X17.9550 Y15.9629 F150.00
G01 X17.9727 Y15.8924 F150.00
G01 X17.9833 Y15.8206 F150.00
G01 X17.9869 Y15.7480 F150.00
G01 X17.9833 Y15.6754 F150.00
G01 X17.9727 Y15.6036 F150.00
G01 X17.9550 Y15.5331 F150.00
G01 X17.9305 Y15.4647 F150.00
G01 X17.8995 Y15.3990 F150.00
G01 X17.8621 Y15.3367 F150.00
G01 X17.8189 Y15.2784 F150.00
G01 X17.7701 Y15.2245 F150.00
G01 X17.7162 Y15.1757 F150.00
G01 X17.6988 Y15.1627 F150.00
G01 X17.6842 Y15.1503 F150.00
G01 X17.6750 Y15.1415 F150.00
G01 X17.6662 Y15.1322 F150.00
G01 X17.6540 Y15.1174 F150.00
G01 X17.6465 Y15.1070 F150.00
G01 X17.6363 Y15.0908 F150.00
G01 X17.6302 Y15.0796 F150.00
G01 X17.6247 Y15.0680 F150.00
G01 X17.6175 Y15.0503 F150.00
G01 X17.6135 Y15.0381 F150.00
G01 X17.6087 Y15.0196 F150.00
G01 X17.6062 Y15.0070 F150.00
G01 X17.6038 Y14.9880 F150.00
G01 X17.6028 Y14.9689 F150.00
G01 X17.5812 Y13.2350 F150.00
G01 X17.5790 Y13.1959 F150.00
G01 X17.5736 Y13.1610 F150.00
G01 X17.5648 Y13.1268 F150.00
G01 X17.5527 Y13.0937 F150.00
G01 X17.5374 Y13.0619 F150.00
G01 X17.5190 Y13.0317 F150.00
G01 X17.4978 Y13.0035 F150.00
G01 X17.4740 Y12.9775 F150.00
G01 X17.4477 Y12.9539 F150.00
G01 X17.4192 Y12.9331 F150.00
G01 X17.3888 Y12.9151 F150.00
G01 X17.3568 Y12.9002 F150.00
G01 X17.3235 Y12.8885 F150.00
G01 X17.2892 Y12.8802 F150.00
G01 X17.2542 Y12.8752 F150.00
G01 X17.2151 Y12.8735 F150.00
G01 X4.5781 Y12.8735 F150.00
G01 X4.5390 Y12.8752 F150.00
G01 X4.5040 Y12.8802 F150.00
G01 X4.4697 Y12.8885 F150.00
G01 X4.4364 Y12.9002 F150.00
G01 X4.4044 Y12.9151 F150.00
G01 X4.3740 Y12.9331 F150.00
G01 X4.3455 Y12.9539 F150.00
G01 X4.3192 Y12.9775 F150.00
G01 X4.2954 Y13.0035 F150.00
G01 X4.2742 Y13.0317 F150.00
G01 X4.2558 Y13.0619 F150.00
G01 X4.2405 Y13.0937 F150.00
G01 X4.2284 Y13.1268 F150.00
G01 X4.2196 Y13.1610 F150.00
G01 X4.2142 Y13.1959 F150.00
G01 X4.2898 Y15.4350 F150.00
G01 X4.2603 Y15.4617 F150.00
G01 X4.2336 Y15.4911 F150.00
G01 X4.2099 Y15.5231 F150.00
G01 X4.1895 Y15.5571 F150.00
G01 X4.1725 Y15.5931 F150.00
G01 X4.1591 Y15.6305 F150.00
G01 X4.1495 Y15.6690 F150.00
G01 X4.1437 Y15.7083 F150.00
G01 X4.1417 Y15.7480 F150.00
G01 X4.1437 Y15.7877 F150.00
G01 X4.1495 Y15.8270 F150.00
G01 X4.1591 Y15.8655 F150.00
G01 X4.1725 Y15.9029 F150.00
G01 X4.1895 Y15.9389 F150.00
G01 X4.2099 Y15.9729 F150.00
G01 X4.2336 Y16.0049 F150.00
G01 X4.2603 Y16.0343 F150.00
G01 X4.2897 Y16.0610 F150.00
G01 X4.3217 Y16.0847 F150.00
G01 X4.3557 Y16.1051 F150.00
G01 X4.3917 Y16.1221 F150.00
G01 X4.4291 Y16.1355 F150.00
G01 X4.4676 Y16.1451 F150.00
G01 X4.5069 Y16.1509 F150.00
G01 X4.5466 Y16.1529 F150.00
G01 X4.5863 Y16.1509 F150.00
G01 X4.6256 Y16.1451 F150.00
G01 X4.6641 Y16.1355 F150.00
G01 X4.7015 Y16.1221 F150.00
G01 X4.7375 Y16.1051 F150.00
G01 X4.7715 Y16.0847 F150.00
G01 X4.8035 Y16.0610 F150.00
G01 X4.8329 Y16.0343 F150.00
G01 X4.8596 Y16.0049 F150.00
G01 X4.8833 Y15.9729 F150.00
G01 X4.9037 Y15.9389 F150.00
G01 X4.9207 Y15.9029 F150.00
G01 X4.9341 Y15.8655 F150.00
G01 X4.9437 Y15.8270 F150.00
G01 X4.9495 Y15.7877 F150.00
G01 X4.9515 Y15.7480 F150.00
G01 X4.9495 Y15.7083 F150.00
G01 X4.9437 Y15.6690 F150.00
G01 X4.9341 Y15.6305 F150.00
G01 X4.9207 Y15.5931 F150.00
G01 X4.9037 Y15.5571 F150.00
G01 X4.8833 Y15.5231 F150.00
G01 X4.8596 Y15.4911 F150.00
G01 X4.8329 Y15.4617 F150.00
G01 X4.8024 Y15.4341 F150.00
G01 X4.7824 Y15.4179 F150.00
G01 X4.7660 Y15.4035 F150.00
G01 X4.7517 Y15.3900 F150.00
G01 X4.7324 Y15.3702 F150.00
G01 X4.7178 Y15.3540 F150.00
G01 X4.7002 Y15.3327 F150.00
G01 X4.6837 Y15.3106 F150.00
G01 X4.6682 Y15.2877 F150.00
G01 X4.6538 Y15.2641 F150.00
G01 X4.6378 Y15.2346 F150.00
G01 X4.6260 Y15.2096 F150.00
G01 X4.6205 Y15.1969 F150.00
G01 X4.6125 Y15.1767 F150.00
G01 X4.6034 Y15.1506 F150.00
G01 X4.5940 Y15.1184 F150.00
G01 X4.5877 Y15.0915 F150.00
G01 X4.5827 Y15.0643 F150.00
G01 X4.5796 Y15.0428 F150.00
G01 X4.5769 Y15.0153 F150.00
G01 X4.5757 Y14.9956 F150.00
G01 X4.5752 Y14.9679 F150.00
G01 X4.5894 Y13.8360 F150.00
G01 X4.5902 Y13.8116 F150.00
G01 X4.5918 Y13.7893 F150.00
G01 X4.5952 Y13.7610 F150.00
G01 X4.5999 Y13.7329 F150.00
G01 X4.6040 Y13.7130 F150.00
G01 X4.6094 Y13.6912 F150.00
G01 X4.6175 Y13.6639 F150.00
G01 X4.6241 Y13.6447 F150.00
G01 X4.6321 Y13.6238 F150.00
G01 X4.6400 Y13.6051 F150.00
G01 X4.6496 Y13.5848 F150.00
G01 X4.6628 Y13.5595 F150.00
G01 X4.6729 Y13.5419 F150.00
G01 X4.6882 Y13.5179 F150.00
G01 X4.7010 Y13.4995 F150.00
G01 X4.7183 Y13.4769 F150.00
G01 X4.7313 Y13.4613 F150.00
G01 X4.7463 Y13.4446 F150.00
G01 X4.7662 Y13.4242 F150.00
G01 X4.7810 Y13.4103 F150.00
G01 X4.7979 Y13.3956 F150.00
G01 X4.8201 Y13.3778 F150.00
G01 X4.8365 Y13.3657 F150.00
G01 X4.8601 Y13.3498 F150.00
G01 X4.8793 Y13.3382 F150.00
G01 X4.9042 Y13.3244 F150.00
G01 X4.9224 Y13.3153 F150.00
G01 X4.9484 Y13.3037 F150.00
G01 X4.9692 Y13.2955 F150.00
G01 X4.9961 Y13.2861 F150.00
G01 X5.0156 Y13.2803 F150.00
G01 X5.0373 Y13.2746 F150.00
G01 X5.0571 Y13.2702 F150.00
G01 X5.0851 Y13.2652 F150.00
G01 X5.1134 Y13.2615 F150.00
G01 X5.1418 Y13.2592 F150.00
G01 X5.1743 Y13.2583 F150.00
G01 X11.5567 Y13.2583 F150.00
G01 X11.5813 Y13.2588 F150.00
G01 X11.6099 Y13.2607 F150.00
G01 X11.6385 Y13.2641 F150.00
G01 X11.6668 Y13.2688 F150.00
G01 X11.6948 Y13.2749 F150.00
G01 X11.7226 Y13.2823 F150.00
G01 X11.7499 Y13.2911 F150.00
G01 X11.7768 Y13.3013 F150.00
G01 X11.7975 Y13.3102 F150.00
G01 X11.8105 Y13.3162 F150.00
G01 X11.8234 Y13.3226 F150.00
G01 X11.8415 Y13.3323 F150.00
G01 X11.8662 Y13.3469 F150.00
G01 X11.8851 Y13.3592 F150.00
G01 X11.8969 Y13.3674 F150.00
G01 X11.9134 Y13.3796 F150.00
G01 X11.9246 Y13.3885 F150.00
G01 X11.9419 Y13.4030 F150.00
G01 X11.9526 Y13.4126 F150.00
G01 X11.9630 Y13.4225 F150.00
G01 X11.9775 Y13.4370 F150.00
G01 X11.9874 Y13.4474 F150.00
G01 X12.0023 Y13.4643 F150.00
G01 X12.0153 Y13.4802 F150.00
G01 X12.0241 Y13.4915 F150.00
G01 X12.0326 Y13.5031 F150.00
G01 X12.0454 Y13.5217 F150.00
G01 X12.0531 Y13.5338 F150.00
G01 X12.0636 Y13.5514 F150.00
G01 X12.0745 Y13.5712 F150.00
G01 X12.0811 Y13.5840 F150.00
G01 X12.0898 Y13.6025 F150.00
G01 X12.0956 Y13.6156 F150.00
G01 X12.1040 Y13.6366 F150.00
G01 X12.1089 Y13.6501 F150.00
G01 X12.1134 Y13.6637 F150.00
G01 X12.1194 Y13.6833 F150.00
G01 X12.1231 Y13.6972 F150.00
G01 X12.1284 Y13.7191 F150.00
G01 X12.1338 Y13.7473 F150.00
G01 X12.1378 Y13.7758 F150.00
G01 X12.1404 Y13.8044 F150.00
G01 X12.1412 Y13.8187 F150.00
G01 X12.1417 Y13.8392 F150.00
G01 X12.1417 Y14.9685 F150.00
G01 X12.1407 Y15.0031 F150.00
G01 X12.1390 Y15.0247 F150.00
G01 X12.1373 Y15.0398 F150.00
G01 X12.1339 Y15.0634 F150.00
G01 X12.1313 Y15.0783 F150.00
G01 X12.1283 Y15.0931 F150.00
G01 X12.1233 Y15.1142 F150.00
G01 X12.1137 Y15.1475 F150.00
G01 X12.1074 Y15.1659 F150.00
G01 X12.0997 Y15.1861 F150.00
G01 X12.0922 Y15.2041 F150.00
G01 X12.0840 Y15.2218 F150.00
G01 X12.0743 Y15.2412 F150.00
G01 X12.0670 Y15.2545 F150.00
G01 X12.0515 Y15.2805 F150.00
G01 X12.0322 Y15.3093 F150.00
G01 X12.0112 Y15.3368 F150.00
G01 X11.9915 Y15.3599 F150.00
G01 X11.9707 Y15.3819 F150.00
G01 X11.9519 Y15.3998 F150.00
G01 X11.9324 Y15.4169 F150.00
G01 X11.9101 Y15.4347 F150.00
G01 X11.8803 Y15.4617 F150.00
G01 X11.8536 Y15.4911 F150.00
G01 X11.8299 Y15.5231 F150.00
G01 X11.8095 Y15.5571 F150.00
G01 X11.7925 Y15.5931 F150.00
G01 X11.7791 Y15.6305 F150.00
G01 X11.7695 Y15.6690 F150.00
G01 X11.7637 Y15.7083 F150.00
G01 X11.7617 Y15.7480 F150.00
G01 X11.7637 Y15.7877 F150.00
G01 X11.7695 Y15.8270 F150.00
G01 X11.7791 Y15.8655 F150.00
G01 X11.7925 Y15.9029 F150.00
G01 X11.8095 Y15.9389 F150.00
G01 X11.8299 Y15.9729 F150.00
G01 X11.8536 Y16.0049 F150.00
G01 X11.8803 Y16.0343 F150.00
G01 X11.9097 Y16.0610 F150.00
G01 X11.9417 Y16.0847 F150.00
G01 X11.9757 Y16.1051 F150.00
G01 X12.0117 Y16.1221 F150.00
G01 X12.0491 Y16.1355 F150.00
G01 X12.0876 Y16.1451 F150.00
G01 X12.1269 Y16.1509 F150.00
G01 X12.1666 Y16.1529 F150.00
G01 X12.2063 Y16.1509 F150.00
G01 X12.2456 Y16.1451 F150.00
G01 X12.2841 Y16.1355 F150.00
G01 X12.3215 Y16.1221 F150.00
G01 X12.3575 Y16.1051 F150.00
G01 X12.3915 Y16.0847 F150.00
G01 X12.4235 Y16.0610 F150.00
G01 X12.4529 Y16.0343 F150.00
G01 X12.4796 Y16.0049 F150.00
G01 X12.5033 Y15.9729 F150.00
G01 X12.5237 Y15.9389 F150.00
G01 X12.5407 Y15.9029 F150.00
G01 X12.5541 Y15.8655 F150.00
G01 X12.5637 Y15.8270 F150.00
G01 X12.5695 Y15.7877 F150.00
G01 X12.5715 Y15.7480 F150.00
G01 X12.5695 Y15.7083 F150.00
G01 X12.5637 Y15.6690 F150.00
G01 X12.5541 Y15.6305 F150.00
G01 X12.5407 Y15.5931 F150.00
G01 X12.5237 Y15.5571 F150.00
G01 X12.5033 Y15.5231 F150.00
G01 X12.4796 Y15.4911 F150.00
G01 X12.4529 Y15.4617 F150.00
G01 X12.4231 Y15.4347 F150.00
G01 X12.4035 Y15.4192 F150.00
G01 X12.3829 Y15.4013 F150.00
G01 X12.3631 Y15.3825 F150.00
G01 X12.3443 Y15.3627 F150.00
G01 X12.3264 Y15.3422 F150.00
G01 X12.3060 Y15.3161 F150.00
G01 X12.2903 Y15.2938 F150.00
G01 X12.2787 Y15.2757 F150.00
G01 X12.2717 Y15.2641 F150.00
G01 X12.2557 Y15.2350 F150.00
G01 X12.2463 Y15.2157 F150.00
G01 X12.2407 Y15.2033 F150.00
G01 X12.2332 Y15.1854 F150.00
G01 X12.2256 Y15.1653 F150.00
G01 X12.2154 Y15.1338 F150.00
G01 X12.2097 Y15.1131 F150.00
G01 X12.2065 Y15.0999 F150.00
G01 X12.1999 Y15.0674 F150.00
G01 X12.1978 Y15.0540 F150.00
G01 X12.1950 Y15.0327 F150.00
G01 X12.1932 Y15.0133 F150.00
G01 X12.1920 Y14.9919 F150.00
G01 X12.1915 Y14.9685 F150.00
G01 X12.1915 Y13.8433 F150.00
G01 X12.1920 Y13.8187 F150.00
G01 X12.1934 Y13.7962 F150.00
G01 X12.1964 Y13.7676 F150.00
G01 X12.1994 Y13.7473 F150.00
G01 X12.2048 Y13.7191 F150.00
G01 X12.2116 Y13.6912 F150.00
G01 X12.2179 Y13.6696 F150.00
G01 X12.2223 Y13.6559 F150.00
G01 X12.2322 Y13.6289 F150.00
G01 X12.2434 Y13.6025 F150.00
G01 X12.2558 Y13.5766 F150.00
G01 X12.2696 Y13.5514 F150.00
G01 X12.2801 Y13.5338 F150.00
G01 X12.2878 Y13.5217 F150.00
G01 X12.3042 Y13.4981 F150.00
G01 X12.3217 Y13.4754 F150.00
G01 X12.3403 Y13.4535 F150.00
G01 X12.3500 Y13.4429 F150.00
G01 X12.3658 Y13.4268 F150.00
G01 X12.3867 Y13.4071 F150.00
G01 X12.3975 Y13.3977 F150.00
G01 X12.4134 Y13.3847 F150.00
G01 X12.4363 Y13.3674 F150.00
G01 X12.4601 Y13.3513 F150.00
G01 X12.4722 Y13.3437 F150.00
G01 X12.4917 Y13.3323 F150.00
G01 X12.5098 Y13.3226 F150.00
G01 X12.5301 Y13.3127 F150.00
G01 X12.5488 Y13.3044 F150.00
G01 X12.5698 Y13.2960 F150.00
G01 X12.5891 Y13.2891 F150.00
G01 X12.6106 Y13.2823 F150.00
G01 X12.6244 Y13.2784 F150.00
G01 X12.6443 Y13.2734 F150.00
G01 X12.6664 Y13.2688 F150.00
G01 X12.6866 Y13.2653 F150.00
G01 X12.7090 Y13.2622 F150.00
G01 X12.7294 Y13.2602 F150.00
G01 X12.7437 Y13.2592 F150.00
G01 X12.7663 Y13.2584 F150.00
G01 X16.6189 Y13.2583 F150.00
G01 X16.6372 Y13.2586 F150.00
G01 X16.6575 Y13.2596 F150.00
G01 X16.6859 Y13.2622 F150.00
G01 X16.7081 Y13.2652 F150.00
G01 X16.7361 Y13.2702 F150.00
G01 X16.7559 Y13.2746 F150.00
G01 X16.7776 Y13.2803 F150.00
G01 X16.8048 Y13.2887 F150.00
G01 X16.8240 Y13.2955 F150.00
G01 X16.8448 Y13.3037 F150.00
G01 X16.8634 Y13.3119 F150.00
G01 X16.8890 Y13.3244 F150.00
G01 X16.9087 Y13.3351 F150.00
G01 X16.9331 Y13.3498 F150.00
G01 X16.9500 Y13.3611 F150.00
G01 X16.9682 Y13.3741 F150.00
G01 X16.9907 Y13.3917 F150.00
G01 X17.0061 Y13.4048 F150.00
G01 X17.0226 Y13.4200 F150.00
G01 X17.0428 Y13.4402 F150.00
G01 X17.0565 Y13.4551 F150.00
G01 X17.0711 Y13.4722 F150.00
G01 X17.0837 Y13.4881 F150.00
G01 X17.1004 Y13.5111 F150.00
G01 X17.1128 Y13.5298 F150.00
G01 X17.1234 Y13.5472 F150.00
G01 X17.1372 Y13.5721 F150.00
G01 X17.1472 Y13.5921 F150.00
G01 X17.1588 Y13.6181 F150.00
G01 X17.1663 Y13.6370 F150.00
G01 X17.1738 Y13.6581 F150.00
G01 X17.1821 Y13.6854 F150.00
G01 X17.1873 Y13.7050 F150.00
G01 X17.1922 Y13.7269 F150.00
G01 X17.1948 Y13.7409 F150.00
G01 X17.1991 Y13.7691 F150.00
G01 X17.2025 Y13.8035 F150.00
G01 X17.2038 Y13.8360 F150.00
G01 X17.2180 Y14.9679 F150.00
G01 X17.2175 Y14.9956 F150.00
G01 X17.2163 Y15.0153 F150.00
G01 X17.2143 Y15.0369 F150.00
G01 X17.2105 Y15.0643 F150.00
G01 X17.2055 Y15.0915 F150.00
G01 X17.1977 Y15.1241 F150.00
G01 X17.1898 Y15.1506 F150.00
G01 X17.1854 Y15.1637 F150.00
G01 X17.1779 Y15.1841 F150.00
G01 X17.1672 Y15.2096 F150.00
G01 X17.1527 Y15.2398 F150.00
G01 X17.1394 Y15.2641 F150.00
G01 X17.1250 Y15.2877 F150.00
G01 X17.1095 Y15.3106 F150.00
G01 X17.0930 Y15.3327 F150.00
G01 X17.0792 Y15.3495 F150.00
G01 X17.0608 Y15.3702 F150.00
G01 X17.0472 Y15.3844 F150.00
G01 X17.0272 Y15.4035 F150.00
G01 X17.0108 Y15.4179 F150.00
G01 X16.9908 Y15.4341 F150.00
G01 X16.9603 Y15.4617 F150.00
G01 X16.9336 Y15.4911 F150.00
G01 X16.9099 Y15.5231 F150.00
G01 X16.8895 Y15.5571 F150.00
G01 X16.8725 Y15.5931 F150.00
G01 X16.8591 Y15.6305 F150.00
G01 X16.8495 Y15.6690 F150.00
G01 X16.8437 Y15.7083 F150.00
G01 X16.8417 Y15.7480 F150.00
G01 X16.8437 Y15.7877 F150.00
G01 X16.8495 Y15.8270 F150.00
G01 X16.8591 Y15.8655 F150.00
G01 X16.8725 Y15.9029 F150.00
G01 X16.8895 Y15.9389 F150.00
G01 X16.9099 Y15.9729 F150.00
G01 X16.9336 Y16.0049 F150.00
G01 X16.9603 Y16.0343 F150.00
G01 X16.9897 Y16.0610 F150.00
G01 X17.0217 Y16.0847 F150.00
G01 X17.0557 Y16.1051 F150.00
G01 X17.0917 Y16.1221 F150.00
G01 X17.1291 Y16.1355 F150.00
G01 X17.1676 Y16.1451 F150.00
G01 X17.2069 Y16.1509 F150.00
G01 X17.2466 Y16.1529 F150.00
G01 X17.2863 Y16.1509 F150.00
G01 X17.3256 Y16.1451 F150.00
G01 X17.3641 Y16.1355 F150.00
G01 X17.4015 Y16.1221 F150.00
G01 X17.4375 Y16.1051 F150.00
G01 X17.4715 Y16.0847 F150.00
G01 X17.5035 Y16.0610 F150.00
G01 X17.5329 Y16.0343 F150.00
G01 X17.5596 Y16.0049 F150.00
G01 X17.5833 Y15.9729 F150.00
G01 X17.6037 Y15.9389 F150.00
G01 X17.6207 Y15.9029 F150.00
G01 X17.6341 Y15.8655 F150.00
G01 X17.6437 Y15.8270 F150.00
G01 X17.6495 Y15.7877 F150.00
G01 X17.6515 Y15.7480 F150.00
G01 X17.6495 Y15.7083 F150.00
G01 X17.6437 Y15.6690 F150.00
G01 X17.6341 Y15.6305 F150.00
G01 X17.6207 Y15.5931 F150.00
G01 X17.6037 Y15.5571 F150.00
G01 X17.5833 Y15.5231 F150.00
G01 X17.5596 Y15.4911 F150.00
G01 X17.5329 Y15.4617 F150.00
G01 X17.5034 Y15.4350 F150.00
G01 X17.4841 Y15.4199 F150.00
G01 X17.4661 Y15.4047 F150.00
G01 X17.4504 Y15.3904 F150.00
G01 X17.4336 Y15.3738 F150.00
G01 X17.4162 Y15.3551 F150.00
G01 X17.3995 Y15.3356 F150.00
G01 X17.3812 Y15.3120 F150.00
G01 X17.3677 Y15.2927 F150.00
G01 X17.3516 Y15.2675 F150.00
G01 X17.3369 Y15.2415 F150.00
G01 X17.3235 Y15.2148 F150.00
G01 X17.3173 Y15.2012 F150.00
G01 X17.3090 Y15.1815 F150.00
G01 X17.2987 Y15.1534 F150.00
G01 X17.2899 Y15.1249 F150.00
G01 X17.2825 Y15.0959 F150.00
G01 X17.2766 Y15.0666 F150.00
G01 X17.2730 Y15.0433 F150.00
G01 X17.2705 Y15.0221 F150.00
G01 X17.2687 Y14.9987 F150.00
G01 X17.2679 Y14.9731 F150.00
G01 X17.2463 Y13.2474 F150.00
G01 X17.2453 Y13.2309 F150.00
G01 X17.2443 Y13.2262 F150.00
G01 X17.2425 Y13.2219 F150.00
G01 X17.2382 Y13.2162 F150.00
G01 X17.2345 Y13.2132 F150.00
G01 X17.2281 Y13.2102 F150.00
G01 X17.2234 Y13.2093 F150.00
G01 X17.2068 Y13.2085 F150.00
G01 X4.5864 Y13.2085 F150.00
G01 X4.5674 Y13.2096 F150.00
G01 X4.5607 Y13.2120 F150.00
G01 X4.5568 Y13.2146 F150.00
G01 X4.5534 Y13.2179 F150.00
G01 X4.5507 Y13.2219 F150.00
G01 X4.5489 Y13.2262 F150.00
G01 X4.5479 Y13.2309 F150.00
G01 X4.5469 Y13.2474 F150.00
G01 X4.5253 Y14.9731 F150.00
G01 X4.5239 Y15.0072 F150.00
G01 X4.5210 Y15.0370 F150.00
G01 X4.5166 Y15.0666 F150.00
G01 X4.5117 Y15.0917 F150.00
G01 X4.5056 Y15.1166 F150.00
G01 X4.4958 Y15.1494 F150.00
G01 X4.4873 Y15.1735 F150.00
G01 X4.4742 Y15.2051 F150.00
G01 X4.4632 Y15.2282 F150.00
G01 X4.4470 Y15.2583 F150.00
G01 X4.4337 Y15.2802 F150.00
G01 X4.4145 Y15.3085 F150.00
G01 X4.3990 Y15.3289 F150.00
G01 X4.3770 Y15.3551 F150.00
G01 X4.3596 Y15.3738 F150.00
G01 X4.3350 Y15.3976 F150.00
G01 X4.3157 Y15.4145 F150.00
G01 X4.2898 Y15.4350 F150.00
G01 X4.5043 Y15.6927 F150.00
G01 X4.4975 Y15.6989 F150.00
G01 X4.4929 Y15.7039 F150.00
G01 X4.4888 Y15.7094 F150.00
G01 X4.4853 Y15.7152 F150.00
G01 X4.4824 Y15.7214 F150.00
G01 X4.4801 Y15.7278 F150.00
G01 X4.4784 Y15.7344 F150.00
G01 X4.4774 Y15.7412 F150.00
G01 X4.4771 Y15.7480 F150.00
G01 X4.4774 Y15.7548 F150.00
G01 X4.4784 Y15.7616 F150.00
G01 X4.4801 Y15.7682 F150.00
G01 X4.4824 Y15.7746 F150.00
G01 X4.4853 Y15.7808 F150.00
G01 X4.4888 Y15.7866 F150.00
G01 X4.4929 Y15.7921 F150.00
G01 X4.4975 Y15.7971 F150.00
G01 X4.5025 Y15.8017 F150.00
G01 X4.5080 Y15.8058 F150.00
G01 X4.5138 Y15.8093 F150.00
G01 X4.5200 Y15.8122 F150.00
G01 X4.5264 Y15.8145 F150.00
G01 X4.5330 Y15.8162 F150.00
G01 X4.5398 Y15.8172 F150.00
G01 X4.5466 Y15.8175 F150.00
G01 X4.5534 Y15.8172 F150.00
G01 X4.5602 Y15.8162 F150.00
G01 X4.5668 Y15.8145 F150.00
G01 X4.5732 Y15.8122 F150.00
G01 X4.5794 Y15.8093 F150.00
G01 X4.5852 Y15.8058 F150.00
G01 X4.5907 Y15.8017 F150.00
G01 X4.5957 Y15.7971 F150.00
G01 X4.6003 Y15.7921 F150.00
G01 X4.6044 Y15.7866 F150.00
G01 X4.6079 Y15.7808 F150.00
G01 X4.6108 Y15.7746 F150.00
G01 X4.6131 Y15.7682 F150.00
G01 X4.6148 Y15.7616 F150.00
G01 X4.6158 Y15.7548 F150.00
G01 X4.6161 Y15.7480 F150.00
G01 X4.6158 Y15.7412 F150.00
G01 X4.6148 Y15.7344 F150.00
G01 X4.6131 Y15.7278 F150.00
G01 X4.6108 Y15.7214 F150.00
G01 X4.6079 Y15.7152 F150.00
G01 X4.6044 Y15.7094 F150.00
G01 X4.6003 Y15.7039 F150.00
G01 X4.5957 Y15.6989 F150.00
G01 X4.5861 Y15.6901 F150.00
G01 X4.5673 Y15.6747 F150.00
G01 X4.5472 Y15.6573 F150.00
G01 X4.5288 Y15.6730 F150.00
G01 X4.5043 Y15.6927 F150.00
G00 Z2.0000
G00 X1.9655 Y15.8044
G01 F50.00
G01 Z0.0000
G01 F150.00
G01 X1.9856 Y15.8207 F150.00
G01 X2.0066 Y15.8387 F150.00
G01 X2.0276 Y15.8207 F150.00
G01 X2.0477 Y15.8044 F150.00
G01 X2.0557 Y15.7971 F150.00
G01 X2.0603 Y15.7921 F150.00
G01 X2.0644 Y15.7866 F150.00
G01 X2.0679 Y15.7808 F150.00
G01 X2.0708 Y15.7746 F150.00
G01 X2.0731 Y15.7682 F150.00
G01 X2.0748 Y15.7616 F150.00
G01 X2.0758 Y15.7548 F150.00
G01 X2.0761 Y15.7480 F150.00
G01 X2.0758 Y15.7412 F150.00
G01 X2.0748 Y15.7344 F150.00
G01 X2.0731 Y15.7278 F150.00
G01 X2.0708 Y15.7214 F150.00
G01 X2.0679 Y15.7152 F150.00
G01 X2.0644 Y15.7094 F150.00
G01 X2.0603 Y15.7039 F150.00
G01 X2.0557 Y15.6989 F150.00
G01 X2.0507 Y15.6943 F150.00
G01 X2.0452 Y15.6902 F150.00
G01 X2.0394 Y15.6867 F150.00
G01 X2.0332 Y15.6838 F150.00
G01 X2.0268 Y15.6815 F150.00
G01 X2.0202 Y15.6798 F150.00
G01 X2.0134 Y15.6788 F150.00
G01 X2.0066 Y15.6785 F150.00
G01 X1.9998 Y15.6788 F150.00
G01 X1.9930 Y15.6798 F150.00
G01 X1.9864 Y15.6815 F150.00
G01 X1.9800 Y15.6838 F150.00
G01 X1.9738 Y15.6867 F150.00
G01 X1.9680 Y15.6902 F150.00
G01 X1.9625 Y15.6943 F150.00
G01 X1.9575 Y15.6989 F150.00
G01 X1.9529 Y15.7039 F150.00
G01 X1.9488 Y15.7094 F150.00
G01 X1.9453 Y15.7152 F150.00
G01 X1.9424 Y15.7214 F150.00
G01 X1.9401 Y15.7278 F150.00
G01 X1.9384 Y15.7344 F150.00
G01 X1.9374 Y15.7412 F150.00
G01 X1.9371 Y15.7480 F150.00
G01 X1.9374 Y15.7548 F150.00
G01 X1.9384 Y15.7616 F150.00
G01 X1.9401 Y15.7682 F150.00
G01 X1.9424 Y15.7746 F150.00
G01 X1.9453 Y15.7808 F150.00
G01 X1.9488 Y15.7866 F150.00
G01 X1.9529 Y15.7921 F150.00
G01 X1.9575 Y15.7971 F150.00
G01 X1.9655 Y15.8044 F150.00
G01 X1.7501 Y16.0613 F150.00
G01 X1.7724 Y16.0791 F150.00
G01 X1.7919 Y16.0962 F150.00
G01 X1.8107 Y16.1141 F150.00
G01 X1.8344 Y16.1394 F150.00
G01 X1.8512 Y16.1592 F150.00
G01 X1.8722 Y16.1867 F150.00
G01 X1.8869 Y16.2082 F150.00
G01 X1.9049 Y16.2377 F150.00
G01 X1.9173 Y16.2606 F150.00
G01 X1.9322 Y16.2919 F150.00
G01 X1.9421 Y16.3159 F150.00
G01 X1.9537 Y16.3485 F150.00
G01 X1.9610 Y16.3734 F150.00
G01 X1.9692 Y16.4071 F150.00
G01 X1.9739 Y16.4326 F150.00
G01 X1.9781 Y16.4627 F150.00
G01 X1.9807 Y16.4929 F150.00
G01 X1.9817 Y16.5275 F150.00
G01 X1.9817 Y18.2736 F150.00
G01 X1.9825 Y18.2904 F150.00
G01 X1.9834 Y18.2950 F150.00
G01 X1.9853 Y18.2994 F150.00
G01 X1.9895 Y18.3051 F150.00
G01 X1.9932 Y18.3081 F150.00
G01 X1.9996 Y18.3112 F150.00
G01 X2.0042 Y18.3121 F150.00
G01 X2.0210 Y18.3129 F150.00
G01 X32.4722 Y18.3129 F150.00
G01 X32.4913 Y18.3117 F150.00
G01 X32.4980 Y18.3093 F150.00
G01 X32.5037 Y18.3051 F150.00
G01 X32.5079 Y18.2994 F150.00
G01 X32.5103 Y18.2927 F150.00
G01 X32.5115 Y18.2736 F150.00
G01 X32.5115 Y16.5275 F150.00
G01 X32.5120 Y16.5041 F150.00
G01 X32.5132 Y16.4827 F150.00
G01 X32.5160 Y16.4556 F150.00
G01 X32.5187 Y16.4363 F150.00
G01 X32.5224 Y16.4152 F150.00
G01 X32.5252 Y16.4018 F150.00
G01 X32.5317 Y16.3753 F150.00
G01 X32.5394 Y16.3491 F150.00
G01 X32.5503 Y16.3179 F150.00
G01 X32.5607 Y16.2927 F150.00
G01 X32.5663 Y16.2803 F150.00
G01 X32.5757 Y16.2610 F150.00
G01 X32.5887 Y16.2370 F150.00
G01 X32.6060 Y16.2087 F150.00
G01 X32.6214 Y16.1862 F150.00
G01 X32.6378 Y16.1644 F150.00
G01 X32.6552 Y16.1435 F150.00
G01 X32.6736 Y16.1233 F150.00
G01 X32.6887 Y16.1081 F150.00
G01 X32.7087 Y16.0895 F150.00
G01 X32.7235 Y16.0768 F150.00
G01 X32.7431 Y16.0613 F150.00
G01 X32.7729 Y16.0343 F150.00
G01 X32.7996 Y16.0049 F150.00
G01 X32.8233 Y15.9729 F150.00
G01 X32.8437 Y15.9389 F150.00
G01 X32.8607 Y15.9029 F150.00
G01 X32.8741 Y15.8655 F150.00
G01 X32.8837 Y15.8270 F150.00
G01 X32.8895 Y15.7877 F150.00
G01 X32.8915 Y15.7480 F150.00
G01 X32.8895 Y15.7083 F150.00
G01 X32.8837 Y15.6690 F150.00
G01 X32.8741 Y15.6305 F150.00
G01 X32.8607 Y15.5931 F150.00
G01 X32.8437 Y15.5571 F150.00
G01 X32.8233 Y15.5231 F150.00
G01 X32.7996 Y15.4911 F150.00
G01 X32.7729 Y15.4617 F150.00
G01 X32.7435 Y15.4350 F150.00
G01 X32.7115 Y15.4113 F150.00
G01 X32.6775 Y15.3909 F150.00
G01 X32.6415 Y15.3739 F150.00
G01 X32.6041 Y15.3605 F150.00
G01 X32.5656 Y15.3509 F150.00
G01 X32.5263 Y15.3451 F150.00
G01 X32.4866 Y15.3431 F150.00
G01 X32.4469 Y15.3451 F150.00
G01 X32.4076 Y15.3509 F150.00
G01 X32.3691 Y15.3605 F150.00
G01 X32.3317 Y15.3739 F150.00
G01 X32.2957 Y15.3909 F150.00
G01 X32.2617 Y15.4113 F150.00
G01 X32.2297 Y15.4350 F150.00
G01 X32.2003 Y15.4617 F150.00
G01 X32.1736 Y15.4911 F150.00
G01 X32.1499 Y15.5231 F150.00
G01 X32.1295 Y15.5571 F150.00
G01 X32.1125 Y15.5931 F150.00
G01 X32.0991 Y15.6305 F150.00
G01 X32.0895 Y15.6690 F150.00
G01 X32.0837 Y15.7083 F150.00
G01 X32.0817 Y15.7480 F150.00
G01 X32.0837 Y15.7877 F150.00
G01 X32.0895 Y15.8270 F150.00
G01 X32.0991 Y15.8655 F150.00
G01 X32.1125 Y15.9029 F150.00
G01 X32.1295 Y15.9389 F150.00
G01 X32.1499 Y15.9729 F150.00
G01 X32.1736 Y16.0049 F150.00
G01 X32.2003 Y16.0343 F150.00
G01 X32.2301 Y16.0613 F150.00
G01 X32.2497 Y16.0768 F150.00
G01 X32.2703 Y16.0947 F150.00
G01 X32.2845 Y16.1081 F150.00
G01 X32.3036 Y16.1275 F150.00
G01 X32.3218 Y16.1479 F150.00
G01 X32.3390 Y16.1690 F150.00
G01 X32.3552 Y16.1910 F150.00
G01 X32.3704 Y16.2136 F150.00
G01 X32.3845 Y16.2370 F150.00
G01 X32.3911 Y16.2489 F150.00
G01 X32.4010 Y16.2680 F150.00
G01 X32.4125 Y16.2927 F150.00
G01 X32.4249 Y16.3234 F150.00
G01 X32.4338 Y16.3491 F150.00
G01 X32.4400 Y16.3697 F150.00
G01 X32.4435 Y16.3829 F150.00
G01 X32.4497 Y16.4094 F150.00
G01 X32.4545 Y16.4363 F150.00
G01 X32.4582 Y16.4633 F150.00
G01 X32.4600 Y16.4827 F150.00
G01 X32.4612 Y16.5041 F150.00
G01 X32.4617 Y16.5275 F150.00
G01 X32.4617 Y17.6781 F150.00
G01 X32.4612 Y17.7027 F150.00
G01 X32.4593 Y17.7313 F150.00
G01 X32.4568 Y17.7538 F150.00
G01 X32.4524 Y17.7822 F150.00
G01 X32.4466 Y17.8103 F150.00
G01 X32.4394 Y17.8381 F150.00
G01 X32.4309 Y17.8655 F150.00
G01 X32.4240 Y17.8848 F150.00
G01 X32.4132 Y17.9114 F150.00
G01 X32.4011 Y17.9374 F150.00
G01 X32.3877 Y17.9629 F150.00
G01 X32.3731 Y17.9876 F150.00
G01 X32.3573 Y18.0116 F150.00
G01 X32.3441 Y18.0299 F150.00
G01 X32.3263 Y18.0524 F150.00
G01 X32.3074 Y18.0740 F150.00
G01 X32.2874 Y18.0946 F150.00
G01 X32.2726 Y18.1088 F150.00
G01 X32.2510 Y18.1277 F150.00
G01 X32.2285 Y18.1455 F150.00
G01 X32.2051 Y18.1622 F150.00
G01 X32.1862 Y18.1745 F150.00
G01 X32.1615 Y18.1891 F150.00
G01 X32.1360 Y18.2025 F150.00
G01 X32.1175 Y18.2112 F150.00
G01 X32.0911 Y18.2224 F150.00
G01 X32.0641 Y18.2323 F150.00
G01 X32.0367 Y18.2408 F150.00
G01 X32.0148 Y18.2465 F150.00
G01 X31.9868 Y18.2526 F150.00
G01 X31.9666 Y18.2561 F150.00
G01 X31.9381 Y18.2599 F150.00
G01 X31.9095 Y18.2622 F150.00
G01 X31.8808 Y18.2631 F150.00
G01 X25.4903 Y18.2631 F150.00
G01 X25.4619 Y18.2622 F150.00
G01 X25.4335 Y18.2599 F150.00
G01 X25.4052 Y18.2562 F150.00
G01 X25.3772 Y18.2512 F150.00
G01 X25.3494 Y18.2448 F150.00
G01 X25.3220 Y18.2371 F150.00
G01 X25.2950 Y18.2280 F150.00
G01 X25.2685 Y18.2177 F150.00
G01 X25.2425 Y18.2060 F150.00
G01 X25.2117 Y18.1902 F150.00
G01 X25.1993 Y18.1832 F150.00
G01 X25.1802 Y18.1715 F150.00
G01 X25.1516 Y18.1521 F150.00
G01 X25.1402 Y18.1436 F150.00
G01 X25.1226 Y18.1297 F150.00
G01 X25.0966 Y18.1070 F150.00
G01 X25.0804 Y18.0914 F150.00
G01 X25.0705 Y18.0812 F150.00
G01 X25.0474 Y18.0555 F150.00
G01 X25.0333 Y18.0381 F150.00
G01 X25.0247 Y18.0267 F150.00
G01 X25.0049 Y17.9984 F150.00
G01 X24.9972 Y17.9864 F150.00
G01 X24.9858 Y17.9671 F150.00
G01 X24.9696 Y17.9366 F150.00
G01 X24.9635 Y17.9237 F150.00
G01 X24.9545 Y17.9032 F150.00
G01 X24.9421 Y17.8709 F150.00
G01 X24.9351 Y17.8496 F150.00
G01 X24.9311 Y17.8360 F150.00
G01 X24.9228 Y17.8024 F150.00
G01 X24.9174 Y17.7744 F150.00
G01 X24.9134 Y17.7462 F150.00
G01 X24.9108 Y17.7179 F150.00
G01 X24.9095 Y17.6894 F150.00
G01 X24.8952 Y16.5221 F150.00
G01 X24.8957 Y16.5004 F150.00
G01 X24.8964 Y16.4866 F150.00
G01 X24.8996 Y16.4532 F150.00
G01 X24.9026 Y16.4317 F150.00
G01 X24.9061 Y16.4123 F150.00
G01 X24.9089 Y16.3987 F150.00
G01 X24.9140 Y16.3776 F150.00
G01 X24.9234 Y16.3454 F150.00
G01 X24.9304 Y16.3248 F150.00
G01 X24.9375 Y16.3064 F150.00
G01 X24.9428 Y16.2936 F150.00
G01 X24.9517 Y16.2738 F150.00
G01 X24.9605 Y16.2562 F150.00
G01 X24.9708 Y16.2370 F150.00
G01 X24.9882 Y16.2083 F150.00
G01 X25.0037 Y16.1854 F150.00
G01 X25.0166 Y16.1680 F150.00
G01 X25.0251 Y16.1571 F150.00
G01 X25.0470 Y16.1316 F150.00
G01 X25.0660 Y16.1116 F150.00
G01 X25.0860 Y16.0925 F150.00
G01 X25.1023 Y16.0782 F150.00
G01 X25.1224 Y16.0619 F150.00
G01 X25.1529 Y16.0343 F150.00
G01 X25.1796 Y16.0049 F150.00
G01 X25.2033 Y15.9729 F150.00
G01 X25.2237 Y15.9389 F150.00
G01 X25.2407 Y15.9029 F150.00
G01 X25.2541 Y15.8655 F150.00
G01 X25.2637 Y15.8270 F150.00
G01 X25.2695 Y15.7877 F150.00
G01 X25.2715 Y15.7480 F150.00
G01 X25.2695 Y15.7083 F150.00
G01 X25.2637 Y15.6690 F150.00
G01 X25.2541 Y15.6305 F150.00
G01 X25.2407 Y15.5931 F150.00
G01 X25.2237 Y15.5571 F150.00
G01 X25.2033 Y15.5231 F150.00
G01 X25.1796 Y15.4911 F150.00
G01 X25.1529 Y15.4617 F150.00
G01 X25.1235 Y15.4350 F150.00
G01 X25.0915 Y15.4113 F150.00
G01 X25.0575 Y15.3909 F150.00
G01 X25.0215 Y15.3739 F150.00
G01 X24.9841 Y15.3605 F150.00
G01 X24.9456 Y15.3509 F150.00
G01 X24.9063 Y15.3451 F150.00
G01 X24.8666 Y15.3431 F150.00
G01 X24.8269 Y15.3451 F150.00
G01 X24.7876 Y15.3509 F150.00
G01 X24.7491 Y15.3605 F150.00
G01 X24.7117 Y15.3739 F150.00
G01 X24.6757 Y15.3909 F150.00
G01 X24.6417 Y15.4113 F150.00
G01 X24.6097 Y15.4350 F150.00
G01 X24.5803 Y15.4617 F150.00
G01 X24.5536 Y15.4911 F150.00
G01 X24.5299 Y15.5231 F150.00
G01 X24.5095 Y15.5571 F150.00
G01 X24.4925 Y15.5931 F150.00
G01 X24.4791 Y15.6305 F150.00
G01 X24.4695 Y15.6690 F150.00
G01 X24.4637 Y15.7083 F150.00
G01 X24.4617 Y15.7480 F150.00
G01 X24.4637 Y15.7877 F150.00
G01 X24.4695 Y15.8270 F150.00
G01 X24.4791 Y15.8655 F150.00
G01 X24.4925 Y15.9029 F150.00
G01 X24.5095 Y15.9389 F150.00
G01 X24.5299 Y15.9729 F150.00
G01 X24.5536 Y16.0049 F150.00
G01 X24.5803 Y16.0343 F150.00
G01 X24.6098 Y16.0610 F150.00
G01 X24.6291 Y16.0760 F150.00
G01 X24.6470 Y16.0912 F150.00
G01 X24.6628 Y16.1056 F150.00
G01 X24.6795 Y16.1221 F150.00
G01 X24.6970 Y16.1409 F150.00
G01 X24.7136 Y16.1604 F150.00
G01 X24.7319 Y16.1840 F150.00
G01 X24.7455 Y16.2033 F150.00
G01 X24.7615 Y16.2285 F150.00
G01 X24.7763 Y16.2545 F150.00
G01 X24.7897 Y16.2812 F150.00
G01 X24.8017 Y16.3086 F150.00
G01 X24.8124 Y16.3366 F150.00
G01 X24.8215 Y16.3650 F150.00
G01 X24.8292 Y16.3939 F150.00
G01 X24.8355 Y16.4232 F150.00
G01 X24.8390 Y16.4442 F150.00
G01 X24.8420 Y16.4676 F150.00
G01 X24.8439 Y16.4888 F150.00
G01 X24.8452 Y16.5187 F150.00
G01 X24.8595 Y17.6709 F150.00
G01 X24.8589 Y17.7039 F150.00
G01 X24.8569 Y17.7328 F150.00
G01 X24.8554 Y17.7472 F150.00
G01 X24.8526 Y17.7677 F150.00
G01 X24.8475 Y17.7961 F150.00
G01 X24.8424 Y17.8183 F150.00
G01 X24.8360 Y17.8423 F150.00
G01 X24.8285 Y17.8659 F150.00
G01 X24.8186 Y17.8931 F150.00
G01 X24.8098 Y17.9141 F150.00
G01 X24.8011 Y17.9328 F150.00
G01 X24.7908 Y17.9531 F150.00
G01 X24.7766 Y17.9783 F150.00
G01 X24.7634 Y17.9993 F150.00
G01 X24.7494 Y18.0198 F150.00
G01 X24.7357 Y18.0380 F150.00
G01 X24.7227 Y18.0540 F150.00
G01 X24.7078 Y18.0712 F150.00
G01 X24.6907 Y18.0892 F150.00
G01 X24.6729 Y18.1065 F150.00
G01 X24.6512 Y18.1256 F150.00
G01 X24.6336 Y18.1399 F150.00
G01 X24.6170 Y18.1523 F150.00
G01 X24.5983 Y18.1653 F150.00
G01 X24.5738 Y18.1807 F150.00
G01 X24.5523 Y18.1930 F150.00
G01 X24.5302 Y18.2043 F150.00
G01 X24.5039 Y18.2163 F150.00
G01 X24.4828 Y18.2248 F150.00
G01 X24.4555 Y18.2344 F150.00
G01 X24.4357 Y18.2404 F150.00
G01 X24.4137 Y18.2463 F150.00
G01 X24.3895 Y18.2517 F150.00
G01 X24.3651 Y18.2560 F150.00
G01 X24.3426 Y18.2591 F150.00
G01 X24.3220 Y18.2612 F150.00
G01 X24.2931 Y18.2628 F150.00
G01 X24.2745 Y18.2631 F150.00
G01 X10.2187 Y18.2631 F150.00
G01 X10.1856 Y18.2622 F150.00
G01 X10.1609 Y18.2602 F150.00
G01 X10.1363 Y18.2573 F150.00
G01 X10.1037 Y18.2517 F150.00
G01 X10.0855 Y18.2477 F150.00
G01 X10.0655 Y18.2427 F150.00
G01 X10.0476 Y18.2375 F150.00
G01 X10.0240 Y18.2297 F150.00
G01 X10.0027 Y18.2218 F150.00
G01 X9.9837 Y18.2138 F150.00
G01 X9.9630 Y18.2043 F150.00
G01 X9.9409 Y18.1930 F150.00
G01 X9.9194 Y18.1807 F150.00
G01 X9.9000 Y18.1687 F150.00
G01 X9.8829 Y18.1571 F150.00
G01 X9.8645 Y18.1437 F150.00
G01 X9.8451 Y18.1283 F150.00
G01 X9.8310 Y18.1162 F150.00
G01 X9.8158 Y18.1022 F150.00
G01 X9.7996 Y18.0862 F150.00
G01 X9.7854 Y18.0712 F150.00
G01 X9.7665 Y18.0493 F150.00
G01 X9.7524 Y18.0314 F150.00
G01 X9.7403 Y18.0147 F150.00
G01 X9.7298 Y17.9993 F150.00
G01 X9.7166 Y17.9783 F150.00
G01 X9.7053 Y17.9586 F150.00
G01 X9.6957 Y17.9403 F150.00
G01 X9.6859 Y17.9197 F150.00
G01 X9.6777 Y17.9008 F150.00
G01 X9.6695 Y17.8796 F150.00
G01 X9.6627 Y17.8601 F150.00
G01 X9.6572 Y17.8423 F150.00
G01 X9.6508 Y17.8183 F150.00
G01 X9.6457 Y17.7961 F150.00
G01 X9.6419 Y17.7759 F150.00
G01 X9.6378 Y17.7472 F150.00
G01 X9.6355 Y17.7246 F150.00
G01 X9.6340 Y17.6957 F150.00
G01 X9.6337 Y17.6709 F150.00
G01 X9.6480 Y16.5187 F150.00
G01 X9.6488 Y16.4974 F150.00
G01 X9.6506 Y16.4739 F150.00
G01 X9.6530 Y16.4527 F150.00
G01 X9.6577 Y16.4232 F150.00
G01 X9.6640 Y16.3939 F150.00
G01 X9.6717 Y16.3650 F150.00
G01 X9.6808 Y16.3366 F150.00
G01 X9.6915 Y16.3086 F150.00
G01 X9.7035 Y16.2812 F150.00
G01 X9.7169 Y16.2545 F150.00
G01 X9.7317 Y16.2285 F150.00
G01 X9.7477 Y16.2033 F150.00
G01 X9.7613 Y16.1840 F150.00
G01 X9.7796 Y16.1604 F150.00
G01 X9.7962 Y16.1409 F150.00
G01 X9.8137 Y16.1221 F150.00
G01 X9.8304 Y16.1056 F150.00
G01 X9.8462 Y16.0912 F150.00
G01 X9.8641 Y16.0760 F150.00
G01 X9.8834 Y16.0610 F150.00
G01 X9.9129 Y16.0343 F150.00
G01 X9.9396 Y16.0049 F150.00
G01 X9.9633 Y15.9729 F150.00
G01 X9.9837 Y15.9389 F150.00
G01 X10.0007 Y15.9029 F150.00
G01 X10.0141 Y15.8655 F150.00
G01 X10.0237 Y15.8270 F150.00
G01 X10.0295 Y15.7877 F150.00
G01 X10.0315 Y15.7480 F150.00
G01 X10.0295 Y15.7083 F150.00
G01 X10.0237 Y15.6690 F150.00
G01 X10.0141 Y15.6305 F150.00
G01 X10.0007 Y15.5931 F150.00
G01 X9.9837 Y15.5571 F150.00
G01 X9.9633 Y15.5231 F150.00
G01 X9.9396 Y15.4911 F150.00
G01 X9.9129 Y15.4617 F150.00
G01 X9.8835 Y15.4350 F150.00
G01 X9.8515 Y15.4113 F150.00
G01 X9.8175 Y15.3909 F150.00
G01 X9.7815 Y15.3739 F150.00
G01 X9.7441 Y15.3605 F150.00
G01 X9.7056 Y15.3509 F150.00
G01 X9.6663 Y15.3451 F150.00
G01 X9.6266 Y15.3431 F150.00
G01 X9.5869 Y15.3451 F150.00
G01 X9.5476 Y15.3509 F150.00
G01 X9.5091 Y15.3605 F150.00
G01 X9.4717 Y15.3739 F150.00
G01 X9.4357 Y15.3909 F150.00
G01 X9.4017 Y15.4113 F150.00
G01 X9.3697 Y15.4350 F150.00
G01 X9.3403 Y15.4617 F150.00
G01 X9.3136 Y15.4911 F150.00
G01 X9.2899 Y15.5231 F150.00
G01 X9.2695 Y15.5571 F150.00
G01 X9.2525 Y15.5931 F150.00
G01 X9.2391 Y15.6305 F150.00
G01 X9.2295 Y15.6690 F150.00
G01 X9.2237 Y15.7083 F150.00
G01 X9.2217 Y15.7480 F150.00
G01 X9.2237 Y15.7877 F150.00
G01 X9.2295 Y15.8270 F150.00
G01 X9.2391 Y15.8655 F150.00
G01 X9.2525 Y15.9029 F150.00
G01 X9.2695 Y15.9389 F150.00
G01 X9.2899 Y15.9729 F150.00
G01 X9.3136 Y16.0049 F150.00
G01 X9.3403 Y16.0343 F150.00
G01 X9.3708 Y16.0619 F150.00
G01 X9.3909 Y16.0782 F150.00
G01 X9.4072 Y16.0925 F150.00
G01 X9.4272 Y16.1116 F150.00
G01 X9.4462 Y16.1316 F150.00
G01 X9.4643 Y16.1525 F150.00
G01 X9.4849 Y16.1790 F150.00
G01 X9.4929 Y16.1903 F150.00
G01 X9.5050 Y16.2083 F150.00
G01 X9.5224 Y16.2370 F150.00
G01 X9.5327 Y16.2562 F150.00
G01 X9.5415 Y16.2738 F150.00
G01 X9.5472 Y16.2864 F150.00
G01 X9.5557 Y16.3064 F150.00
G01 X9.5674 Y16.3379 F150.00
G01 X9.5739 Y16.3586 F150.00
G01 X9.5792 Y16.3776 F150.00
G01 X9.5825 Y16.3910 F150.00
G01 X9.5871 Y16.4123 F150.00
G01 X9.5926 Y16.4453 F150.00
G01 X9.5951 Y16.4669 F150.00
G01 X9.5968 Y16.4866 F150.00
G01 X9.5975 Y16.5004 F150.00
G01 X9.5980 Y16.5221 F150.00
G01 X9.5837 Y17.6894 F150.00
G01 X9.5824 Y17.7179 F150.00
G01 X9.5798 Y17.7462 F150.00
G01 X9.5758 Y17.7744 F150.00
G01 X9.5704 Y17.8024 F150.00
G01 X9.5637 Y17.8301 F150.00
G01 X9.5537 Y17.8632 F150.00
G01 X9.5490 Y17.8766 F150.00
G01 X9.5410 Y17.8976 F150.00
G01 X9.5271 Y17.9292 F150.00
G01 X9.5209 Y17.9420 F150.00
G01 X9.5104 Y17.9618 F150.00
G01 X9.4927 Y17.9915 F150.00
G01 X9.4804 Y18.0102 F150.00
G01 X9.4721 Y18.0218 F150.00
G01 X9.4510 Y18.0492 F150.00
G01 X9.4365 Y18.0662 F150.00
G01 X9.4269 Y18.0768 F150.00
G01 X9.4026 Y18.1014 F150.00
G01 X9.3921 Y18.1111 F150.00
G01 X9.3753 Y18.1258 F150.00
G01 X9.3482 Y18.1473 F150.00
G01 X9.3366 Y18.1557 F150.00
G01 X9.3181 Y18.1682 F150.00
G01 X9.2886 Y18.1862 F150.00
G01 X9.2689 Y18.1970 F150.00
G01 X9.2562 Y18.2034 F150.00
G01 X9.2247 Y18.2177 F150.00
G01 X9.1982 Y18.2280 F150.00
G01 X9.1712 Y18.2371 F150.00
G01 X9.1438 Y18.2448 F150.00
G01 X9.1160 Y18.2512 F150.00
G01 X9.0880 Y18.2562 F150.00
G01 X9.0597 Y18.2599 F150.00
G01 X9.0313 Y18.2622 F150.00
G01 X9.0029 Y18.2631 F150.00
G01 X2.6165 Y18.2631 F150.00
G01 X2.5919 Y18.2626 F150.00
G01 X2.5633 Y18.2607 F150.00
G01 X2.5408 Y18.2582 F150.00
G01 X2.5124 Y18.2538 F150.00
G01 X2.4843 Y18.2480 F150.00
G01 X2.4644 Y18.2430 F150.00
G01 X2.4369 Y18.2348 F150.00
G01 X2.4156 Y18.2275 F150.00
G01 X2.3888 Y18.2170 F150.00
G01 X2.3701 Y18.2087 F150.00
G01 X2.3444 Y18.1959 F150.00
G01 X2.3246 Y18.1850 F150.00
G01 X2.3001 Y18.1701 F150.00
G01 X2.2830 Y18.1587 F150.00
G01 X2.2647 Y18.1455 F150.00
G01 X2.2422 Y18.1277 F150.00
G01 X2.2267 Y18.1143 F150.00
G01 X2.2058 Y18.0946 F150.00
G01 X2.1900 Y18.0785 F150.00
G01 X2.1709 Y18.0571 F150.00
G01 X2.1528 Y18.0348 F150.00
G01 X2.1406 Y18.0183 F150.00
G01 X2.1245 Y17.9945 F150.00
G01 X2.1126 Y17.9753 F150.00
G01 X2.0987 Y17.9502 F150.00
G01 X2.0894 Y17.9319 F150.00
G01 X2.0776 Y17.9058 F150.00
G01 X2.0692 Y17.8848 F150.00
G01 X2.0598 Y17.8577 F150.00
G01 X2.0538 Y17.8381 F150.00
G01 X2.0481 Y17.8162 F150.00
G01 X2.0420 Y17.7882 F150.00
G01 X2.0385 Y17.7680 F150.00
G01 X2.0347 Y17.7395 F150.00
G01 X2.0324 Y17.7109 F150.00
G01 X2.0315 Y17.6781 F150.00
G01 X2.0315 Y16.5275 F150.00
G01 X2.0321 Y16.5015 F150.00
G01 X2.0342 Y16.4713 F150.00
G01 X2.0370 Y16.4476 F150.00
G01 X2.0419 Y16.4177 F150.00
G01 X2.0464 Y16.3965 F150.00
G01 X2.0539 Y16.3672 F150.00
G01 X2.0630 Y16.3383 F150.00
G01 X2.0735 Y16.3099 F150.00
G01 X2.0855 Y16.2820 F150.00
G01 X2.0989 Y16.2548 F150.00
G01 X2.1137 Y16.2284 F150.00
G01 X2.1299 Y16.2028 F150.00
G01 X2.1410 Y16.1867 F150.00
G01 X2.1566 Y16.1660 F150.00
G01 X2.1759 Y16.1426 F150.00
G01 X2.1920 Y16.1250 F150.00
G01 X2.2071 Y16.1096 F150.00
G01 X2.2245 Y16.0933 F150.00
G01 X2.2408 Y16.0791 F150.00
G01 X2.2631 Y16.0613 F150.00
G01 X2.2929 Y16.0343 F150.00
G01 X2.3196 Y16.0049 F150.00
G01 X2.3433 Y15.9729 F150.00
G01 X2.3637 Y15.9389 F150.00
G01 X2.3807 Y15.9029 F150.00
G01 X2.3941 Y15.8655 F150.00
G01 X2.4037 Y15.8270 F150.00
G01 X2.4095 Y15.7877 F150.00
G01 X2.4115 Y15.7480 F150.00
G01 X2.4095 Y15.7083 F150.00
G01 X2.4037 Y15.6690 F150.00
G01 X2.3941 Y15.6305 F150.00
G01 X2.3807 Y15.5931 F150.00
G01 X2.3637 Y15.5571 F150.00
G01 X2.3433 Y15.5231 F150.00
G01 X2.3196 Y15.4911 F150.00
G01 X2.2929 Y15.4617 F150.00
G01 X2.2635 Y15.4350 F150.00
G01 X2.2315 Y15.4113 F150.00
G01 X2.1975 Y15.3909 F150.00
G01 X2.1615 Y15.3739 F150.00
G01 X2.1241 Y15.3605 F150.00
G01 X2.0856 Y15.3509 F150.00
G01 X2.0463 Y15.3451 F150.00
G01 X2.0066 Y15.3431 F150.00
G01 X1.9669 Y15.3451 F150.00
G01 X1.9276 Y15.3509 F150.00
G01 X1.8891 Y15.3605 F150.00
G01 X1.8517 Y15.3739 F150.00
G01 X1.8157 Y15.3909 F150.00
G01 X1.7817 Y15.4113 F150.00
G01 X1.7497 Y15.4350 F150.00
G01 X1.7203 Y15.4617 F150.00
G01 X1.6936 Y15.4911 F150.00
G01 X1.6699 Y15.5231 F150.00
G01 X1.6495 Y15.5571 F150.00
G01 X1.6325 Y15.5931 F150.00
G01 X1.6191 Y15.6305 F150.00
G01 X1.6095 Y15.6690 F150.00
G01 X1.6037 Y15.7083 F150.00
G01 X1.6017 Y15.7480 F150.00
G01 X1.6037 Y15.7877 F150.00
G01 X1.6095 Y15.8270 F150.00
G01 X1.6191 Y15.8655 F150.00
G01 X1.6325 Y15.9029 F150.00
G01 X1.6495 Y15.9389 F150.00
G01 X1.6699 Y15.9729 F150.00
G01 X1.6936 Y16.0049 F150.00
G01 X1.7203 Y16.0343 F150.00
G01 X1.7501 Y16.0613 F150.00
G00 Z2.0000
G00 X9.6260 Y15.8387
G01 F50.00
G01 Z0.0000
G01 F150.00
G01 X9.6445 Y15.8230 F150.00
G01 X9.6668 Y15.8050 F150.00
G01 X9.6765 Y15.7963 F150.00
G01 X9.6803 Y15.7921 F150.00
G01 X9.6844 Y15.7866 F150.00
G01 X9.6879 Y15.7808 F150.00
G01 X9.6908 Y15.7746 F150.00
G01 X9.6931 Y15.7682 F150.00
G01 X9.6948 Y15.7616 F150.00
G01 X9.6958 Y15.7548 F150.00
G01 X9.6961 Y15.7480 F150.00
G01 X9.6958 Y15.7412 F150.00
G01 X9.6948 Y15.7344 F150.00
G01 X9.6931 Y15.7278 F150.00
G01 X9.6908 Y15.7214 F150.00
G01 X9.6879 Y15.7152 F150.00
G01 X9.6844 Y15.7094 F150.00
G01 X9.6803 Y15.7039 F150.00
G01 X9.6757 Y15.6989 F150.00
G01 X9.6707 Y15.6943 F150.00
G01 X9.6652 Y15.6902 F150.00
G01 X9.6594 Y15.6867 F150.00
G01 X9.6532 Y15.6838 F150.00
G01 X9.6468 Y15.6815 F150.00
G01 X9.6402 Y15.6798 F150.00
G01 X9.6334 Y15.6788 F150.00
G01 X9.6266 Y15.6785 F150.00
G01 X9.6198 Y15.6788 F150.00
G01 X9.6130 Y15.6798 F150.00
G01 X9.6064 Y15.6815 F150.00
G01 X9.6000 Y15.6838 F150.00
G01 X9.5938 Y15.6867 F150.00
G01 X9.5880 Y15.6902 F150.00
G01 X9.5825 Y15.6943 F150.00
G01 X9.5775 Y15.6989 F150.00
G01 X9.5729 Y15.7039 F150.00
G01 X9.5688 Y15.7094 F150.00
G01 X9.5653 Y15.7152 F150.00
G01 X9.5624 Y15.7214 F150.00
G01 X9.5601 Y15.7278 F150.00
G01 X9.5584 Y15.7344 F150.00
G01 X9.5574 Y15.7412 F150.00
G01 X9.5571 Y15.7480 F150.00
G01 X9.5574 Y15.7548 F150.00
G01 X9.5584 Y15.7616 F150.00
G01 X9.5601 Y15.7682 F150.00
G01 X9.5624 Y15.7746 F150.00
G01 X9.5653 Y15.7808 F150.00
G01 X9.5688 Y15.7866 F150.00
G01 X9.5729 Y15.7921 F150.00
G01 X9.5775 Y15.7971 F150.00
G01 X9.5871 Y15.8059 F150.00
G01 X9.6060 Y15.8214 F150.00
G01 X9.6260 Y15.8387 F150.00
G00 Z2.0000
G00 X12.1666 Y15.6573
G01 F50.00
G01 Z0.0000
G01 F150.00
G01 X12.1456 Y15.6753 F150.00
G01 X12.1255 Y15.6916 F150.00
G01 X12.1175 Y15.6989 F150.00
G01 X12.1129 Y15.7039 F150.00
G01 X12.1088 Y15.7094 F150.00
G01 X12.1053 Y15.7152 F150.00
G01 X12.1024 Y15.7214 F150.00
G01 X12.1001 Y15.7278 F150.00
G01 X12.0984 Y15.7344 F150.00
G01 X12.0974 Y15.7412 F150.00
G01 X12.0971 Y15.7480 F150.00
G01 X12.0974 Y15.7548 F150.00
G01 X12.0984 Y15.7616 F150.00
G01 X12.1001 Y15.7682 F150.00
G01 X12.1024 Y15.7746 F150.00
G01 X12.1053 Y15.7808 F150.00
G01 X12.1088 Y15.7866 F150.00
G01 X12.1129 Y15.7921 F150.00
G01 X12.1175 Y15.7971 F150.00
G01 X12.1225 Y15.8017 F150.00
G01 X12.1280 Y15.8058 F150.00
G01 X12.1338 Y15.8093 F150.00
G01 X12.1400 Y15.8122 F150.00
G01 X12.1464 Y15.8145 F150.00
G01 X12.1530 Y15.8162 F150.00
G01 X12.1598 Y15.8172 F150.00
G01 X12.1666 Y15.8175 F150.00
G01 X12.1734 Y15.8172 F150.00
G01 X12.1802 Y15.8162 F150.00
G01 X12.1868 Y15.8145 F150.00
G01 X12.1932 Y15.8122 F150.00
G01 X12.1994 Y15.8093 F150.00
G01 X12.2052 Y15.8058 F150.00
G01 X12.2107 Y15.8017 F150.00
G01 X12.2157 Y15.7971 F150.00
G01 X12.2203 Y15.7921 F150.00
G01 X12.2244 Y15.7866 F150.00
G01 X12.2279 Y15.7808 F150.00
G01 X12.2308 Y15.7746 F150.00
G01 X12.2331 Y15.7682 F150.00
G01 X12.2348 Y15.7616 F150.00
G01 X12.2358 Y15.7548 F150.00
G01 X12.2361 Y15.7480 F150.00
G01 X12.2358 Y15.7412 F150.00
G01 X12.2348 Y15.7344 F150.00
G01 X12.2331 Y15.7278 F150.00
G01 X12.2308 Y15.7214 F150.00
G01 X12.2279 Y15.7152 F150.00
G01 X12.2244 Y15.7094 F150.00
G01 X12.2203 Y15.7039 F150.00
G01 X12.2157 Y15.6989 F150.00
G01 X12.2078 Y15.6917 F150.00
G01 X12.1886 Y15.6761 F150.00
G01 X12.1666 Y15.6573 F150.00
G00 Z2.0000
G00 X17.2460 Y15.6573
G01 F50.00
G01 Z0.0000
G01 F150.00
G01 X17.2259 Y15.6747 F150.00
G01 X17.2071 Y15.6901 F150.00
G01 X17.1975 Y15.6989 F150.00
G01 X17.1929 Y15.7039 F150.00
G01 X17.1888 Y15.7094 F150.00
G01 X17.1853 Y15.7152 F150.00
G01 X17.1824 Y15.7214 F150.00
G01 X17.1801 Y15.7278 F150.00
G01 X17.1784 Y15.7344 F150.00
G01 X17.1774 Y15.7412 F150.00
G01 X17.1771 Y15.7480 F150.00
G01 X17.1774 Y15.7548 F150.00
G01 X17.1784 Y15.7616 F150.00
G01 X17.1801 Y15.7682 F150.00
G01 X17.1824 Y15.7746 F150.00
G01 X17.1853 Y15.7808 F150.00
G01 X17.1888 Y15.7866 F150.00
G01 X17.1929 Y15.7921 F150.00
G01 X17.1975 Y15.7971 F150.00
G01 X17.2025 Y15.8017 F150.00
G01 X17.2080 Y15.8058 F150.00
G01 X17.2138 Y15.8093 F150.00
G01 X17.2200 Y15.8122 F150.00
G01 X17.2264 Y15.8145 F150.00
G01 X17.2330 Y15.8162 F150.00
G01 X17.2398 Y15.8172 F150.00
G01 X17.2466 Y15.8175 F150.00
G01 X17.2534 Y15.8172 F150.00
G01 X17.2602 Y15.8162 F150.00
G01 X17.2668 Y15.8145 F150.00
G01 X17.2732 Y15.8122 F150.00
G01 X17.2794 Y15.8093 F150.00
G01 X17.2852 Y15.8058 F150.00
G01 X17.2907 Y15.8017 F150.00
G01 X17.2957 Y15.7971 F150.00
G01 X17.3003 Y15.7921 F150.00
G01 X17.3044 Y15.7866 F150.00
G01 X17.3079 Y15.7808 F150.00
G01 X17.3108 Y15.7746 F150.00
G01 X17.3131 Y15.7682 F150.00
G01 X17.3148 Y15.7616 F150.00
G01 X17.3158 Y15.7548 F150.00
G01 X17.3161 Y15.7480 F150.00
G01 X17.3158 Y15.7412 F150.00
G01 X17.3148 Y15.7344 F150.00
G01 X17.3131 Y15.7278 F150.00
G01 X17.3108 Y15.7214 F150.00
G01 X17.3079 Y15.7152 F150.00
G01 X17.3044 Y15.7094 F150.00
G01 X17.3003 Y15.7039 F150.00
G01 X17.2957 Y15.6989 F150.00
G01 X17.2889 Y15.6927 F150.00
G01 X17.2644 Y15.6730 F150.00
G01 X17.2460 Y15.6573 F150.00
G00 Z2.0000
G00 X19.7471 Y15.6901
G01 F50.00
G01 Z0.0000
G01 F150.00
G01 X19.7659 Y15.6747 F150.00
G01 X19.7860 Y15.6573 F150.00
G01 X19.8044 Y15.6730 F150.00
G01 X19.8289 Y15.6927 F150.00
G01 X19.8357 Y15.6989 F150.00
G01 X19.8403 Y15.7039 F150.00
G01 X19.8444 Y15.7094 F150.00
G01 X19.8479 Y15.7152 F150.00
G01 X19.8508 Y15.7214 F150.00
G01 X19.8531 Y15.7278 F150.00
G01 X19.8548 Y15.7344 F150.00
G01 X19.8558 Y15.7412 F150.00
G01 X19.8561 Y15.7480 F150.00
G01 X19.8558 Y15.7548 F150.00
G01 X19.8548 Y15.7616 F150.00
G01 X19.8531 Y15.7682 F150.00
G01 X19.8508 Y15.7746 F150.00
G01 X19.8479 Y15.7808 F150.00
G01 X19.8444 Y15.7866 F150.00
G01 X19.8403 Y15.7921 F150.00
G01 X19.8357 Y15.7971 F150.00
G01 X19.8307 Y15.8017 F150.00
G01 X19.8252 Y15.8058 F150.00
G01 X19.8194 Y15.8093 F150.00
G01 X19.8132 Y15.8122 F150.00
G01 X19.8068 Y15.8145 F150.00
G01 X19.8002 Y15.8162 F150.00
G01 X19.7934 Y15.8172 F150.00
G01 X19.7866 Y15.8175 F150.00
G01 X19.7798 Y15.8172 F150.00
G01 X19.7730 Y15.8162 F150.00
G01 X19.7664 Y15.8145 F150.00
G01 X19.7600 Y15.8122 F150.00
G01 X19.7538 Y15.8093 F150.00
G01 X19.7480 Y15.8058 F150.00
G01 X19.7425 Y15.8017 F150.00
G01 X19.7375 Y15.7971 F150.00
G01 X19.7329 Y15.7921 F150.00
G01 X19.7288 Y15.7866 F150.00
G01 X19.7253 Y15.7808 F150.00
G01 X19.7224 Y15.7746 F150.00
G01 X19.7201 Y15.7682 F150.00
G01 X19.7184 Y15.7616 F150.00
G01 X19.7174 Y15.7548 F150.00
G01 X19.7171 Y15.7480 F150.00
G01 X19.7174 Y15.7412 F150.00
G01 X19.7184 Y15.7344 F150.00
G01 X19.7201 Y15.7278 F150.00
G01 X19.7224 Y15.7214 F150.00
G01 X19.7253 Y15.7152 F150.00
G01 X19.7288 Y15.7094 F150.00
G01 X19.7329 Y15.7039 F150.00
G01 X19.7375 Y15.6989 F150.00
G01 X19.7471 Y15.6901 F150.00
G01 X19.5308 Y15.4341 F150.00
G01 X19.5569 Y15.4127 F150.00
G01 X19.5773 Y15.3941 F150.00
G01 X19.5968 Y15.3745 F150.00
G01 X19.6192 Y15.3495 F150.00
G01 X19.6366 Y15.3280 F150.00
G01 X19.6529 Y15.3057 F150.00
G01 X19.6682 Y15.2827 F150.00
G01 X19.6794 Y15.2641 F150.00
G01 X19.6862 Y15.2520 F150.00
G01 X19.6989 Y15.2275 F150.00
G01 X19.7104 Y15.2023 F150.00
G01 X19.7207 Y15.1767 F150.00
G01 X19.7316 Y15.1450 F150.00
G01 X19.7392 Y15.1184 F150.00
G01 X19.7455 Y15.0915 F150.00
G01 X19.7482 Y15.0779 F150.00
G01 X19.7517 Y15.0565 F150.00
G01 X19.7551 Y15.0290 F150.00
G01 X19.7575 Y14.9956 F150.00
G01 X19.7579 Y14.9640 F150.00
G01 X19.7365 Y13.2434 F150.00
G01 X19.7374 Y13.2288 F150.00
G01 X19.7398 Y13.2221 F150.00
G01 X19.7424 Y13.2182 F150.00
G01 X19.7457 Y13.2148 F150.00
G01 X19.7518 Y13.2111 F150.00
G01 X19.7563 Y13.2097 F150.00
G01 X19.7724 Y13.2085 F150.00
G01 X35.0423 Y13.2086 F150.00
G01 X35.0545 Y13.2093 F150.00
G01 X35.0592 Y13.2103 F150.00
G01 X35.0635 Y13.2121 F150.00
G01 X35.0692 Y13.2164 F150.00
G01 X35.0734 Y13.2221 F150.00
G01 X35.0752 Y13.2265 F150.00
G01 X35.0761 Y13.2312 F150.00
G01 X35.0768 Y13.2449 F150.00
G01 X35.0553 Y14.9640 F150.00
G01 X35.0555 Y14.9877 F150.00
G01 X35.0565 Y15.0094 F150.00
G01 X35.0581 Y15.0290 F150.00
G01 X35.0615 Y15.0565 F150.00
G01 X35.0636 Y15.0701 F150.00
G01 X35.0677 Y15.0915 F150.00
G01 X35.0740 Y15.1184 F150.00
G01 X35.0834 Y15.1506 F150.00
G01 X35.0925 Y15.1767 F150.00
G01 X35.1005 Y15.1969 F150.00
G01 X35.1060 Y15.2096 F150.00
G01 X35.1178 Y15.2346 F150.00
G01 X35.1338 Y15.2641 F150.00
G01 X35.1482 Y15.2877 F150.00
G01 X35.1637 Y15.3106 F150.00
G01 X35.1802 Y15.3327 F150.00
G01 X35.1978 Y15.3540 F150.00
G01 X35.2124 Y15.3702 F150.00
G01 X35.2317 Y15.3900 F150.00
G01 X35.2460 Y15.4035 F150.00
G01 X35.2624 Y15.4179 F150.00
G01 X35.2824 Y15.4341 F150.00
G01 X35.3129 Y15.4617 F150.00
G01 X35.3396 Y15.4911 F150.00
G01 X35.3633 Y15.5231 F150.00
G01 X35.3837 Y15.5571 F150.00
G01 X35.4007 Y15.5931 F150.00
G01 X35.4141 Y15.6305 F150.00
G01 X35.4237 Y15.6690 F150.00
G01 X35.4295 Y15.7083 F150.00
G01 X35.4315 Y15.7480 F150.00
G01 X35.4295 Y15.7877 F150.00
G01 X35.4237 Y15.8270 F150.00
G01 X35.4141 Y15.8655 F150.00
G01 X35.4007 Y15.9029 F150.00
G01 X35.3837 Y15.9389 F150.00
G01 X35.3633 Y15.9729 F150.00
G01 X35.3396 Y16.0049 F150.00
G01 X35.3129 Y16.0343 F150.00
G01 X35.2835 Y16.0610 F150.00
G01 X35.2515 Y16.0847 F150.00
G01 X35.2175 Y16.1051 F150.00
G01 X35.1815 Y16.1221 F150.00
G01 X35.1441 Y16.1355 F150.00
G01 X35.1056 Y16.1451 F150.00
G01 X35.0663 Y16.1509 F150.00
G01 X35.0266 Y16.1529 F150.00
G01 X34.9869 Y16.1509 F150.00
G01 X34.9476 Y16.1451 F150.00
G01 X34.9091 Y16.1355 F150.00
G01 X34.8717 Y16.1221 F150.00
G01 X34.8357 Y16.1051 F150.00
G01 X34.8017 Y16.0847 F150.00
G01 X34.7697 Y16.0610 F150.00
G01 X34.7403 Y16.0343 F150.00
G01 X34.7136 Y16.0049 F150.00
G01 X34.6899 Y15.9729 F150.00
G01 X34.6695 Y15.9389 F150.00
G01 X34.6525 Y15.9029 F150.00
G01 X34.6391 Y15.8655 F150.00
G01 X34.6295 Y15.8270 F150.00
G01 X34.6237 Y15.7877 F150.00
G01 X34.6217 Y15.7480 F150.00
G01 X34.6237 Y15.7083 F150.00
G01 X34.6295 Y15.6690 F150.00
G01 X34.6391 Y15.6305 F150.00
G01 X34.6525 Y15.5931 F150.00
G01 X34.6695 Y15.5571 F150.00
G01 X34.6899 Y15.5231 F150.00
G01 X34.7136 Y15.4911 F150.00
G01 X34.7403 Y15.4617 F150.00
G01 X34.7698 Y15.4350 F150.00
G01 X34.7891 Y15.4199 F150.00
G01 X34.8071 Y15.4047 F150.00
G01 X34.8228 Y15.3904 F150.00
G01 X34.8396 Y15.3738 F150.00
G01 X34.8570 Y15.3551 F150.00
G01 X34.8737 Y15.3356 F150.00
G01 X34.8920 Y15.3120 F150.00
G01 X34.9055 Y15.2927 F150.00
G01 X34.9216 Y15.2675 F150.00
G01 X34.9363 Y15.2415 F150.00
G01 X34.9497 Y15.2148 F150.00
G01 X34.9618 Y15.1874 F150.00
G01 X34.9724 Y15.1595 F150.00
G01 X34.9816 Y15.1310 F150.00
G01 X34.9893 Y15.1021 F150.00
G01 X34.9955 Y15.0729 F150.00
G01 X35.0002 Y15.0433 F150.00
G01 X35.0027 Y15.0221 F150.00
G01 X35.0045 Y14.9987 F150.00
G01 X35.0053 Y14.9774 F150.00
G01 X35.0194 Y13.8506 F150.00
G01 X35.0188 Y13.8175 F150.00
G01 X35.0176 Y13.7969 F150.00
G01 X35.0162 Y13.7825 F150.00
G01 X35.0134 Y13.7599 F150.00
G01 X35.0112 Y13.7456 F150.00
G01 X35.0057 Y13.7172 F150.00
G01 X34.9987 Y13.6891 F150.00
G01 X34.9929 Y13.6693 F150.00
G01 X34.9857 Y13.6477 F150.00
G01 X34.9770 Y13.6245 F150.00
G01 X34.9672 Y13.6017 F150.00
G01 X34.9574 Y13.5812 F150.00
G01 X34.9478 Y13.5629 F150.00
G01 X34.9333 Y13.5378 F150.00
G01 X34.9234 Y13.5221 F150.00
G01 X34.9093 Y13.5017 F150.00
G01 X34.8918 Y13.4786 F150.00
G01 X34.8773 Y13.4611 F150.00
G01 X34.8578 Y13.4397 F150.00
G01 X34.8433 Y13.4250 F150.00
G01 X34.8267 Y13.4094 F150.00
G01 X34.8080 Y13.3931 F150.00
G01 X34.7886 Y13.3777 F150.00
G01 X34.7702 Y13.3643 F150.00
G01 X34.7531 Y13.3527 F150.00
G01 X34.7284 Y13.3376 F150.00
G01 X34.7122 Y13.3285 F150.00
G01 X34.6901 Y13.3172 F150.00
G01 X34.6638 Y13.3052 F150.00
G01 X34.6427 Y13.2966 F150.00
G01 X34.6154 Y13.2870 F150.00
G01 X34.5956 Y13.2810 F150.00
G01 X34.5737 Y13.2751 F150.00
G01 X34.5494 Y13.2697 F150.00
G01 X34.5250 Y13.2654 F150.00
G01 X34.5025 Y13.2623 F150.00
G01 X34.4737 Y13.2596 F150.00
G01 X34.4530 Y13.2586 F150.00
G01 X34.4344 Y13.2583 F150.00
G01 X27.9946 Y13.2583 F150.00
G01 X27.9657 Y13.2592 F150.00
G01 X27.9410 Y13.2612 F150.00
G01 X27.9082 Y13.2654 F150.00
G01 X27.8838 Y13.2697 F150.00
G01 X27.8515 Y13.2772 F150.00
G01 X27.8276 Y13.2839 F150.00
G01 X27.7963 Y13.2945 F150.00
G01 X27.7732 Y13.3035 F150.00
G01 X27.7431 Y13.3172 F150.00
G01 X27.7247 Y13.3265 F150.00
G01 X27.7120 Y13.3335 F150.00
G01 X27.6994 Y13.3407 F150.00
G01 X27.6801 Y13.3527 F150.00
G01 X27.6681 Y13.3608 F150.00
G01 X27.6512 Y13.3727 F150.00
G01 X27.6252 Y13.3931 F150.00
G01 X27.6111 Y13.4053 F150.00
G01 X27.5958 Y13.4192 F150.00
G01 X27.5825 Y13.4322 F150.00
G01 X27.5697 Y13.4457 F150.00
G01 X27.5600 Y13.4564 F150.00
G01 X27.5466 Y13.4722 F150.00
G01 X27.5375 Y13.4835 F150.00
G01 X27.5239 Y13.5017 F150.00
G01 X27.5076 Y13.5256 F150.00
G01 X27.4999 Y13.5378 F150.00
G01 X27.4894 Y13.5556 F150.00
G01 X27.4805 Y13.5720 F150.00
G01 X27.4721 Y13.5886 F150.00
G01 X27.4635 Y13.6074 F150.00
G01 X27.4562 Y13.6245 F150.00
G01 X27.4447 Y13.6555 F150.00
G01 X27.4385 Y13.6752 F150.00
G01 X27.4345 Y13.6891 F150.00
G01 X27.4289 Y13.7112 F150.00
G01 X27.4258 Y13.7253 F150.00
G01 X27.4207 Y13.7538 F150.00
G01 X27.4170 Y13.7825 F150.00
G01 X27.4147 Y13.8114 F150.00
G01 X27.4140 Y13.8258 F150.00
G01 X27.4138 Y13.8465 F150.00
G01 X27.4279 Y14.9731 F150.00
G01 X27.4284 Y14.9923 F150.00
G01 X27.4298 Y15.0136 F150.00
G01 X27.4317 Y15.0328 F150.00
G01 X27.4342 Y15.0518 F150.00
G01 X27.4377 Y15.0729 F150.00
G01 X27.4415 Y15.0917 F150.00
G01 X27.4499 Y15.1249 F150.00
G01 X27.4560 Y15.1453 F150.00
G01 X27.4608 Y15.1595 F150.00
G01 X27.4659 Y15.1735 F150.00
G01 X27.4747 Y15.1953 F150.00
G01 X27.4808 Y15.2090 F150.00
G01 X27.4900 Y15.2282 F150.00
G01 X27.5062 Y15.2583 F150.00
G01 X27.5242 Y15.2874 F150.00
G01 X27.5412 Y15.3120 F150.00
